;FLAVOR:Marlin
;TIME:6860
;Filament used: 8.37436m
;Layer height: 0.2
;MINX:69.852
;MINY:69.852
;MINZ:0.2
;MAXX:150.147
;MAXY:150.147
;MAXZ:11
;POSTPROCESSED
;Generated with Cura_SteamEngine 5.2.2
M82 ;absolute extrusion mode
; Ender 3 Custom Start G-code
G92 E0 ; Reset Extruder
G28 ; Home all axes
M104 S175 ; Start heating up the nozzle most of the way
M190 S60 ; Start heating the bed, wait until target temperature reached
M109 S215.0 ; Finish heating the nozzle
G1 Z2.0 F3000 ; Move Z Axis up little to prevent scratching of Heat Bed
G1 X0.1 Y20 Z0.3 F5000.0 ; Move to start position
G1 X0.1 Y200.0 Z0.3 F1500.0 E15 ; Draw the first line
G1 X0.4 Y200.0 Z0.3 F5000.0 ; Move to side a little
G1 X0.4 Y20 Z0.3 F1500.0 E30 ; Draw the second line
G92 E0 ; Reset Extruder
G1 Z2.0 F3000 ; Move Z Axis up little to prevent scratching of Heat Bed
G1 X5 Y20 Z0.3 F5000.0 ; Move over to prevent blob squish
G92 E0
G92 E0
G1 F1500 E-6.5
;LAYER_COUNT:55
;LAYER:0
M107
G0 F6000 X73.39 Y73.142 Z0.2
;TYPE:SKIRT
G1 F1500 E0
G1 F1200 X73.711 Y72.852 E0.01439
G1 X74.172 Y72.458 E0.03456
G1 X74.798 Y71.976 E0.06084
G1 X75.159 Y71.74 E0.07518
G1 X75.672 Y71.425 E0.0952
G1 X76.365 Y71.046 E0.12147
G1 X76.77 Y70.865 E0.13623
G1 X77.328 Y70.634 E0.15632
G1 X78.072 Y70.369 E0.18258
G1 X78.486 Y70.257 E0.19685
G1 X79.072 Y70.116 E0.21689
G1 X79.848 Y69.971 E0.24315
G1 X80.292 Y69.924 E0.258
G1 X80.896 Y69.877 E0.27815
G1 X81.501 Y69.853 E0.29829
G1 X138.499 Y69.852 E2.19405
G1 X139.117 Y69.877 E2.21462
G1 X139.721 Y69.925 E2.23477
G1 X140.504 Y70.027 E2.26104
G1 X140.928 Y70.116 E2.27545
G1 X141.514 Y70.257 E2.29549
G1 X142.271 Y70.481 E2.32175
G1 X142.671 Y70.633 E2.33598
G1 X143.227 Y70.863 E2.356
G1 X143.94 Y71.202 E2.38225
G1 X144.324 Y71.423 E2.39699
G1 X144.839 Y71.739 E2.41709
G1 X145.491 Y72.185 E2.44336
G1 X145.826 Y72.456 E2.45769
G1 X146.285 Y72.848 E2.47777
G1 X146.858 Y73.39 E2.504
G1 X147.148 Y73.711 E2.51839
G1 X147.542 Y74.172 E2.53856
G1 X148.024 Y74.798 E2.56484
G1 X148.26 Y75.159 E2.57918
G1 X148.575 Y75.672 E2.5992
G1 X148.954 Y76.365 E2.62548
G1 X149.133 Y76.765 E2.64005
G1 X149.364 Y77.322 E2.66011
G1 X149.629 Y78.066 E2.68638
G1 X149.743 Y78.488 E2.70091
G1 X149.884 Y79.075 E2.72099
G1 X150.03 Y79.851 E2.74726
G1 X150.076 Y80.29 E2.76194
G1 X150.123 Y80.892 E2.78202
G1 X150.147 Y81.499 E2.80223
G1 X150.147 Y138.499 E4.69805
G1 X150.123 Y139.104 E4.71819
G1 X150.076 Y139.708 E4.73834
G1 X149.975 Y140.491 E4.7646
G1 X149.885 Y140.921 E4.77921
G1 X149.745 Y141.505 E4.79919
G1 X149.522 Y142.263 E4.82546
G1 X149.367 Y142.67 E4.83995
G1 X149.136 Y143.228 E4.86004
G1 X148.797 Y143.942 E4.88633
G1 X148.577 Y144.324 E4.90099
G1 X148.261 Y144.839 E4.92108
G1 X147.815 Y145.491 E4.94736
G1 X147.544 Y145.826 E4.96169
G1 X147.152 Y146.285 E4.98176
G1 X146.61 Y146.858 E5.008
G1 X146.288 Y147.149 E5.02243
G1 X145.828 Y147.542 E5.04256
G1 X145.202 Y148.024 E5.06883
G1 X144.846 Y148.257 E5.08299
G1 X144.332 Y148.573 E5.10305
G1 X143.639 Y148.952 E5.12932
G1 X143.23 Y149.135 E5.14423
G1 X142.672 Y149.366 E5.16431
G1 X141.928 Y149.631 E5.19058
G1 X141.514 Y149.743 E5.20485
G1 X140.928 Y149.884 E5.22489
G1 X140.152 Y150.029 E5.25115
G1 X139.708 Y150.076 E5.266
G1 X139.104 Y150.123 E5.28615
G1 X138.499 Y150.147 E5.30629
G1 X81.501 Y150.147 E7.20205
G1 X80.896 Y150.123 E7.22219
G1 X80.292 Y150.076 E7.24234
G1 X79.509 Y149.975 E7.2686
G1 X79.072 Y149.884 E7.28344
G1 X78.486 Y149.743 E7.30349
G1 X77.729 Y149.519 E7.32975
G1 X77.328 Y149.366 E7.34402
G1 X76.77 Y149.135 E7.36411
G1 X76.056 Y148.796 E7.3904
G1 X75.668 Y148.573 E7.40528
G1 X75.154 Y148.257 E7.42535
G1 X74.503 Y147.81 E7.45161
G1 X74.172 Y147.542 E7.46578
G1 X73.712 Y147.149 E7.4859
G1 X73.139 Y146.607 E7.51214
G1 X72.848 Y146.285 E7.52657
G1 X72.456 Y145.826 E7.54665
G1 X71.974 Y145.2 E7.57292
G1 X71.739 Y144.839 E7.58725
G1 X71.423 Y144.324 E7.60735
G1 X71.044 Y143.631 E7.63362
G1 X70.864 Y143.228 E7.6483
G1 X70.633 Y142.67 E7.66839
G1 X70.368 Y141.926 E7.69465
G1 X70.255 Y141.505 E7.70915
G1 X70.115 Y140.921 E7.72913
G1 X69.97 Y140.145 E7.75538
G1 X69.924 Y139.71 E7.76993
G1 X69.877 Y139.108 E7.79002
G1 X69.853 Y138.501 E7.81022
G1 X69.852 Y81.501 E9.70605
G1 X69.877 Y80.883 E9.72662
G1 X69.925 Y80.279 E9.74677
G1 X70.027 Y79.496 E9.77303
G1 X70.115 Y79.079 E9.78721
G1 X70.255 Y78.495 E9.80718
G1 X70.478 Y77.737 E9.83346
G1 X70.633 Y77.33 E9.84795
G1 X70.864 Y76.772 E9.86804
G1 X71.203 Y76.058 E9.89432
G1 X71.423 Y75.676 E9.90899
G1 X71.739 Y75.161 E9.92908
G1 X72.185 Y74.509 E9.95536
G1 X72.456 Y74.174 E9.96969
G1 X72.848 Y73.715 E9.98976
G1 X73.39 Y73.142 E10.016
G0 F6000 X73.681 Y73.417
G1 F1200 X73.971 Y73.156 E10.02897
G1 X74.432 Y72.762 E10.04914
G1 X75.042 Y72.293 E10.07474
G1 X75.368 Y72.081 E10.08767
G1 X75.881 Y71.766 E10.10769
G1 X76.556 Y71.398 E10.13326
G1 X76.923 Y71.235 E10.14662
G1 X77.481 Y71.004 E10.1667
G1 X78.206 Y70.747 E10.19229
G1 X78.58 Y70.646 E10.20517
G1 X79.166 Y70.505 E10.22522
G1 X79.922 Y70.365 E10.25079
G1 X80.323 Y70.322 E10.26421
G1 X80.927 Y70.275 E10.28436
G1 X81.501 Y70.253 E10.30346
G1 X138.499 Y70.252 E12.19922
G1 X139.085 Y70.275 E12.21873
G1 X139.689 Y70.323 E12.23888
G1 X140.452 Y70.424 E12.26448
G1 X140.834 Y70.505 E12.27747
G1 X141.42 Y70.646 E12.29751
G1 X142.158 Y70.865 E12.32312
G1 X142.518 Y71.003 E12.33594
G1 X143.074 Y71.233 E12.35595
G1 X143.768 Y71.564 E12.38153
G1 X144.115 Y71.764 E12.39485
G1 X144.63 Y72.08 E12.41494
G1 X145.264 Y72.515 E12.44052
G1 X145.566 Y72.76 E12.45345
G1 X146.025 Y73.152 E12.47353
G1 X146.583 Y73.681 E12.4991
G1 X146.844 Y73.971 E12.51208
G1 X147.238 Y74.432 E12.53225
G1 X147.707 Y75.042 E12.55784
G1 X147.919 Y75.368 E12.57077
G1 X148.234 Y75.881 E12.5908
G1 X148.602 Y76.556 E12.61637
G1 X148.763 Y76.918 E12.62954
G1 X148.994 Y77.475 E12.6496
G1 X149.252 Y78.2 E12.6752
G1 X149.354 Y78.582 E12.68835
G1 X149.495 Y79.169 E12.70842
G1 X149.636 Y79.925 E12.734
G1 X149.678 Y80.321 E12.74725
G1 X149.725 Y80.923 E12.76733
G1 X149.747 Y81.499 E12.7865
G1 X149.747 Y138.499 E14.68233
G1 X149.725 Y139.073 E14.70144
G1 X149.678 Y139.677 E14.72159
G1 X149.578 Y140.44 E14.74718
G1 X149.496 Y140.828 E14.76037
G1 X149.356 Y141.412 E14.78034
G1 X149.138 Y142.15 E14.80594
G1 X148.997 Y142.517 E14.81902
G1 X148.766 Y143.075 E14.8391
G1 X148.436 Y143.77 E14.86469
G1 X148.236 Y144.115 E14.87795
G1 X147.92 Y144.63 E14.89805
G1 X147.485 Y145.264 E14.92362
G1 X147.24 Y145.566 E14.93656
G1 X146.848 Y146.025 E14.95663
G1 X146.319 Y146.583 E14.98221
G1 X146.028 Y146.845 E14.99523
G1 X145.568 Y147.238 E15.01536
G1 X144.637 Y147.916 E15.05366
G1 X144.123 Y148.232 E15.07373
G1 X143.447 Y148.6 E15.09933
G1 X143.077 Y148.765 E15.1128
G1 X142.519 Y148.996 E15.13289
G1 X141.794 Y149.253 E15.15847
G1 X141.42 Y149.354 E15.17136
G1 X140.834 Y149.495 E15.19141
G1 X140.078 Y149.635 E15.21698
G1 X139.677 Y149.678 E15.23039
G1 X139.073 Y149.725 E15.25054
G1 X138.499 Y149.747 E15.26965
G1 X81.501 Y149.747 E17.16541
G1 X80.927 Y149.725 E17.18451
G1 X80.323 Y149.678 E17.20466
G1 X79.56 Y149.578 E17.23026
G1 X79.166 Y149.495 E17.24365
G1 X78.58 Y149.354 E17.2637
G1 X77.842 Y149.135 E17.2893
G1 X77.481 Y148.996 E17.30217
G1 X76.923 Y148.765 E17.32225
G1 X76.228 Y148.435 E17.34784
G1 X75.877 Y148.232 E17.36133
G1 X75.363 Y147.916 E17.3814
G1 X74.432 Y147.238 E17.4197
G1 X73.972 Y146.845 E17.43983
G1 X73.414 Y146.316 E17.4654
G1 X73.152 Y146.025 E17.47842
G1 X72.76 Y145.566 E17.4985
G1 X72.291 Y144.956 E17.52409
G1 X72.08 Y144.63 E17.53701
G1 X71.764 Y144.115 E17.5571
G1 X71.396 Y143.44 E17.58267
G1 X71.234 Y143.075 E17.59596
G1 X71.003 Y142.517 E17.61604
G1 X70.746 Y141.792 E17.64163
G1 X70.644 Y141.412 E17.65471
G1 X70.504 Y140.828 E17.67469
G1 X70.364 Y140.072 E17.70026
G1 X70.322 Y139.679 E17.7134
G1 X70.275 Y139.077 E17.73349
G1 X70.253 Y138.501 E17.75266
G1 X70.252 Y81.501 E19.64849
G1 X70.275 Y80.915 E19.66799
G1 X70.323 Y80.311 E19.68815
G1 X70.424 Y79.548 E19.71374
G1 X70.504 Y79.172 E19.72653
G1 X70.644 Y78.588 E19.7465
G1 X70.862 Y77.85 E19.7721
G1 X71.003 Y77.483 E19.78518
G1 X71.234 Y76.925 E19.80526
G1 X71.564 Y76.23 E19.83085
G1 X71.764 Y75.885 E19.84411
G1 X72.08 Y75.37 E19.86421
G1 X72.515 Y74.736 E19.88978
G1 X72.76 Y74.434 E19.90272
G1 X73.152 Y73.975 E19.92279
G1 X73.681 Y73.417 E19.94837
G0 F6000 X74.231 Y73.46
G1 F1200 X74.692 Y73.066 E19.96854
G1 X75.577 Y72.422 E20.00494
G1 X76.09 Y72.107 E20.02496
G1 X77.076 Y71.604 E20.06178
G1 X77.634 Y71.373 E20.08187
G1 X78.673 Y71.035 E20.11821
G1 X79.259 Y70.894 E20.13825
G1 X80.354 Y70.721 E20.17512
G1 X80.958 Y70.674 E20.19527
G1 X81.501 Y70.653 E20.21335
G1 X138.499 Y70.652 E22.10911
G1 X139.054 Y70.674 E22.12758
G1 X139.658 Y70.722 E22.14774
G1 X140.741 Y70.894 E22.18421
G1 X141.327 Y71.035 E22.20425
G1 X142.365 Y71.373 E22.24056
G1 X142.921 Y71.603 E22.26057
G1 X143.906 Y72.105 E22.29735
G1 X144.421 Y72.421 E22.31744
G1 X145.306 Y73.064 E22.35383
G1 X145.765 Y73.456 E22.3739
G1 X146.54 Y74.231 E22.41036
G1 X146.934 Y74.692 E22.43053
G1 X147.578 Y75.577 E22.46693
G1 X147.893 Y76.09 E22.48695
G1 X148.394 Y77.071 E22.52359
G1 X148.625 Y77.628 E22.54364
G1 X148.965 Y78.675 E22.58026
G1 X149.106 Y79.262 E22.60034
G1 X149.279 Y80.352 E22.63704
G1 X149.326 Y80.954 E22.65713
G1 X149.347 Y81.499 E22.67527
G1 X149.347 Y138.499 E24.5711
G1 X149.326 Y139.042 E24.58917
G1 X149.279 Y139.646 E24.60932
G1 X149.107 Y140.735 E24.64599
G1 X148.967 Y141.319 E24.66596
G1 X148.628 Y142.364 E24.7025
G1 X148.397 Y142.922 E24.72259
G1 X147.895 Y143.906 E24.75933
G1 X147.579 Y144.421 E24.77943
G1 X146.936 Y145.306 E24.81581
G1 X146.544 Y145.765 E24.83589
G1 X145.768 Y146.541 E24.87239
G1 X145.308 Y146.934 E24.89251
G1 X144.427 Y147.575 E24.92875
G1 X143.913 Y147.891 E24.94882
G1 X142.924 Y148.396 E24.98575
G1 X142.366 Y148.627 E25.00584
G1 X141.327 Y148.965 E25.04218
G1 X140.741 Y149.106 E25.06222
G1 X139.646 Y149.279 E25.0991
G1 X139.042 Y149.326 E25.11925
G1 X138.499 Y149.347 E25.13732
G1 X81.501 Y149.347 E27.03308
G1 X80.958 Y149.326 E27.05115
G1 X80.354 Y149.279 E27.0713
G1 X79.259 Y149.106 E27.10818
G1 X78.673 Y148.965 E27.12822
G1 X77.634 Y148.627 E27.16456
G1 X77.076 Y148.396 E27.18465
G1 X76.087 Y147.891 E27.22158
G1 X75.573 Y147.575 E27.24165
G1 X74.692 Y146.934 E27.27789
G1 X74.232 Y146.541 E27.29801
G1 X73.456 Y145.765 E27.33451
G1 X73.064 Y145.306 E27.35459
G1 X72.421 Y144.421 E27.39097
G1 X72.105 Y143.906 E27.41107
G1 X71.603 Y142.922 E27.44781
G1 X71.372 Y142.364 E27.4679
G1 X71.033 Y141.319 E27.50444
G1 X70.893 Y140.735 E27.52441
G1 X70.721 Y139.648 E27.56101
G1 X70.674 Y139.046 E27.5811
G1 X70.653 Y138.501 E27.59924
G1 X70.652 Y81.501 E29.49507
G1 X70.674 Y80.946 E29.51354
G1 X70.722 Y80.342 E29.53369
G1 X70.893 Y79.265 E29.56996
G1 X71.033 Y78.681 E29.58994
G1 X71.372 Y77.636 E29.62648
G1 X71.603 Y77.078 E29.64656
G1 X72.105 Y76.094 E29.6833
G1 X72.421 Y75.579 E29.7034
G1 X73.064 Y74.694 E29.73978
G1 X73.456 Y74.235 E29.75986
G1 X74.231 Y73.46 E29.79631
G0 F6000 X74.491 Y73.764
G1 F1200 X74.952 Y73.37 E29.81648
G1 X75.786 Y72.763 E29.85079
G1 X76.299 Y72.448 E29.87081
G1 X77.229 Y71.974 E29.90553
G1 X77.787 Y71.743 E29.92562
G1 X78.767 Y71.424 E29.9599
G1 X79.353 Y71.283 E29.97994
G1 X80.385 Y71.12 E30.01469
G1 X80.989 Y71.073 E30.03484
G1 X81.501 Y71.053 E30.05189
G1 X138.499 Y71.052 E31.94765
G1 X139.022 Y71.073 E31.96506
G1 X139.626 Y71.121 E31.98521
G1 X140.647 Y71.283 E32.01959
G1 X141.233 Y71.424 E32.03964
G1 X142.212 Y71.742 E32.07387
G1 X142.768 Y71.972 E32.09389
G1 X143.697 Y72.446 E32.12858
G1 X144.212 Y72.762 E32.14867
G1 X145.046 Y73.368 E32.18296
G1 X145.505 Y73.76 E32.20304
G1 X146.236 Y74.491 E32.23742
G1 X146.63 Y74.952 E32.25759
G1 X147.237 Y75.786 E32.2919
G1 X147.552 Y76.299 E32.31192
G1 X148.025 Y77.225 E32.34651
G1 X148.256 Y77.782 E32.36656
G1 X148.576 Y78.768 E32.40104
G1 X148.717 Y79.355 E32.42112
G1 X148.88 Y80.383 E32.45574
G1 X148.927 Y80.985 E32.47582
G1 X148.947 Y81.499 E32.49293
G1 X148.947 Y138.499 E34.38876
G1 X148.927 Y139.011 E34.4058
G1 X148.88 Y139.615 E34.42595
G1 X148.718 Y140.642 E34.46053
G1 X148.578 Y141.226 E34.4805
G1 X148.258 Y142.211 E34.51495
G1 X148.027 Y142.769 E34.53504
G1 X147.554 Y143.697 E34.56968
G1 X147.238 Y144.212 E34.58978
G1 X146.632 Y145.046 E34.62407
G1 X146.24 Y145.505 E34.64414
G1 X145.508 Y146.237 E34.67857
G1 X145.048 Y146.63 E34.6987
G1 X144.218 Y147.234 E34.73284
G1 X143.704 Y147.55 E34.75291
G1 X142.771 Y148.026 E34.78774
G1 X142.213 Y148.257 E34.80783
G1 X141.233 Y148.576 E34.84211
G1 X140.647 Y148.717 E34.86215
G1 X139.615 Y148.88 E34.8969
G1 X139.011 Y148.927 E34.91705
G1 X138.499 Y148.947 E34.9341
G1 X81.501 Y148.947 E36.82986
G1 X80.989 Y148.927 E36.8469
G1 X80.385 Y148.88 E36.86705
G1 X79.353 Y148.717 E36.9018
G1 X78.767 Y148.576 E36.92185
G1 X77.787 Y148.257 E36.95612
G1 X77.229 Y148.026 E36.97621
G1 X76.296 Y147.55 E37.01105
G1 X75.782 Y147.234 E37.03112
G1 X74.952 Y146.63 E37.06526
G1 X74.492 Y146.237 E37.08538
G1 X73.76 Y145.505 E37.11981
G1 X73.368 Y145.046 E37.13989
G1 X72.762 Y144.212 E37.17418
G1 X72.446 Y143.697 E37.19427
G1 X71.973 Y142.769 E37.22892
G1 X71.742 Y142.211 E37.249
G1 X71.422 Y141.226 E37.28345
G1 X71.282 Y140.642 E37.30342
G1 X71.12 Y139.617 E37.33794
G1 X71.073 Y139.015 E37.35802
G1 X71.053 Y138.501 E37.37513
G1 X71.052 Y81.501 E39.27096
G1 X71.073 Y80.978 E39.28837
G1 X71.121 Y80.374 E39.30852
G1 X71.282 Y79.358 E39.34273
G1 X71.422 Y78.774 E39.36271
G1 X71.742 Y77.789 E39.39715
G1 X71.973 Y77.231 E39.41724
G1 X72.446 Y76.303 E39.45188
G1 X72.762 Y75.788 E39.47198
G1 X73.368 Y74.954 E39.50627
G1 X73.76 Y74.495 E39.52635
G1 X74.491 Y73.764 E39.56073
G0 F6000 X74.751 Y74.068
G1 F1200 X75.212 Y73.674 E39.5809
G1 X75.996 Y73.104 E39.61314
G1 X76.509 Y72.789 E39.63316
G1 X77.382 Y72.343 E39.66577
G1 X77.94 Y72.112 E39.68585
G1 X78.861 Y71.813 E39.71806
G1 X79.447 Y71.672 E39.73811
G1 X80.416 Y71.519 E39.77074
G1 X81.02 Y71.472 E39.79089
G1 X81.501 Y71.453 E39.8069
G1 X138.499 Y71.452 E41.70266
G1 X138.99 Y71.471 E41.719
G1 X139.594 Y71.519 E41.73915
G1 X140.553 Y71.672 E41.77145
G1 X141.139 Y71.813 E41.7915
G1 X142.059 Y72.112 E41.82367
G1 X142.615 Y72.342 E41.84369
G1 X143.488 Y72.786 E41.87626
G1 X144.003 Y73.102 E41.89636
G1 X144.786 Y73.672 E41.92857
G1 X145.245 Y74.064 E41.94865
G1 X145.932 Y74.751 E41.98096
G1 X146.326 Y75.212 E42.00113
G1 X146.896 Y75.996 E42.03337
G1 X147.211 Y76.509 E42.05339
G1 X147.655 Y77.378 E42.08585
G1 X147.886 Y77.935 E42.10591
G1 X148.188 Y78.862 E42.13833
G1 X148.329 Y79.449 E42.15841
G1 X148.481 Y80.414 E42.1909
G1 X148.528 Y81.016 E42.21099
G1 X148.547 Y81.499 E42.22706
G1 X148.547 Y138.499 E44.12289
G1 X148.528 Y138.98 E44.1389
G1 X148.481 Y139.584 E44.15905
G1 X148.329 Y140.548 E44.19151
G1 X148.189 Y141.132 E44.21149
G1 X147.889 Y142.058 E44.24386
G1 X147.658 Y142.616 E44.26395
G1 X147.214 Y143.488 E44.29649
G1 X146.898 Y144.003 E44.31659
G1 X146.328 Y144.786 E44.3488
G1 X145.936 Y145.245 E44.36888
G1 X145.248 Y145.933 E44.40124
G1 X144.788 Y146.326 E44.42136
G1 X144.008 Y146.894 E44.45346
G1 X143.494 Y147.21 E44.47352
G1 X142.618 Y147.657 E44.50623
G1 X142.06 Y147.888 E44.52632
G1 X141.139 Y148.187 E44.55853
G1 X140.553 Y148.328 E44.57857
G1 X139.584 Y148.481 E44.6112
G1 X138.98 Y148.528 E44.63135
G1 X138.499 Y148.547 E44.64736
G1 X81.501 Y148.547 E46.54312
G1 X81.02 Y148.528 E46.55913
G1 X80.416 Y148.481 E46.57928
G1 X79.447 Y148.328 E46.61191
G1 X78.861 Y148.187 E46.63196
G1 X77.94 Y147.888 E46.66416
G1 X77.382 Y147.657 E46.68425
G1 X76.506 Y147.21 E46.71696
G1 X75.992 Y146.894 E46.73703
G1 X75.212 Y146.326 E46.76912
G1 X74.752 Y145.933 E46.78924
G1 X74.064 Y145.245 E46.82161
G1 X73.672 Y144.786 E46.84168
G1 X73.102 Y144.003 E46.87389
G1 X72.786 Y143.488 E46.89399
G1 X72.342 Y142.616 E46.92654
G1 X72.111 Y142.058 E46.94662
G1 X71.811 Y141.132 E46.979
G1 X71.671 Y140.548 E46.99897
G1 X71.519 Y139.586 E47.03137
G1 X71.472 Y138.984 E47.05145
G1 X71.453 Y138.501 E47.06753
G1 X71.452 Y81.501 E48.96335
G1 X71.471 Y81.01 E48.9797
G1 X71.519 Y80.406 E48.99985
G1 X71.671 Y79.452 E49.03198
G1 X71.811 Y78.868 E49.05195
G1 X72.111 Y77.942 E49.08433
