;FLAVOR:Marlin
;TIME:10113
;Filament used: 8.45077m
;Layer height: 0.2
;MINX:69.903
;MINY:69.852
;MINZ:0.2
;MAXX:150.148
;MAXY:150.148
;MAXZ:11
;POSTPROCESSED
;Generated with Cura_SteamEngine 5.2.2
M82 ;absolute extrusion mode
; Ender 3 Custom Start G-code
G92 E0 ; Reset Extruder
G28 ; Home all axes
M104 S175 ; Start heating up the nozzle most of the way
M190 S60 ; Start heating the bed, wait until target temperature reached
M109 S215.0 ; Finish heating the nozzle
G1 Z2.0 F3000 ; Move Z Axis up little to prevent scratching of Heat Bed
G1 X0.1 Y20 Z0.3 F5000.0 ; Move to start position
G1 X0.1 Y200.0 Z0.3 F1500.0 E15 ; Draw the first line
G1 X0.4 Y200.0 Z0.3 F5000.0 ; Move to side a little
G1 X0.4 Y20 Z0.3 F1500.0 E30 ; Draw the second line
G92 E0 ; Reset Extruder
G1 Z2.0 F3000 ; Move Z Axis up little to prevent scratching of Heat Bed
G1 X5 Y20 Z0.3 F5000.0 ; Move over to prevent blob squish
G92 E0
G92 E0
G1 F1500 E-6.5
;LAYER_COUNT:55
;LAYER:0
M107
G0 F6000 X73.287 Y73.284 Z0.2
;TYPE:SKIRT
G1 F1500 E0
G1 F1200 X73.86 Y72.741 E0.02626
G1 X74.485 Y72.258 E0.05253
G1 X75.156 Y71.842 E0.07879
G1 X75.866 Y71.496 E0.10506
G1 X76.537 Y71.245 E0.12888
G1 X77.043 Y71.082 E0.14656
G1 X77.807 Y70.878 E0.17287
G1 X78.143 Y70.696 E0.18558
G1 X78.872 Y70.393 E0.21183
G1 X79.628 Y70.165 E0.2381
G1 X80.403 Y70.014 E0.26436
G1 X81.465 Y69.937 E0.29977
G1 X100.803 Y69.852 E0.94296
G1 X138.522 Y69.97 E2.19751
G1 X139.311 Y70.012 E2.22379
G1 X140.062 Y70.128 E2.24906
G1 X140.741 Y70.267 E2.27211
G1 X141.506 Y70.465 E2.2984
G1 X142.247 Y70.738 E2.32466
G1 X142.822 Y71.02 E2.34596
G1 X143.07 Y71.088 E2.35452
G1 X143.82 Y71.334 E2.38077
G1 X144.542 Y71.655 E2.40705
G1 X145.227 Y72.047 E2.4333
G1 X145.87 Y72.507 E2.45959
G1 X146.462 Y73.029 E2.48585
G1 X146.999 Y73.608 E2.51211
G1 X147.474 Y74.239 E2.53838
G1 X147.883 Y74.914 E2.56463
G1 X148.222 Y75.628 E2.59092
G1 X148.372 Y76.02 E2.60488
G1 X148.728 Y77.031 E2.64053
G1 X148.964 Y77.37 E2.65427
G1 X149.348 Y78.061 E2.68056
G1 X149.66 Y78.786 E2.70681
G1 X149.897 Y79.539 E2.73307
G1 X150.056 Y80.313 E2.75935
G1 X150.137 Y81.098 E2.7856
G1 X150.147 Y81.5 E2.79897
G1 X150.148 Y100.814 E3.44136
G1 X149.981 Y138.534 E4.69594
G1 X149.937 Y139.322 E4.72219
G1 X149.882 Y139.735 E4.73605
G1 X149.804 Y140.221 E4.75242
G1 X149.64 Y140.993 E4.77867
G1 X149.398 Y141.745 E4.80495
G1 X149.198 Y142.215 E4.82193
G1 X148.96 Y142.919 E4.84665
G1 X148.669 Y143.653 E4.87291
G1 X148.306 Y144.354 E4.89917
G1 X148.054 Y144.756 E4.91495
G1 X147.439 Y145.675 E4.95173
G1 X146.968 Y146.308 E4.97797
G1 X146.434 Y146.891 E5.00427
G1 X145.844 Y147.416 E5.03053
G1 X145.205 Y147.879 E5.05678
G1 X144.522 Y148.275 E5.08304
G1 X144.15 Y148.453 E5.09675
G1 X142.073 Y149.385 E5.17247
G1 X141.337 Y149.672 E5.19875
G1 X140.576 Y149.882 E5.225
G1 X139.798 Y150.015 E5.25126
G1 X138.777 Y150.068 E5.28526
G1 X138.488 Y150.064 E5.29487
G1 X119.186 Y150.148 E5.93687
G1 X81.607 Y149.982 E7.18676
G1 X80.847 Y150.004 E7.21205
G1 X80.057 Y149.987 E7.23833
G1 X79.273 Y149.89 E7.26461
G1 X78.503 Y149.715 E7.29087
G1 X77.435 Y149.329 E7.32864
G1 X76.712 Y149.006 E7.35498
G1 X75.813 Y148.531 E7.38879
G1 X74.777 Y147.895 E7.42923
G1 X74.126 Y147.449 E7.45547
G1 X73.523 Y146.938 E7.48176
G1 X72.975 Y146.37 E7.50801
G1 X72.36 Y145.562 E7.54179
G1 X71.566 Y144.366 E7.58953
G1 X71.163 Y143.687 E7.6158
G1 X70.837 Y142.986 E7.64151
G1 X70.565 Y142.316 E7.66556
G1 X70.305 Y141.57 E7.69184
G1 X70.122 Y140.802 E7.71809
G1 X70.018 Y140.019 E7.74437
G1 X69.996 Y139.143 E7.77351
G1 X70.019 Y138.4 E7.79823
G1 X69.903 Y86.475 E9.52527
G1 X69.904 Y81.496 E9.69087
G1 X69.944 Y80.708 E9.71712
G1 X70.064 Y79.927 E9.7434
G1 X70.354 Y78.78 E9.78275
G1 X70.578 Y78.045 E9.8083
G1 X71.127 Y76.516 E9.86234
G1 X71.431 Y75.787 E9.88861
G1 X71.807 Y75.093 E9.91486
G1 X72.252 Y74.44 E9.94114
G1 X72.826 Y73.767 E9.97056
G1 X73.287 Y73.284 E9.99277
G0 F6000 X73.576 Y73.56
G1 F1200 X74.135 Y73.032 E10.01834
G1 X74.746 Y72.565 E10.04392
G1 X75.402 Y72.163 E10.06951
G1 X76.097 Y71.832 E10.09512
G1 X76.66 Y71.625 E10.11507
G1 X77.166 Y71.462 E10.13275
G1 X77.939 Y71.261 E10.15931
G1 X78.333 Y71.049 E10.17419
G1 X79.044 Y70.756 E10.19977
G1 X79.782 Y70.539 E10.22536
G1 X80.538 Y70.4 E10.25092
G1 X81.466 Y70.337 E10.28186
G1 X100.802 Y70.252 E10.92498
G1 X138.521 Y70.37 E12.17953
G1 X139.289 Y70.412 E12.20511
G1 X139.982 Y70.52 E12.22844
G1 X140.661 Y70.659 E12.25149
G1 X141.406 Y70.853 E12.2771
G1 X142.126 Y71.122 E12.30266
G1 X142.668 Y71.392 E12.3228
G1 X142.965 Y71.473 E12.33304
G1 X143.695 Y71.714 E12.35861
G1 X144.397 Y72.03 E12.38421
G1 X145.062 Y72.416 E12.40979
G1 X145.683 Y72.87 E12.43537
G1 X146.254 Y73.386 E12.46097
G1 X146.768 Y73.958 E12.48655
G1 X147.22 Y74.58 E12.51212
G1 X147.605 Y75.246 E12.53771
G1 X147.994 Y76.153 E12.57053
G1 X148.362 Y77.198 E12.60738
G1 X148.728 Y77.753 E12.62949
G1 X149.083 Y78.436 E12.65509
G1 X149.364 Y79.151 E12.68065
G1 X149.57 Y79.893 E12.70626
G1 X149.698 Y80.651 E12.73183
G1 X149.747 Y81.5 E12.76011
G1 X149.748 Y100.812 E13.40243
G1 X149.581 Y138.532 E14.65701
G1 X149.487 Y139.672 E14.69506
G1 X149.409 Y140.158 E14.71143
G1 X149.248 Y140.91 E14.73701
G1 X149.01 Y141.641 E14.76258
G1 X148.821 Y142.082 E14.77854
G1 X148.581 Y142.791 E14.80343
G1 X148.297 Y143.505 E14.82899
G1 X147.94 Y144.187 E14.85459
G1 X147.722 Y144.534 E14.86822
G1 X147.107 Y145.453 E14.905
G1 X146.647 Y146.069 E14.93057
G1 X146.125 Y146.634 E14.95616
G1 X145.547 Y147.142 E14.98175
G1 X144.92 Y147.587 E15.00732
G1 X143.987 Y148.088 E15.04255
G1 X141.91 Y149.02 E15.11826
G1 X141.192 Y149.298 E15.14387
G1 X140.45 Y149.5 E15.16945
G1 X139.691 Y149.624 E15.19503
G1 X138.783 Y149.668 E15.22526
G1 X138.492 Y149.664 E15.23494
G1 X119.188 Y149.748 E15.877
G1 X81.597 Y149.582 E17.1273
G1 X80.835 Y149.604 E17.15265
G1 X80.066 Y149.586 E17.17824
G1 X79.303 Y149.489 E17.20382
G1 X78.554 Y149.314 E17.2294
G1 X77.599 Y148.963 E17.26324
G1 X76.876 Y148.64 E17.28958
G1 X76.022 Y148.19 E17.32169
G1 X74.986 Y147.554 E17.36212
G1 X74.353 Y147.119 E17.38766
G1 X73.768 Y146.619 E17.41326
G1 X73.238 Y146.062 E17.43883
G1 X72.693 Y145.341 E17.46889
G1 X71.899 Y144.145 E17.51664
G1 X71.507 Y143.483 E17.54223
G1 X71.207 Y142.836 E17.56595
G1 X70.935 Y142.166 E17.59
G1 X70.684 Y141.439 E17.61558
G1 X70.508 Y140.69 E17.64117
G1 X70.412 Y139.927 E17.66675
G1 X70.395 Y139.156 E17.6924
G1 X70.419 Y138.382 E17.71815
G1 X70.303 Y86.476 E19.44456
G1 X70.304 Y81.497 E19.61016
G1 X70.344 Y80.728 E19.63577
G1 X70.464 Y79.969 E19.66133
G1 X70.742 Y78.877 E19.69881
G1 X70.954 Y78.18 E19.72304
G1 X71.503 Y76.651 E19.77707
G1 X71.801 Y75.942 E19.80265
G1 X72.17 Y75.267 E19.82824
G1 X72.607 Y74.634 E19.85382
G1 X73.115 Y74.043 E19.87974
G1 X73.576 Y73.56 E19.90195
G0 F6000 X73.865 Y73.836
G1 F1200 X74.41 Y73.323 E19.92684
G1 X75.006 Y72.871 E19.95172
G1 X75.647 Y72.486 E19.97659
G1 X76.326 Y72.171 E20.00149
G1 X76.783 Y72.006 E20.01765
G1 X77.289 Y71.843 E20.03533
G1 X78.012 Y71.652 E20.0602
G1 X78.069 Y71.645 E20.06211
G1 X78.522 Y71.401 E20.07923
G1 X79.216 Y71.12 E20.10413
G1 X79.935 Y70.914 E20.12901
G1 X80.672 Y70.786 E20.15388
G1 X81.468 Y70.737 E20.18041
G1 X100.801 Y70.652 E20.82343
G1 X138.52 Y70.77 E22.07798
G1 X139.267 Y70.812 E22.10286
G1 X139.902 Y70.912 E22.12424
G1 X140.581 Y71.051 E22.1473
G1 X141.305 Y71.24 E22.17218
G1 X142.004 Y71.505 E22.19705
G1 X142.516 Y71.765 E22.21615
G1 X142.859 Y71.859 E22.22798
G1 X143.569 Y72.095 E22.25286
G1 X144.25 Y72.405 E22.27775
G1 X144.894 Y72.785 E22.30262
G1 X145.494 Y73.233 E22.32752
G1 X146.042 Y73.741 E22.35238
G1 X146.534 Y74.306 E22.37729
G1 X146.962 Y74.919 E22.40216
G1 X147.322 Y75.575 E22.42705
G1 X147.617 Y76.286 E22.45265
G1 X148.013 Y77.399 E22.49194
G1 X148.09 Y77.498 E22.49611
G1 X148.485 Y78.134 E22.52102
G1 X148.809 Y78.808 E22.54589
G1 X149.059 Y79.513 E22.57077
G1 X149.233 Y80.241 E22.59566
G1 X149.328 Y80.983 E22.62054
G1 X149.347 Y81.5 E22.63775
G1 X149.348 Y100.81 E23.28
G1 X149.181 Y138.53 E24.53459
G1 X149.093 Y139.608 E24.57056
G1 X149.015 Y140.094 E24.58693
G1 X148.857 Y140.825 E24.61181
G1 X148.622 Y141.536 E24.63671
G1 X148.446 Y141.941 E24.6514
G1 X148.202 Y142.662 E24.67672
G1 X147.925 Y143.357 E24.7016
G1 X147.39 Y144.311 E24.73798
G1 X146.775 Y145.23 E24.77476
G1 X146.326 Y145.829 E24.79966
G1 X145.816 Y146.376 E24.82453
G1 X145.25 Y146.866 E24.84943
G1 X144.636 Y147.292 E24.87429
G1 X143.823 Y147.723 E24.90489
G1 X141.746 Y148.655 E24.98061
G1 X141.048 Y148.925 E25.0055
G1 X140.325 Y149.118 E25.03039
G1 X139.586 Y149.233 E25.05527
G1 X138.788 Y149.268 E25.08183
G1 X138.495 Y149.264 E25.09158
G1 X119.19 Y149.348 E25.73367
G1 X81.586 Y149.182 E26.9844
G1 X80.823 Y149.204 E27.00979
G1 X80.075 Y149.186 E27.03467
G1 X79.334 Y149.088 E27.05953
G1 X78.607 Y148.912 E27.08441
G1 X77.762 Y148.598 E27.1144
G1 X77.039 Y148.275 E27.14073
G1 X76.232 Y147.85 E27.17107
G1 X75.196 Y147.214 E27.2115
G1 X74.58 Y146.789 E27.23639
G1 X74.013 Y146.301 E27.26127
G1 X73.502 Y145.755 E27.28615
G1 X73.026 Y145.12 E27.31254
G1 X72.232 Y143.924 E27.36029
G1 X71.852 Y143.279 E27.38519
G1 X71.578 Y142.685 E27.40695
G1 X71.306 Y142.015 E27.431
G1 X71.062 Y141.308 E27.45587
G1 X70.895 Y140.579 E27.48075
G1 X70.807 Y139.836 E27.50563
G1 X70.795 Y139.168 E27.52785
G1 X70.819 Y138.393 E27.55364
G1 X70.703 Y86.476 E29.28041
G1 X70.704 Y81.497 E29.44601
G1 X70.744 Y80.75 E29.4709
G1 X70.864 Y80.011 E29.4958
G1 X71.13 Y78.975 E29.53137
G1 X71.331 Y78.315 E29.55432
G1 X71.88 Y76.786 E29.60835
G1 X72.17 Y76.097 E29.63322
G1 X72.532 Y75.442 E29.65811
G1 X72.962 Y74.83 E29.68298
G1 X73.404 Y74.319 E29.70546
G1 X73.865 Y73.836 E29.72766
G0 F6000 X74.155 Y74.112
G1 F1200 X74.684 Y73.615 E29.75181
G1 X75.265 Y73.179 E29.77597
G1 X75.891 Y72.81 E29.80013
G1 X76.553 Y72.511 E29.82429
G1 X76.905 Y72.387 E29.83671
G1 X77.411 Y72.224 E29.85439
G1 X78.114 Y72.04 E29.87856
G1 X78.198 Y72.029 E29.88138
G1 X78.712 Y71.754 E29.90076
G1 X79.386 Y71.484 E29.92491
G1 X80.086 Y71.29 E29.94907
G1 X80.803 Y71.174 E29.97323
G1 X81.47 Y71.137 E29.99545
G1 X100.8 Y71.052 E30.63837
G1 X138.519 Y71.17 E31.89292
G1 X139.244 Y71.212 E31.91707
G1 X139.822 Y71.304 E31.93654
G1 X140.501 Y71.443 E31.95959
G1 X141.203 Y71.628 E31.98374
G1 X141.881 Y71.888 E32.00789
G1 X142.308 Y72.123 E32.0241
G1 X142.754 Y72.245 E32.03948
G1 X143.443 Y72.475 E32.06364
G1 X144.103 Y72.779 E32.08781
G1 X144.725 Y73.154 E32.11196
G1 X145.302 Y73.594 E32.1361
G1 X145.828 Y74.096 E32.16028
G1 X146.295 Y74.652 E32.18443
G1 X146.698 Y75.256 E32.20858
G1 X147.033 Y75.901 E32.23276
G1 X147.24 Y76.419 E32.25131
G1 X147.653 Y77.592 E32.29267
G1 X147.868 Y77.884 E32.30473
G1 X148.232 Y78.513 E32.3289
G1 X148.525 Y79.178 E32.35307
G1 X148.743 Y79.871 E32.37723
G1 X148.883 Y80.583 E32.40137
G1 X148.947 Y81.5 E32.43194
G1 X148.948 Y100.808 E33.07413
G1 X148.781 Y138.528 E34.32871
G1 X148.698 Y139.545 E34.36265
G1 X148.62 Y140.031 E34.37902
G1 X148.465 Y140.741 E34.40319
G1 X148.234 Y141.429 E34.42733
G1 X148.075 Y141.792 E34.44051
G1 X147.824 Y142.534 E34.46657
G1 X147.553 Y143.208 E34.49073
G1 X147.057 Y144.089 E34.52435
G1 X146.442 Y145.008 E34.56113
G1 X146.006 Y145.588 E34.58527
G1 X145.508 Y146.117 E34.60943
G1 X144.955 Y146.588 E34.63359
G1 X144.354 Y146.996 E34.65775
G1 X143.659 Y147.359 E34.68383
G1 X141.582 Y148.291 E34.75955
G1 X140.904 Y148.551 E34.7837
G1 X140.201 Y148.735 E34.80787
G1 X139.483 Y148.841 E34.83201
G1 X138.793 Y148.868 E34.85498
G1 X138.499 Y148.864 E34.86476
G1 X119.192 Y148.948 E35.50692
G1 X81.576 Y148.781 E36.75804
G1 X80.811 Y148.804 E36.7835
G1 X80.085 Y148.786 E36.80765
G1 X79.365 Y148.687 E36.83182
G1 X78.661 Y148.51 E36.85597
G1 X77.925 Y148.233 E36.88212
G1 X77.202 Y147.91 E36.90846
G1 X76.441 Y147.509 E36.93707
G1 X75.405 Y146.873 E36.9775
G1 X74.808 Y146.459 E37.00167
G1 X74.26 Y145.983 E37.02581
G1 X73.767 Y145.449 E37.04998
G1 X73.359 Y144.898 E37.07279
G1 X72.565 Y143.702 E37.12053
G1 X72.198 Y143.076 E37.14467
G1 X71.949 Y142.535 E37.16448
G1 X71.677 Y141.865 E37.18853
G1 X71.441 Y141.178 E37.21269
G1 X71.282 Y140.469 E37.23685
G1 X71.202 Y139.747 E37.26101
G1 X71.195 Y139.18 E37.27987
G1 X71.219 Y138.404 E37.3057
G1 X71.103 Y86.476 E39.03283
G1 X71.104 Y81.497 E39.19844
G1 X71.144 Y80.771 E39.22262
G1 X71.264 Y80.055 E39.24677
G1 X71.518 Y79.072 E39.28053
G1 X71.707 Y78.451 E39.30212
G1 X72.256 Y76.922 E39.35616
G1 X72.539 Y76.253 E39.38032
G1 X72.894 Y75.619 E39.40449
G1 X73.316 Y75.027 E39.42867
G1 X73.694 Y74.595 E39.44776
G1 X74.155 Y74.112 E39.46997
G0 F6000 X74.444 Y74.388
G1 F1200 X74.958 Y73.907 E39.49338
G1 X75.524 Y73.488 E39.5168
G1 X76.133 Y73.135 E39.54021
G1 X77.028 Y72.768 E39.57239
G1 X77.534 Y72.605 E39.59007
G1 X78.215 Y72.427 E39.61348
G1 X78.329 Y72.412 E39.6173
G1 X78.9 Y72.108 E39.63882
G1 X79.555 Y71.85 E39.66223
G1 X80.235 Y71.667 E39.68565
G1 X80.931 Y71.563 E39.70906
G1 X81.472 Y71.537 E39.72708
G1 X100.798 Y71.452 E40.36987
G1 X138.517 Y71.57 E41.62441
G1 X139.22 Y71.612 E41.64784
G1 X139.741 Y71.696 E41.66539
G1 X140.42 Y71.835 E41.68844
G1 X141.101 Y72.015 E41.71187
G1 X141.757 Y72.271 E41.73529
G1 X142.17 Y72.5 E41.751
G1 X142.649 Y72.631 E41.76751
G1 X143.316 Y72.855 E41.79091
G1 X143.954 Y73.153 E41.81434
G1 X144.554 Y73.521 E41.83775
G1 X145.108 Y73.955 E41.86115
G1 X145.61 Y74.449 E41.88458
G1 X146.052 Y74.997 E41.90799
G1 X146.429 Y75.591 E41.93139
G1 X146.863 Y76.552 E41.96647
G1 X147.29 Y77.765 E42.00924
G1 X147.638 Y78.268 E42.02958
G1 X147.97 Y78.889 E42.053
G1 X148.23 Y79.543 E42.07641
G1 X148.414 Y80.223 E42.09984
G1 X148.52 Y80.919 E42.12326
G1 X148.547 Y81.5 E42.1426
G1 X148.548 Y100.806 E42.78472
G1 X148.381 Y138.526 E44.03931
G1 X148.303 Y139.481 E44.07117
G1 X148.225 Y139.967 E44.08755
G1 X148.074 Y140.655 E44.11097
G1 X147.846 Y141.321 E44.13439
G1 X147.701 Y141.65 E44.14635
G1 X147.445 Y142.406 E44.17289
G1 X147.181 Y143.059 E44.19632
G1 X146.725 Y143.866 E44.22715
G1 X146.11 Y144.785 E44.26393
G1 X145.686 Y145.347 E44.28734
G1 X145.2 Y145.857 E44.31077
G1 X144.661 Y146.309 E44.33417
G1 X144.073 Y146.697 E44.3576
G1 X143.495 Y146.994 E44.37922
G1 X141.418 Y147.926 E44.45493
G1 X140.761 Y148.177 E44.47832
G1 X140.079 Y148.352 E44.50174
G1 X139.381 Y148.449 E44.52518
G1 X138.798 Y148.468 E44.54458
G1 X138.502 Y148.464 E44.55443
G1 X119.194 Y148.548 E45.19662
G1 X81.566 Y148.381 E46.44815
G1 X80.799 Y148.404 E46.47367
G1 X80.096 Y148.385 E46.49706
G1 X79.399 Y148.286 E46.52047
G1 X78.717 Y148.109 E46.54391
G1 X78.088 Y147.868 E46.56631
G1 X77.365 Y147.545 E46.59265
G1 X76.65 Y147.168 E46.61953
G1 X75.614 Y146.532 E46.65997
G1 X75.036 Y146.13 E46.68338
G1 X74.507 Y145.665 E46.70681
G1 X74.035 Y145.144 E46.73019
G1 X73.693 Y144.677 E46.74944
G1 X72.899 Y143.481 E46.79719
G1 X72.543 Y142.874 E46.8206
G1 X72.319 Y142.384 E46.83852
G1 X72.047 Y141.714 E46.86257
G1 X71.82 Y141.048 E46.88597
G1 X71.67 Y140.36 E46.90939
G1 X71.598 Y139.66 E46.93279
G1 X71.595 Y139.192 E46.94836
G1 X71.619 Y138.415 E46.97422
G1 X71.503 Y86.476 E48.70172
G1 X71.504 Y81.497 E48.86732
G1 X71.544 Y80.794 E48.89074
G1 X71.749 Y79.773 E48.92538
G1 X71.906 Y79.17 E48.9461
G1 X72.084 Y78.586 E48.96641
G1 X72.633 Y77.057 E49.02044
G1 X72.908 Y76.409 E49.04385
G1 X73.255 Y75.796 E49.06728
G1 X73.669 Y75.227 E49.09069
G1 X73.983 Y74.871 E49.10647
G1 X74.444 Y74.388 E49.12868
G0 F6000 X74.733 Y74.664
G1 F1200 X75.232 Y74.2 E49.15135
G1 X75.781 Y73.798 E49.17398
G1 X76.373 Y73.462 E49.19662
G1 X77.151 Y73.148 E49.22452
G1 X77.657 Y72.985 E49.2422
G1 X78.316 Y72.815 E49.26484
G1 X78.461 Y72.797 E49.2697
G1 X79.088 Y72.462 E49.29334
G1 X79.723 Y72.216 E49.31599
G1 X80.382 Y72.046 E49.33863
G1 X81.057 Y71.954 E49.36129
G1 X81.473 Y71.937 E49.37513
G1 X100.797 Y71.852 E50.01786
G1 X138.516 Y71.97 E51.2724
G1 X139.196 Y72.012 E51.29506
G1 X139.661 Y72.088 E51.31074
G1 X140.34 Y72.227 E51.33379
G1 X140.998 Y72.402 E51.35643
G1 X141.631 Y72.654 E51.37909
G1 X142.031 Y72.877 E51.39433
G1 X142.543 Y73.017 E51.41198
G1 X143.188 Y73.235 E51.43463
G1 X143.804 Y73.526 E51.45728
G1 X144.38 Y73.888 E51.47991
G1 X144.911 Y74.315 E51.50258
