;FLAVOR:Marlin
;TIME:1219
;Filament used: 0.644142m
;Layer height: 0.2
;MINX:79.97
;MINY:74.699
;MINZ:0.2
;MAXX:140.029
;MAXY:145.295
;MAXZ:2
;Generated with Cura_SteamEngine 5.2.2
M82 ;absolute extrusion mode
; Ender 3 Custom Start G-code
G92 E0 ; Reset Extruder
G28 ; Home all axes
M104 S175 ; Start heating up the nozzle most of the way
M190 S60 ; Start heating the bed, wait until target temperature reached
M109 S200 ; Finish heating the nozzle
G1 Z2.0 F3000 ; Move Z Axis up little to prevent scratching of Heat Bed
G1 X0.1 Y20 Z0.3 F5000.0 ; Move to start position
G1 X0.1 Y200.0 Z0.3 F1500.0 E15 ; Draw the first line
G1 X0.4 Y200.0 Z0.3 F5000.0 ; Move to side a little
G1 X0.4 Y20 Z0.3 F1500.0 E30 ; Draw the second line
G92 E0 ; Reset Extruder
G1 Z2.0 F3000 ; Move Z Axis up little to prevent scratching of Heat Bed
G1 X5 Y20 Z0.3 F5000.0 ; Move over to prevent blob squish
G92 E0
G92 E0
G1 F1500 E-6.5
;LAYER_COUNT:10
;LAYER:0
M107
G0 F6000 X82.393 Y78.846 Z0.2
;TYPE:SKIRT
G1 F1500 E0
G1 F1200 X82.992 Y78.331 E0.02627
G1 X83.64 Y77.88 E0.05253
G1 X84.331 Y77.496 E0.07883
G1 X85.056 Y77.184 E0.10508
G1 X85.809 Y76.947 E0.13133
G1 X86.583 Y76.788 E0.15761
G1 X87.569 Y76.686 E0.19058
G1 X87.891 Y76.41 E0.20469
G1 X88.539 Y75.959 E0.23095
G1 X89.23 Y75.575 E0.25724
G1 X89.955 Y75.263 E0.28349
G1 X90.708 Y75.026 E0.30975
G1 X91.566 Y74.854 E0.33885
G1 X92.147 Y74.771 E0.35837
G1 X92.933 Y74.699 E0.38463
G1 X94.025 Y74.732 E0.42096
G1 X94.526 Y74.782 E0.43771
G1 X95.306 Y74.9 E0.46395
G1 X96.348 Y75.188 E0.4999
G1 X96.685 Y75.307 E0.51179
G1 X97.415 Y75.607 E0.53804
G1 X98.112 Y75.98 E0.56433
G1 X98.665 Y76.346 E0.58639
G1 X98.941 Y76.546 E0.59773
G1 X99.157 Y76.72 E0.60695
G1 X99.493 Y76.737 E0.61814
G1 X99.795 Y76.783 E0.6283
G1 X100.533 Y76.707 E0.65298
G1 X100.935 Y76.697 E0.66635
G1 X101.685 Y76.697 E0.6913
G1 X102.474 Y76.737 E0.71757
G1 X102.672 Y76.767 E0.72423
G1 X103.196 Y76.685 E0.74188
G1 X103.61 Y76.647 E0.7557
G1 X104.708 Y76.623 E0.79223
G1 X105.032 Y76.639 E0.80302
G1 X105.7 Y76.712 E0.82537
G1 X106.009 Y76.697 E0.83566
G1 X106.553 Y76.697 E0.85375
G1 X107.16 Y76.728 E0.87397
G1 X107.361 Y76.707 E0.88069
G1 X107.763 Y76.697 E0.89407
G1 X108.507 Y76.697 E0.91881
G1 X108.996 Y76.722 E0.9351
G1 X109.139 Y76.707 E0.93988
G1 X109.541 Y76.697 E0.95325
G1 X110.284 Y76.697 E0.97797
G1 X110.77 Y76.722 E0.99415
G1 X110.914 Y76.707 E0.99897
G1 X111.313 Y76.697 E1.01224
G1 X112.062 Y76.697 E1.03715
G1 X112.851 Y76.737 E1.06343
G1 X113.162 Y76.784 E1.07389
G1 X113.42 Y76.742 E1.08258
G1 X113.979 Y76.673 E1.10132
G1 X114.767 Y76.616 E1.1276
G1 X115.842 Y76.667 E1.16339
G1 X116.423 Y76.735 E1.18285
G1 X117.201 Y76.866 E1.20909
G1 X117.963 Y77.076 E1.23538
G1 X118.495 Y77.273 E1.25424
G1 X118.991 Y77.478 E1.2721
G1 X119.356 Y77.651 E1.28553
G1 X119.635 Y77.496 E1.29615
G1 X120.36 Y77.184 E1.3224
G1 X121.113 Y76.947 E1.34865
G1 X121.887 Y76.788 E1.37493
G1 X122.672 Y76.707 E1.40118
G1 X123.074 Y76.697 E1.41456
G1 X124.307 Y76.697 E1.45557
G1 X125.087 Y76.736 E1.48154
G1 X125.953 Y76.823 E1.51049
G1 X126.416 Y76.894 E1.52607
G1 X126.931 Y76.788 E1.54356
G1 X127.716 Y76.707 E1.56981
G1 X128.118 Y76.697 E1.58318
G1 X130.276 Y76.697 E1.65496
G1 X130.982 Y76.729 E1.67846
G1 X131.543 Y76.78 E1.6972
G1 X132.325 Y76.891 E1.72347
G1 X133.205 Y77.116 E1.75368
G1 X133.679 Y77.267 E1.77022
G1 X134.418 Y77.544 E1.79647
G1 X135.125 Y77.895 E1.82273
G1 X135.526 Y78.136 E1.83829
G1 X135.92 Y78.389 E1.85386
G1 X136.562 Y78.848 E1.88011
G1 X137.154 Y79.371 E1.90638
G1 X137.653 Y79.906 E1.93072
G1 X137.944 Y80.249 E1.94568
G1 X138.424 Y80.876 E1.97194
G1 X138.837 Y81.549 E1.9982
G1 X139.187 Y82.274 E2.02498
G1 X139.363 Y82.693 E2.04009
G1 X139.632 Y83.436 E2.06638
G1 X139.824 Y84.202 E2.09264
G1 X139.919 Y84.808 E2.11304
G1 X139.977 Y85.304 E2.12965
G1 X140.029 Y86.092 E2.15592
G1 X140.001 Y86.881 E2.18218
G1 X139.836 Y87.939 E2.21779
G1 X139.813 Y88.046 E2.22143
G1 X139.861 Y88.835 E2.24772
G1 X139.807 Y89.827 E2.28077
G1 X139.75 Y90.31 E2.29694
G1 X139.618 Y91.089 E2.32322
G1 X139.408 Y91.85 E2.34948
G1 X139.141 Y92.543 E2.37418
G1 X138.973 Y92.924 E2.38803
G1 X138.618 Y93.63 E2.41431
G1 X138.194 Y94.296 E2.44057
G1 X137.704 Y94.915 E2.46683
G1 X137.361 Y95.283 E2.48356
G1 X137.079 Y95.566 E2.49685
G1 X136.494 Y96.096 E2.5231
G1 X135.859 Y96.565 E2.54936
G1 X134.98 Y97.067 E2.58303
G1 X134.573 Y97.266 E2.5981
G1 X133.847 Y97.577 E2.62437
G1 X132.832 Y97.875 E2.65955
G1 X132.285 Y97.996 E2.67818
G1 X131.506 Y98.127 E2.70446
G1 X131.058 Y98.167 E2.71942
G1 X130.378 Y98.207 E2.74207
G1 X129.92 Y98.22 E2.75731
G1 X128.592 Y98.22 E2.80148
G1 X128.65 Y98.536 E2.81217
G1 X128.717 Y99.556 E2.84616
G1 X128.718 Y106.646 E3.08198
G1 X128.694 Y107.319 E3.10438
G1 X128.615 Y108.094 E3.13029
G1 X128.57 Y108.39 E3.14025
G1 X128.378 Y109.321 E3.17186
G1 X128.5 Y109.815 E3.18879
G1 X128.565 Y110.164 E3.20059
G1 X128.683 Y111.127 E3.23286
G1 X128.704 Y111.479 E3.24459
G1 X128.711 Y112.269 E3.27087
G1 X128.675 Y112.662 E3.28399
G1 X133.933 Y118.354 E3.54172
G1 X134.439 Y118.961 E3.56801
G1 X134.881 Y119.615 E3.59426
G1 X135.281 Y120.35 E3.62209
G1 X135.636 Y121.185 E3.65227
G1 X135.87 Y121.939 E3.67853
G1 X136.025 Y122.665 E3.70322
G1 X136.133 Y123.548 E3.73281
G1 X136.148 Y124.337 E3.75905
G1 X136.101 Y125.031 E3.78219
G1 X135.966 Y125.905 E3.8116
G1 X135.766 Y126.669 E3.83787
G1 X135.5 Y127.402 E3.86381
G1 X135.119 Y128.208 E3.89346
G1 X134.712 Y128.885 E3.91973
G1 X134.236 Y129.527 E3.94631
G1 X133.641 Y130.193 E3.97602
G1 X133.075 Y130.708 E4.00147
G1 X133.136 Y131.249 E4.01958
G1 X133.141 Y132.094 E4.04768
G1 X133.125 Y132.431 E4.0589
G1 X133.048 Y133.217 E4.08517
G1 X132.891 Y133.991 E4.11144
G1 X132.658 Y134.745 E4.13769
G1 X132.364 Y135.462 E4.16346
G1 X132.018 Y136.172 E4.18973
G1 X131.603 Y136.843 E4.21597
G1 X131.122 Y137.469 E4.24223
G1 X130.58 Y138.044 E4.26851
G1 X129.982 Y138.56 E4.29478
G1 X129.401 Y138.972 E4.31847
G1 X129.088 Y139.173 E4.33084
G1 X128.403 Y139.566 E4.35711
G1 X127.681 Y139.887 E4.38339
G1 X126.931 Y140.134 E4.40965
G1 X126.338 Y140.271 E4.42989
G1 X126.066 Y140.323 E4.43911
G1 X125.284 Y140.432 E4.46537
G1 X124.601 Y140.462 E4.48811
G1 X123.114 Y140.462 E4.53756
G1 X122.723 Y140.942 E4.55815
G1 X122.165 Y141.5 E4.5844
G1 X121.553 Y141.999 E4.61066
G1 X120.893 Y142.434 E4.63696
G1 X120.194 Y142.799 E4.66318
G1 X119.748 Y142.987 E4.67928
G1 X118.708 Y143.389 E4.71637
G1 X118.226 Y143.558 E4.73335
G1 X117.092 Y143.913 E4.77288
G1 X116.668 Y144.032 E4.78752
G1 X115.454 Y144.338 E4.82916
G1 X115.065 Y144.426 E4.84243
G1 X113.779 Y144.681 E4.88603
G1 X113.413 Y144.745 E4.89839
G1 X112.066 Y144.946 E4.94369
G1 X111.734 Y144.988 E4.95482
G1 X110.342 Y145.135 E5.00138
G1 X110.007 Y145.163 E5.01256
G1 X108.575 Y145.252 E5.06028
G1 X108.252 Y145.265 E5.07103
G1 X106.797 Y145.295 E5.11943
G1 X106.339 Y145.291 E5.13467
G1 X103.739 Y145.192 E5.22121
G1 X103.142 Y145.147 E5.24112
G1 X100.594 Y144.853 E5.32643
G1 X99.945 Y144.75 E5.34828
G1 X97.536 Y144.264 E5.43002
G1 X96.773 Y144.069 E5.45621
G1 X94.598 Y143.396 E5.53194
G1 X93.624 Y143.022 E5.56664
G1 X91.775 Y142.165 E5.63442
G1 X91.076 Y141.797 E5.6607
G1 X90.487 Y141.41 E5.68414
G1 X89.049 Y140.371 E5.74314
G1 X88.433 Y139.877 E5.76941
G1 X87.87 Y139.323 E5.79568
G1 X87.421 Y138.787 E5.81893
G1 X86.491 Y137.571 E5.86985
G1 X86.044 Y136.921 E5.89609
G1 X85.665 Y136.228 E5.92236
G1 X85.357 Y135.501 E5.94862
G1 X85.104 Y134.658 E5.97789
G1 X84.769 Y133.266 E6.02551
G1 X84.623 Y132.49 E6.05178
G1 X84.552 Y131.439 E6.08681
G1 X84.554 Y124.303 E6.32416
G1 X84.58 Y123.622 E6.34682
G1 X84.67 Y122.794 E6.37452
G1 X84.718 Y122.5 E6.38443
G1 X84.894 Y121.693 E6.4119
G1 X84.702 Y120.79 E6.44261
G1 X84.657 Y120.494 E6.45257
G1 X84.58 Y119.756 E6.47725
G1 X84.553 Y119.053 E6.50065
G1 X84.553 Y111.919 E6.73792
G1 X84.581 Y111.21 E6.76152
G1 X84.67 Y110.402 E6.78856
G1 X84.718 Y110.108 E6.79847
G1 X84.894 Y109.301 E6.82594
G1 X84.702 Y108.398 E6.85665
G1 X84.657 Y108.102 E6.8666
G1 X84.581 Y107.385 E6.89058
G1 X84.565 Y107.111 E6.89971
G1 X84.552 Y106.656 E6.91485
G1 X84.552 Y99.539 E7.15157
G1 X84.592 Y98.75 E7.17784
G1 X84.788 Y97.634 E7.21553
G1 X83.987 Y97.241 E7.2452
G1 X83.316 Y96.823 E7.2715
G1 X82.692 Y96.34 E7.29774
G1 X82.119 Y95.797 E7.324
G1 X81.604 Y95.198 E7.35027
G1 X81.153 Y94.55 E7.37653
G1 X80.769 Y93.859 E7.40282
G1 X80.457 Y93.134 E7.42908
G1 X80.22 Y92.381 E7.45533
G1 X80.061 Y91.607 E7.48161
G1 X79.98 Y90.822 E7.50786
G1 X79.97 Y90.42 E7.52124
G1 X79.97 Y84.497 E7.71823
G1 X80.01 Y83.708 E7.74451
G1 X80.129 Y82.928 E7.77075
G1 X80.327 Y82.163 E7.79704
G1 X80.601 Y81.423 E7.82328
G1 X80.949 Y80.714 E7.84955
G1 X81.367 Y80.043 E7.87584
G1 X81.85 Y79.419 E7.90209
G1 X82.393 Y78.846 E7.92835
G0 F6000 X82.786 Y79.027
G1 F1200 X83.381 Y78.539 E7.95394
G1 X84.023 Y78.116 E7.97951
G1 X84.706 Y77.761 E8.00511
G1 X85.421 Y77.48 E8.03067
G1 X86.163 Y77.274 E8.05628
G1 X86.921 Y77.146 E8.08185
G1 X87.69 Y77.102 E8.10746
G1 X88.28 Y76.618 E8.13285
G1 X88.922 Y76.195 E8.15842
G1 X89.605 Y75.84 E8.18402
G1 X90.32 Y75.559 E8.20957
G1 X91.062 Y75.353 E8.23518
G1 X91.622 Y75.25 E8.25412
G1 X92.203 Y75.167 E8.27364
G1 X92.97 Y75.098 E8.29926
G1 X93.985 Y75.13 E8.33303
G1 X94.486 Y75.18 E8.34978
G1 X95.246 Y75.296 E8.37535
G1 X96.215 Y75.565 E8.4088
G1 X96.552 Y75.684 E8.42068
G1 X97.263 Y75.978 E8.44627
G1 X97.94 Y76.343 E8.47185
G1 X98.43 Y76.67 E8.49145
G1 X98.706 Y76.87 E8.50278
G1 X99.007 Y77.113 E8.51565
G1 X99.472 Y77.137 E8.53114
G1 X99.818 Y77.191 E8.54278
G1 X100.086 Y77.146 E8.55182
G1 X100.935 Y77.097 E8.58011
G1 X101.685 Y77.097 E8.60505
G1 X102.453 Y77.137 E8.63063
G1 X102.67 Y77.171 E8.63794
G1 X103.233 Y77.083 E8.65689
G1 X103.647 Y77.045 E8.67072
G1 X104.688 Y77.023 E8.70535
G1 X105.012 Y77.039 E8.71614
G1 X105.652 Y77.108 E8.73755
G1 X106.009 Y77.097 E8.74943
G1 X106.553 Y77.097 E8.76752
G1 X107.189 Y77.13 E8.7887
G1 X107.763 Y77.097 E8.80783
G1 X108.507 Y77.097 E8.83257
G1 X109.051 Y77.125 E8.85069
G1 X109.541 Y77.097 E8.86701
G1 X110.284 Y77.097 E8.89172
G1 X110.826 Y77.125 E8.90978
G1 X111.313 Y77.097 E8.926
G1 X112.062 Y77.097 E8.95091
G1 X112.83 Y77.137 E8.97649
G1 X113.161 Y77.189 E8.98763
G1 X113.469 Y77.139 E8.99801
G1 X114.028 Y77.07 E9.01675
G1 X114.796 Y77.015 E9.04236
G1 X115.795 Y77.064 E9.07562
G1 X116.376 Y77.132 E9.09508
G1 X117.134 Y77.261 E9.12065
G1 X117.875 Y77.468 E9.14624
G1 X118.343 Y77.643 E9.16286
G1 X118.839 Y77.848 E9.18071
G1 X119.363 Y78.097 E9.20001
G1 X120.01 Y77.761 E9.22425
G1 X120.725 Y77.48 E9.24981
G1 X121.467 Y77.274 E9.27542
G1 X122.225 Y77.146 E9.30099
G1 X123.074 Y77.097 E9.32927
G1 X124.307 Y77.097 E9.37028
G1 X125.047 Y77.134 E9.39492
G1 X125.913 Y77.221 E9.42387
G1 X126.42 Y77.299 E9.44093
G1 X126.511 Y77.274 E9.44407
G1 X127.269 Y77.146 E9.46964
G1 X128.118 Y77.097 E9.49793
G1 X130.276 Y77.097 E9.5697
G1 X130.946 Y77.127 E9.59201
G1 X131.507 Y77.178 E9.61074
G1 X132.268 Y77.288 E9.63632
G1 X133.083 Y77.497 E9.6643
G1 X133.557 Y77.648 E9.68085
G1 X134.277 Y77.919 E9.70644
G1 X134.965 Y78.264 E9.73203
G1 X135.309 Y78.472 E9.7454
G1 X135.703 Y78.725 E9.76098
G1 X136.328 Y79.174 E9.78657
G1 X136.903 Y79.685 E9.81216
G1 X137.348 Y80.165 E9.83393
G1 X137.639 Y80.508 E9.84889
G1 X138.105 Y81.119 E9.87445
G1 X138.506 Y81.776 E9.90005
G1 X138.819 Y82.429 E9.92413
G1 X138.995 Y82.848 E9.93925
G1 X139.255 Y83.572 E9.96484
G1 X139.439 Y84.319 E9.99042
G1 X139.522 Y84.855 E10.00846
G1 X139.58 Y85.351 E10.02507
G1 X139.629 Y86.118 E10.05063
G1 X139.599 Y86.887 E10.07623
G1 X139.446 Y87.85 E10.10866
G1 X139.407 Y88.021 E10.1145
G1 X139.461 Y88.859 E10.14243
G1 X139.41 Y89.78 E10.17311
G1 X139.353 Y90.263 E10.18928
G1 X139.223 Y91.021 E10.21486
G1 X139.016 Y91.762 E10.24045
G1 X138.775 Y92.382 E10.26257
G1 X138.607 Y92.763 E10.27642
G1 X138.26 Y93.449 E10.30199
G1 X137.845 Y94.096 E10.32756
G1 X137.364 Y94.697 E10.35316
G1 X137.078 Y95 E10.36702
G1 X136.796 Y95.283 E10.38031
G1 X136.225 Y95.799 E10.40591
G1 X135.604 Y96.253 E10.43149
G1 X134.804 Y96.708 E10.4621
G1 X134.397 Y96.907 E10.47717
G1 X133.69 Y97.208 E10.50273
G1 X132.745 Y97.484 E10.53547
G1 X132.198 Y97.605 E10.5541
G1 X131.44 Y97.732 E10.57967
G1 X131.035 Y97.767 E10.59319
G1 X130.355 Y97.807 E10.61584
G1 X129.92 Y97.82 E10.63032
G1 X128.111 Y97.82 E10.69049
G1 X128.256 Y98.608 E10.71713
G1 X128.317 Y99.556 E10.74873
G1 X128.318 Y106.646 E10.98454
G1 X128.294 Y107.298 E11.00625
G1 X128.22 Y108.034 E11.03085
G1 X128.175 Y108.33 E11.04081
G1 X127.969 Y109.326 E11.07463
G1 X128.107 Y109.888 E11.09388
G1 X128.172 Y110.237 E11.10569
G1 X128.284 Y111.151 E11.13632
G1 X128.305 Y111.503 E11.14804
G1 X128.311 Y112.272 E11.17362
G1 X128.26 Y112.802 E11.19133
G1 X133.64 Y118.626 E11.45504
G1 X134.131 Y119.217 E11.48059
G1 X134.559 Y119.856 E11.50618
G1 X134.923 Y120.529 E11.53162
G1 X135.267 Y121.341 E11.56095
G1 X135.492 Y122.077 E11.58655
G1 X135.632 Y122.738 E11.60902
G1 X135.735 Y123.596 E11.63777
G1 X135.747 Y124.365 E11.66335
G1 X135.703 Y124.997 E11.68442
G1 X135.57 Y125.843 E11.7129
G1 X135.372 Y126.586 E11.73848
G1 X135.128 Y127.253 E11.7621
G1 X134.757 Y128.037 E11.79095
G1 X134.357 Y128.694 E11.81653
G1 X133.923 Y129.278 E11.84073
G1 X133.342 Y129.926 E11.86968
G1 X132.653 Y130.55 E11.9006
G1 X132.74 Y131.333 E11.9268
G1 X132.742 Y132.075 E11.95148
G1 X132.726 Y132.412 E11.9627
G1 X132.649 Y133.177 E11.98827
G1 X132.494 Y133.931 E12.01387
G1 X132.144 Y134.957 E12.04993
G1 X131.996 Y135.305 E12.06251
G1 X131.658 Y135.996 E12.08809
G1 X131.251 Y136.649 E12.11368
G1 X130.778 Y137.255 E12.13925
G1 X130.245 Y137.81 E12.16485
G1 X129.657 Y138.306 E12.19043
G1 X129.185 Y138.636 E12.20959
G1 X128.872 Y138.837 E12.22196
G1 X128.204 Y139.218 E12.24754
G1 X127.5 Y139.528 E12.27312
G1 X126.767 Y139.763 E12.29872
G1 X126.263 Y139.878 E12.31592
G1 X125.991 Y139.93 E12.32513
G1 X125.229 Y140.035 E12.35071
G1 X124.601 Y140.062 E12.37162
G1 X122.911 Y140.062 E12.42783
G1 X122.779 Y140.252 E12.43552
G1 X122.277 Y140.834 E12.46109
G1 X121.716 Y141.361 E12.48669
G1 X121.104 Y141.827 E12.51227
G1 X120.447 Y142.226 E12.53784
G1 X119.604 Y142.614 E12.5687
G1 X118.564 Y143.016 E12.60579
G1 X118.107 Y143.176 E12.62189
G1 X116.973 Y143.531 E12.66141
G1 X116.571 Y143.645 E12.67531
G1 X115.357 Y143.951 E12.71695
G1 X114.987 Y144.034 E12.72956
G1 X113.701 Y144.289 E12.77317
G1 X113.354 Y144.349 E12.78488
G1 X112.007 Y144.55 E12.83018
G1 X111.692 Y144.59 E12.84074
G1 X110.3 Y144.737 E12.8873
G1 X109.982 Y144.764 E12.89791
G1 X108.55 Y144.853 E12.94563
G1 X106.789 Y144.895 E13.00422
G1 X106.354 Y144.892 E13.01869
G1 X103.754 Y144.793 E13.10523
G1 X103.188 Y144.749 E13.12411
G1 X100.64 Y144.455 E13.20942
G1 X100.025 Y144.358 E13.23013
G1 X97.616 Y143.872 E13.31186
G1 X96.892 Y143.687 E13.33672
G1 X94.717 Y143.014 E13.41244
G1 X93.792 Y142.659 E13.4454
G1 X91.943 Y141.802 E13.51318
G1 X91.263 Y141.443 E13.53875
G1 X90.721 Y141.086 E13.56034
G1 X89.283 Y140.047 E13.61935
G1 X88.684 Y139.565 E13.64492
G1 X88.138 Y139.023 E13.67051
G1 X87.739 Y138.544 E13.69124
G1 X86.809 Y137.328 E13.74216
G1 X86.374 Y136.694 E13.76773
G1 X86.007 Y136.018 E13.79332
G1 X85.713 Y135.307 E13.81891
G1 X85.492 Y134.564 E13.84469
G1 X85.157 Y133.172 E13.89231
G1 X85.017 Y132.416 E13.91788
G1 X84.952 Y131.439 E13.95045
G1 X84.954 Y124.303 E14.18779
G1 X84.979 Y123.644 E14.20972
G1 X85.065 Y122.859 E14.23599
G1 X85.113 Y122.565 E14.2459
G1 X85.299 Y121.699 E14.27536
G1 X85.097 Y120.73 E14.30828
G1 X85.052 Y120.434 E14.31824
G1 X84.979 Y119.734 E14.34165
G1 X84.953 Y119.053 E14.36431
G1 X84.953 Y111.919 E14.60159
G1 X84.98 Y111.233 E14.62443
G1 X85.065 Y110.467 E14.65006
G1 X85.113 Y110.173 E14.65997
G1 X85.299 Y109.307 E14.68943
G1 X85.097 Y108.338 E14.72235
G1 X85.052 Y108.042 E14.73231
G1 X84.981 Y107.361 E14.75508
G1 X84.952 Y106.656 E14.77855
G1 X84.952 Y99.539 E15.01526
G1 X84.992 Y98.771 E15.04084
G1 X85.168 Y97.766 E15.07477
G1 X85.265 Y97.374 E15.08821
G1 X84.78 Y97.189 E15.10547
G1 X84.094 Y96.842 E15.13104
G1 X83.447 Y96.426 E15.15662
G1 X82.847 Y95.945 E15.1822
G1 X82.3 Y95.404 E15.20779
