;FLAVOR:Marlin
;TIME:1471
;Filament used: 0.438584m
;Layer height: 0.12
;MINX:87.117
;MINY:81.825
;MINZ:0.12
;MAXX:132.026
;MAXY:137.296
;MAXZ:2.04
;Generated with Cura_SteamEngine 5.2.2
M82 ;absolute extrusion mode
; Ender 3 Custom Start G-code
G92 E0 ; Reset Extruder
G28 ; Home all axes
M104 S175 ; Start heating up the nozzle most of the way
M190 S0 ; Start heating the bed, wait until target temperature reached
M109 S200 ; Finish heating the nozzle
G1 Z2.0 F3000 ; Move Z Axis up little to prevent scratching of Heat Bed
G1 X0.1 Y20 Z0.3 F5000.0 ; Move to start position
G1 X0.1 Y200.0 Z0.3 F1500.0 E15 ; Draw the first line
G1 X0.4 Y200.0 Z0.3 F5000.0 ; Move to side a little
G1 X0.4 Y20 Z0.3 F1500.0 E30 ; Draw the second line
G92 E0 ; Reset Extruder
G1 Z2.0 F3000 ; Move Z Axis up little to prevent scratching of Heat Bed
G1 X5 Y20 Z0.3 F5000.0 ; Move over to prevent blob squish
G92 E0
G92 E0
G1 F1500 E-6.5
;LAYER_COUNT:17
;LAYER:0
M107
;MESH:DynamoDB-IconText.stl
G0 F6000 X88.532 Y84.817 Z0.12
;TYPE:WALL-OUTER
G1 F1500 E0
G1 F748.8 X88.99 Y84.82 E0.01465
G1 F696.7 X89.791 Y84.946 E0.04252
G1 F679.9 X90.254 Y85.079 E0.05949
G1 F1500 E-6.44051
G0 F6000 X90.806 Y85.515
G0 X90.995 Y85.731
G0 X90.25 Y86.492
G0 X89.181 Y89.086
G0 X89.172 Y90.255
G1 F1500 E0.05949
G1 F1383.3 X89.929 Y90.153 E0.07271
G1 F1315.1 X90.521 Y89.95 E0.08411
G1 F1250 X91.045 Y89.505 E0.09728
G1 F1194 X91.417 Y89.001 E0.10984
G1 F1156.6 X91.624 Y88.317 E0.12464
G1 F1145.6 X91.715 Y87.51 E0.14161
G1 F1142.9 X91.62 Y86.656 E0.15962
G1 F1145.6 X91.4 Y85.933 E0.17542
G1 F1176.5 X91.014 Y85.422 E0.18845
G1 F985.6 X90.44 Y85.085 E0.20462
G1 F775.4 X90.254 Y85.079 E0.21037
G1 F784.3 X90.482 Y85.394 E0.22224
G1 F1000 X90.71 Y85.709 E0.23156
G1 F1176.5 X91.046 Y86.096 E0.24199
G1 F1145.6 X91.191 Y86.74 E0.25579
G1 X91.31 Y87.507 E0.27201
G1 F1148.3 X91.197 Y88.233 E0.28733
G1 F1156.6 X91.061 Y88.843 E0.30027
G1 F1194 X90.742 Y89.227 E0.31029
G1 F1250 X90.312 Y89.67 E0.32211
G1 F1315.1 X89.846 Y89.792 E0.33089
G1 F1383.3 X89.112 Y89.936 E0.34384
G1 F1481.5 X88.532 Y89.936 E0.35321
G1 F1333.3 X88.342 Y89.885 E0.35674
G1 F1233.9 X88.342 Y85.136 E0.44891
G1 F1227.6 X88.356 Y85.039 E0.45082
G1 F1132.1 X88.344 Y85.014 E0.45141
G1 F971.7 X88.544 Y84.811 E0.45843
G1 X88.184 Y84.72 E0.46758
G1 F1073.8 X87.993 Y84.72 E0.47184
G1 F1159.4 X87.96 Y85.136 E0.48046
G1 F1256.5 X87.962 Y89.841 E0.57013
G1 F1203 X87.978 Y90.212 E0.57752
G1 F1159.4 X88.186 Y90.212 E0.58182
G1 F1304.3 X88.532 Y90.259 E0.58823
G1 F1481.5 X89.172 Y90.255 E0.59857
G1 F1500 E-5.90143
G0 F6000 X89.26 Y91.078
G0 X90.126 Y90.985
G0 X90.813 Y90.724
G0 X92.86 Y89.61
G0 X92.86 Y88.769
G1 F1500 E0.59857
G1 F1359.8 X93.244 Y88.769 E0.60534
G1 F1383.3 X94.213 Y86.397 E0.64969
G1 F944.9 X94.204 Y85.962 E0.66072
G1 X93.897 Y86.266 E0.67167
G1 F1383.3 X92.86 Y88.769 E0.71857
G1 F1500 E-5.78143
G0 F6000 X92.86 Y89.61
G0 X90.975 Y90.662
G0 X90.126 Y90.985
G0 X89.202 Y91.084
G0 X87.117 Y91.073
G0 X87.117 Y83.844
G0 X89.037 Y83.833
G0 X90.017 Y83.931
G0 X90.737 Y84.19
G0 X93.278 Y85.577
G0 X94.204 Y85.962
G1 F1500 E0.71857
G1 F717.5 X94.313 Y85.688 E0.72842
G1 F744.2 X94.444 Y85.326 E0.74081
G1 F802.7 X94.541 Y85.008 E0.75072
G0 F6000 X94.82 Y84.897
G1 F877.5 X95.108 Y85.009 E0.75916
G1 F902.3 X95.003 Y84.399 E0.77559
G1 F1173.6 X94.806 Y83.902 E0.78649
G1 F1116.3 X94.497 Y83.615 E0.79554
G1 X94.486 Y84.035 E0.80455
G1 F1329.6 X94.664 Y84.486 E0.81329
G1 F1016.9 X94.541 Y85.008 E0.82592
G1 F897.2 X94.82 Y84.897 E0.83393
G0 F6000 X95.108 Y85.009
G1 F779.2 X95.217 Y85.351 E0.84496
G1 F729.5 X95.425 Y85.935 E0.86531
G1 F1500 E-5.63469
G0 F6000 X96.358 Y85.572
G0 X95.401 Y83.179
G0 X95.137 Y82.744
G0 X94.816 Y82.369
G0 X94.4 Y82.068
G0 X93.897 Y81.89
G0 X93.236 Y81.825
G0 X92.014 Y82.006
G0 X87.117 Y83.844
G0 X87.117 Y91.073
G0 X89.202 Y91.084
G0 X90.033 Y90.995
G0 X95.51 Y89.057
G0 X96.301 Y88.764
G1 F1500 E0.86531
G1 F1326 X96.691 Y88.764 E0.87236
G1 F1359.8 X95.725 Y86.247 E0.91984
G1 F939.3 X95.425 Y85.935 E0.93087
G1 X95.404 Y86.368 E0.94192
G1 F1359.8 X96.301 Y88.764 E0.98698
G1 F1500 E-5.51302
G0 F6000 X95.51 Y89.057
G0 X90.126 Y90.985
G0 X89.202 Y91.084
G0 X87.117 Y91.073
G0 X87.117 Y83.844
G0 X88.672 Y83.836
G0 X93.616 Y84.11
G0 X94.486 Y83.605
G1 F1500 E0.98698
G1 F724 X94.33 Y83.319 E0.99776
G1 F731.7 X94.137 Y83.11 E1.00707
G1 F724 X93.932 Y82.958 E1.01551
G1 F733.9 X93.683 Y82.863 E1.0242
G1 F754.7 X93.258 Y82.808 E1.0378
G1 F788.2 X92.965 Y82.833 E1.04674
G1 F1500 E-5.45326
G0 F6000 X93.179 Y83.784
G0 X92.017 Y83.829
G0 X92.014 Y82.006
G0 X93.236 Y81.825
G0 X93.897 Y81.89
G0 X94.4 Y82.068
G0 X94.816 Y82.369
G0 X95.137 Y82.744
G0 X95.407 Y83.264
G0 X97.295 Y87.204
G0 X98.197 Y88.708
G1 F1500 E1.04674
G1 F1010.5 X98.363 Y88.708 E1.05067
G1 X98.441 Y88.297 E1.06058
G1 X98.555 Y88.137 E1.06524
G1 F997.9 X98.71 Y88.099 E1.06907
G1 F967.7 X98.899 Y88.173 E1.07409
G1 F979.6 X98.64 Y87.812 E1.08495
G1 F1132.1 X98.519 Y86.827 E1.10595
G1 F1286.9 X98.518 Y84.683 E1.14584
G1 F1290.3 X98.146 Y84.683 E1.15275
G1 F1286.9 X98.147 Y86.856 E1.19318
G1 F1170.7 X98.183 Y87.769 E1.21187
G1 F1043.5 X98.197 Y87.932 E1.21563
G1 F1010.5 X98.197 Y88.708 E1.23402
G0 F6000 X98.899 Y88.173
G1 F933.9 X99.154 Y88.475 E1.24415
G1 F836.2 X99.605 Y88.641 E1.25792
G1 F771.7 X100.02 Y88.716 E1.271
G1 F764.3 X100.598 Y88.595 E1.28951
G1 F821.9 X100.842 Y88.598 E1.29661
G1 F1073.8 X101.053 Y88.502 E1.30178
G1 F1297.3 X101.334 Y88.208 E1.30929
G1 F1280 X101.498 Y87.379 E1.3251
G1 X101.498 Y84.684 E1.37552
G1 X101.122 Y84.684 E1.38256
G1 X101.122 Y87.358 E1.43258
G1 X100.993 Y88.029 E1.44537
G1 F1297.3 X100.789 Y88.25 E1.45092
G1 F1073.8 X100.723 Y88.444 E1.45549
G1 F821.9 X100.598 Y88.595 E1.4612
G1 F1500 E-5.0388
G0 F6000 X101.388 Y89.371
G0 X103.262 Y89.368
G0 X103.632 Y88.466
G1 F1500 E1.4612
G1 F776.7 X103.876 Y88.561 E1.46927
G1 F775.4 X104.324 Y88.672 E1.48353
G1 F779.2 X104.815 Y88.716 E1.49868
G1 F750 X105.295 Y88.654 E1.51413
G1 F721.8 X105.508 Y88.602 E1.52141
G0 F6000 X105.685 Y88.612
G1 F939.3 X105.994 Y88.531 E1.52955
G1 F1116.3 X106.198 Y88.288 E1.53636
G1 F1224.5 X106.311 Y87.968 E1.54299
G1 F1246.8 X106.365 Y87.528 E1.55151
G1 F1286.9 X106.367 Y87.165 E1.55826
G1 F1218.3 X106.345 Y86.908 E1.56333
G1 F1212.1 X106.365 Y86.724 E1.56699
G1 F1276.6 X106.365 Y86.211 E1.57661
G1 F1246.8 X106.356 Y85.845 E1.58364
G1 F1132.1 X106.326 Y85.489 E1.5912
G1 F1057.3 X106.326 Y84.724 E1.60853
G1 X106.185 Y84.724 E1.61172
G1 X106.065 Y85.172 E1.62223
G1 X105.972 Y85.301 E1.62583
G1 F1066.7 X105.864 Y85.336 E1.62838
G1 F1083.5 X105.683 Y85.263 E1.63269
G1 F1103.4 X105.871 Y85.511 E1.63945
G1 F1145.6 X105.955 Y85.813 E1.646
G1 F1224.5 X105.99 Y86.23 E1.65418
G1 F1311.5 X105.99 Y86.794 E1.66448
G1 F1563.5 X105.019 Y86.749 E1.67937
G1 F1904.8 X104.635 Y86.709 E1.68422
G1 F1897.2 X104.227 Y86.623 E1.68949
G1 F1751.8 X103.92 Y86.497 E1.69402
G1 F1563.5 X103.672 Y86.284 E1.69903
G1 F1428.6 X103.539 Y86.039 E1.7037
G1 F1318.7 X103.479 Y85.703 E1.7099
G1 F1269.8 X103.576 Y85.263 E1.7184
G1 F1300.8 X103.645 Y85.168 E1.72056
G1 F1113.7 X103.829 Y84.805 E1.72931
G1 F909.1 X103.697 Y84.815 E1.7328
G1 F1036.7 X103.413 Y84.881 E1.73953
G1 F1290.3 X103.231 Y85.12 E1.74511
G1 F1250 X103.135 Y85.39 E1.7506
G1 F1240.3 X103.094 Y85.71 E1.75683
G1 F1280 X103.264 Y86.353 E1.76927
G1 F1420.1 X103.525 Y86.564 E1.77493
G1 F1584.2 X103.859 Y86.806 E1.78116
G1 F1726.6 X104.205 Y86.881 E1.78607
G1 F1912.4 X104.596 Y86.95 E1.79105
G1 F1904.8 X105.003 Y87.007 E1.79621
G1 F1568.6 X105.996 Y87.046 E1.81138
G1 F1318.7 X105.993 Y87.483 E1.81932
G1 F1276.6 X105.892 Y88.053 E1.83018
G1 F1237.1 X105.736 Y88.221 E1.83462
G1 F1036.7 X105.521 Y88.603 E1.84474
G1 F890.5 X105.685 Y88.612 E1.84916
G1 F1500 E-4.65084
G0 F6000 X106.15 Y85.763
G0 X105.683 Y85.263
G1 F1500 E1.84916
G1 F1103.4 X105.608 Y85.173 E1.8517
G1 F1048 X105.203 Y84.85 E1.86354
G1 F921.3 X104.854 Y84.744 E1.87302
G1 F851.1 X104.453 Y84.703 E1.88436
G1 F801.3 X103.971 Y84.761 E1.89887
G1 F761.9 X103.857 Y84.803 E1.90269
G1 F1500 E-4.59731
G0 F6000 X107.976 Y88.732
G1 F1500 E1.90269
G1 F1129.4 X108.177 Y88.732 E1.90695
G1 X108.268 Y88.298 E1.91635
G1 X108.331 Y88.186 E1.91908
G1 F1311.5 X108.512 Y88.189 E1.92238
G1 F1751.8 X108.618 Y88.283 E1.92432
G1 F1632.7 X108.471 Y88.129 E1.92744
G1 F1283.4 X108.375 Y87.943 E1.93135
G1 F1227.6 X108.332 Y87.391 E1.94215
G1 F1276.6 X108.321 Y86.801 E1.95322
G1 F1290.3 X108.321 Y84.683 E1.99253
G1 X107.949 Y84.683 E1.99943
G1 F1276.6 X107.953 Y87.411 E2.0506
G1 F1194 X107.975 Y88.031 E2.06305
G1 F1129.4 X107.976 Y88.732 E2.07791
G1 F1500 E-4.42209
G0 F6000 X109.625 Y88.768
G1 F1500 E2.07791
G1 F1283.4 X109.835 Y88.578 E2.08319
G1 F1179.4 X110.063 Y88.08 E2.09432
G1 F1194 X110.271 Y88.118 E2.09856
G1 X110.14 Y87.862 E2.10432
G1 F1167.9 X110.108 Y87.452 E2.11276
G1 F1266.5 X110.099 Y86.952 E2.12221
G1 F1293.8 X110.099 Y84.683 E2.16421
G1 X109.727 Y84.683 E2.1711
G1 F1280 X109.731 Y87.374 E2.22144
G1 F1221.4 X109.712 Y87.915 E2.23205
G1 F1218.3 X109.507 Y88.376 E2.24197
G1 F1283.4 X109.438 Y88.445 E2.24379
G1 F1304.3 X109.125 Y88.59 E2.25013
G1 F1355.9 X108.861 Y88.539 E2.25487
G1 F1643.8 X108.643 Y88.327 E2.2593
G1 F1605.4 X108.869 Y88.61 E2.26471
G1 F1329.6 X109.077 Y88.775 E2.26949
G1 F1304.3 X109.326 Y88.834 E2.27419
G1 X109.625 Y88.768 E2.27981
G0 F6000 X110.414 Y88.342
G1 F1553.4 X110.298 Y88.152 E2.28324
G0 F6000 X109.952 Y87.812
G0 X111.664 Y88.545
G1 F1280 X111.779 Y88.289 E2.28849
G1 F1290.3 X111.848 Y87.902 E2.29579
G1 F1280 X111.874 Y87.411 E2.30499
G1 F1283.4 X111.874 Y84.685 E2.35585
G1 X111.5 Y84.685 E2.36283
G1 X111.498 Y87.402 E2.41352
G1 F1286.9 X111.487 Y87.732 E2.41967
G1 F1297.3 X111.432 Y88.172 E2.42785
G1 X111.275 Y88.429 E2.43341
G1 F1318.7 X111.068 Y88.555 E2.43781
G1 F1348.3 X110.854 Y88.583 E2.44165
G1 F1379.3 X110.619 Y88.522 E2.44586
G1 F1472.4 X110.424 Y88.36 E2.44999
G1 F1548.4 X110.414 Y88.342 E2.4503
G1 F1476.9 X110.569 Y88.584 E2.45496
G1 F1379.3 X110.807 Y88.774 E2.46025
G1 F1348.3 X111.095 Y88.842 E2.46551
G1 X111.339 Y88.807 E2.46989
G1 F1318.7 X111.53 Y88.702 E2.47384
G1 F1273.2 X111.664 Y88.545 E2.47773
G1 F1500 E-4.02227
G0 F6000 X114.944 Y88.564
G1 F1500 E2.47773
G1 F1467.9 X114.498 Y88.464 E2.48518
G1 F1459 X114.146 Y88.358 E2.49122
G1 F1395.3 X113.877 Y88.047 E2.49827
G1 F1326 X113.643 Y87.719 E2.50555
G1 F1266.5 X113.554 Y87.275 E2.51411
G1 F1230.8 X113.482 Y86.753 E2.52437
G1 F1256.5 X113.48 Y86.706 E2.52526
G1 F1233.9 X113.553 Y86.177 E2.53563
G1 F1246.8 X113.642 Y85.722 E2.54453
G1 F1315.1 X113.884 Y85.387 E2.55206
G1 F1391.3 X114.143 Y85.077 E2.55901
G1 F1445.8 X114.504 Y84.969 E2.56525
G1 F1476.9 X114.943 Y84.868 E2.57255
G1 X115.39 Y84.968 E2.57998
G1 F1467.9 X115.754 Y85.078 E2.58619
G1 F1399.4 X116.01 Y85.382 E2.59299
G1 F1329.6 X116.252 Y85.721 E2.60049
G1 F1266.5 X116.342 Y86.169 E2.60913
G1 F1212.1 X116.418 Y86.727 E2.62025
G1 F1215.2 X116.343 Y87.258 E2.63082
G1 F1273.2 X116.248 Y87.726 E2.6398
G1 F1348.3 X116.013 Y88.041 E2.64678
G1 F1391.3 X115.748 Y88.355 E2.65386
G1 F1441.4 X115.39 Y88.463 E2.66007
G1 F1467.9 X114.944 Y88.564 E2.66753
G0 F6000 X114.958 Y88.869
G1 F1500 X115.476 Y88.788 E2.6759
G1 F1463.4 X115.912 Y88.619 E2.68355
G1 F1411.8 X116.288 Y88.27 E2.69225
G1 F1348.3 X116.576 Y87.864 E2.70109
G1 F1273.2 X116.736 Y87.331 E2.71156
G1 F1224.5 X116.803 Y86.721 E2.72356
G1 F1221.4 X116.737 Y86.097 E2.73587
G1 F1263.2 X116.581 Y85.573 E2.74623
G1 F1326 X116.291 Y85.15 E2.75549
G1 F1399.4 X115.918 Y84.813 E2.76409
G1 F1467.9 X115.474 Y84.646 E2.77183
G1 F1509.4 X114.936 Y84.567 E2.78046
G1 X114.419 Y84.646 E2.78876
G1 F1441.4 X113.954 Y84.832 E2.79708
G1 F1391.3 X113.607 Y85.159 E2.80529
G1 F1348.3 X113.315 Y85.588 E2.8145
G1 F1276.6 X113.162 Y86.106 E2.82463
G1 F1233.9 X113.095 Y86.726 E2.83674
G1 F1230.8 X113.161 Y87.345 E2.84885
G1 F1266.5 X113.311 Y87.86 E2.85899
G1 F1326 X113.595 Y88.279 E2.86813
G1 F1395.3 X113.968 Y88.621 E2.87682
G1 F1459 X114.414 Y88.789 E2.88464
G1 F1500 X114.958 Y88.869 E2.89342
G1 F1500 E-3.60658
G0 F6000 X115.062 Y89.68
G0 X122.409 Y90.212
G0 X123.282 Y90.212
G1 F1500 E2.89342
G1 F1159.4 X123.49 Y90.212 E2.89772
G1 F1304.3 X123.836 Y90.259 E2.90413
G1 F1481.5 X124.476 Y90.255 E2.91447
G1 F1383.3 X125.233 Y90.153 E2.9277
G1 F1315.1 X125.825 Y89.95 E2.93909
G1 F1250 X126.349 Y89.505 E2.95226
G1 F1194 X126.721 Y89.001 E2.96483
G1 F1156.6 X126.928 Y88.317 E2.97962
G1 F1145.6 X127.019 Y87.51 E2.9966
G1 F1142.9 X126.924 Y86.656 E3.0146
G1 F1145.6 X126.704 Y85.933 E3.0304
G1 F1176.5 X126.318 Y85.422 E3.04344
G1 F985.6 X125.744 Y85.085 E3.05961
G1 F775.4 X125.558 Y85.079 E3.06536
G1 F784.3 X125.786 Y85.394 E3.07723
G1 F1000 X126.014 Y85.709 E3.08654
G1 F1176.5 X126.35 Y86.096 E3.09697
G1 F1145.6 X126.495 Y86.74 E3.11077
G1 X126.614 Y87.507 E3.127
G1 F1148.3 X126.501 Y88.233 E3.14232
G1 F1156.6 X126.365 Y88.843 E3.15526
G1 F1194 X126.046 Y89.227 E3.16527
G1 F1250 X125.616 Y89.67 E3.1771
G1 F1315.1 X125.15 Y89.792 E3.18587
G1 F1383.3 X124.416 Y89.936 E3.19882
G1 F1481.5 X123.836 Y89.936 E3.2082
G1 F1276.6 X123.646 Y89.885 E3.21189
G1 F1095.9 X123.648 Y85.014 E3.31833
G1 F971.7 X123.848 Y84.811 E3.32535
G1 X123.488 Y84.72 E3.3345
G1 F1073.8 X123.297 Y84.72 E3.33876
G1 F1132.1 X123.279 Y84.942 E3.34347
G1 F1227.6 X123.264 Y85.136 E3.34727
G1 F1256.5 X123.266 Y89.841 E3.43694
G1 F1203 X123.282 Y90.212 E3.44433
G1 F1500 E-3.05567
G0 F6000 X123.836 Y84.817
G1 F1500 E3.44433
G1 F748.8 X124.294 Y84.82 E3.45897
G1 F696.7 X125.095 Y84.946 E3.48685
G1 F679.9 X125.558 Y85.079 E3.50381
G1 F1500 E-2.99619
G0 F6000 X126.11 Y85.515
G0 X126.299 Y85.731
G0 X128.936 Y87.59
G1 F1500 E3.50381
G1 F739.6 X130.122 Y87.593 E3.54222
G1 F691.6 X130.496 Y87.576 E3.55518
G1 F700.7 X130.545 Y87.639 E3.55791
G1 F930.2 X130.775 Y87.817 E3.56539
G1 F1083.5 X131.123 Y87.95 E3.57363
G1 F885.6 X131.344 Y88.116 E3.5811
G0 F6000 X130.862 Y87.367
G1 F1111.1 X130.898 Y87.358 E3.5819
G1 F909.1 X131.45 Y87.071 E3.59829
G1 F770.5 X131.496 Y87.03 E3.60021
G1 F1500 E-2.89979
G0 F6000 X128.326 Y90.212
G1 F1500 E3.60021
G1 F1159.4 X128.534 Y90.212 E3.6045
G1 F1304.3 X128.88 Y90.259 E3.61091
G1 F1490.7 X129.918 Y90.259 E3.62759
G1 F1467.9 X130.589 Y90.212 E3.63856
G1 F1415.9 X131.047 Y90.107 E3.64651
G1 F1300.8 X131.436 Y89.898 E3.65464
G1 F1197 X131.665 Y89.657 E3.66129
G1 F1173.6 X131.803 Y89.342 E3.66831
G1 F1182.3 X131.857 Y88.914 E3.67704
G1 F1197 X131.828 Y88.633 E3.68269
G1 F1240.3 X131.752 Y88.396 E3.6875
G1 F1280 X131.594 Y88.184 E3.69245
G1 X131.421 Y88.038 E3.69668
G1 X131.273 Y88.186 E3.7006
G1 X131.392 Y88.484 E3.7066
G1 F1233.9 X131.452 Y88.89 E3.71457
G1 F1182.3 X131.41 Y89.224 E3.72138
G1 F1179.4 X131.296 Y89.473 E3.72695
G1 F1240.3 X131.065 Y89.692 E3.73309
G1 F1363.6 X130.751 Y89.835 E3.73915
G1 F1459 X130.397 Y89.909 E3.74509
G1 F1490.7 X129.91 Y89.937 E3.75292
G1 X128.88 Y89.936 E3.76947
G1 F1333.3 X128.69 Y89.885 E3.773
G1 F1148.3 X128.69 Y87.754 E3.81744
G1 F887.2 X128.936 Y87.59 E3.82542
G1 F852.6 X128.712 Y87.44 E3.833
G1 F1048 X128.719 Y87.414 E3.83361
G1 F1173.6 X128.69 Y87.3 E3.83601
G1 F1227.6 X128.69 Y85.028 E3.88033
G1 F1333.3 X128.852 Y84.977 E3.88338
G1 F1495.3 X130.164 Y84.977 E3.90439
G1 F1437.1 X130.92 Y85.09 E3.91713
G1 F1344.5 X131.382 Y85.452 E3.92758
G1 F1259.8 X131.467 Y85.565 E3.93027
G1 F1173.6 X131.551 Y85.866 E3.93665
G1 F1156.6 X131.625 Y86.231 E3.94436
G1 F1197 X131.524 Y86.634 E3.95267
G1 F946.7 X131.496 Y87.03 E3.96271
G1 F852.6 X131.893 Y86.801 E3.97559
G1 F1054.9 X132.026 Y86.197 E3.98962
G1 F1162.2 X131.964 Y85.765 E3.99862
G1 F1173.6 X131.826 Y85.398 E4.00662
G1 F1218.3 X131.576 Y85.102 E4.01423
G1 F1263.2 X131.23 Y84.865 E4.02218
G1 F1344.5 X130.803 Y84.72 E4.03022
G1 F1424.3 X130.263 Y84.661 E4.03935
G1 F1481.5 X128.825 Y84.658 E4.06259
G1 F1304.3 X128.532 Y84.704 E4.06804
G1 F1159.4 X128.325 Y84.704 E4.07231
G1 F1209.1 X128.308 Y85.136 E4.08088
G1 F1256.5 X128.31 Y87.333 E4.12275
G1 F1108.5 X128.358 Y87.59 E4.1284
G1 F1050.3 X128.339 Y87.619 E4.12919
G1 F1179.4 X128.308 Y87.912 E4.13517
G1 F1256.5 X128.31 Y89.841 E4.17193
G1 F1203 X128.326 Y90.212 E4.17932
