;FLAVOR:Marlin
;TIME:1710
;Filament used: 0.44221m
;Layer height: 0.12
;MINX:83.196
;MINY:83.173
;MINZ:0.12
;MAXX:136.61
;MAXY:136.799
;MAXZ:2.04
;Generated with Cura_SteamEngine 5.2.2
M82 ;absolute extrusion mode
; Ender 3 Custom Start G-code
G92 E0 ; Reset Extruder
G28 ; Home all axes
M104 S175 ; Start heating up the nozzle most of the way
M190 S60 ; Start heating the bed, wait until target temperature reached
M109 S200 ; Finish heating the nozzle
G1 Z2.0 F3000 ; Move Z Axis up little to prevent scratching of Heat Bed
G1 X0.1 Y20 Z0.3 F5000.0 ; Move to start position
G1 X0.1 Y200.0 Z0.3 F1500.0 E15 ; Draw the first line
G1 X0.4 Y200.0 Z0.3 F5000.0 ; Move to side a little
G1 X0.4 Y20 Z0.3 F1500.0 E30 ; Draw the second line
G92 E0 ; Reset Extruder
G1 Z2.0 F3000 ; Move Z Axis up little to prevent scratching of Heat Bed
G1 X5 Y20 Z0.3 F5000.0 ; Move over to prevent blob squish
G92 E0
G92 E0
G1 F1500 E-6.5
;LAYER_COUNT:17
;LAYER:0
M107
;MESH:Elastic Beanstalk.stl
G0 F6000 X83.243 Y83.943 Z0.12
;TYPE:WALL-OUTER
G1 F1500 E0
G1 F983.6 X83.244 Y86.634 E0.06552
G1 F1500 E-6.43448
G0 F6000 X83.47 Y86.987
G0 X84.638 Y87.042
G0 X84.897 Y87.226
G1 F1500 E0.06552
G1 F1137.4 X84.897 Y86.804 E0.0744
G1 F1132.1 X83.456 Y86.804 E0.10488
G1 F1048 X83.244 Y86.634 E0.11109
G1 X83.214 Y87.015 E0.11982
G1 F1052.6 X83.243 Y87.437 E0.12945
G1 X83.456 Y87.226 E0.13627
G1 F1132.1 X84.897 Y87.226 E0.16675
G1 F1500 E-6.33325
G0 F6000 X84.638 Y87.042
G0 X83.47 Y87.042
G0 X83.243 Y87.437
G1 F1500 E0.16675
G1 F983.6 X83.244 Y89.788 E0.22399
G1 F1500 E-6.27601
G0 F6000 X83.47 Y90.141
G0 X84.738 Y90.196
G0 X84.997 Y90.38
G1 F1500 E0.22399
G1 F1137.4 X84.997 Y89.958 E0.23287
G1 F1134.8 X83.455 Y89.956 E0.26542
G1 F1050.3 X83.244 Y89.788 E0.27157
G1 F1014.8 X83.196 Y90.378 E0.28553
G1 F1093.4 X84.997 Y90.38 E0.32498
G1 F1500 E-6.17502
G0 F6000 X84.738 Y89.081
G0 X85.761 Y88.09
G0 X85.761 Y85.939
G0 X84.738 Y84.608
G0 X84.999 Y83.734
G1 F1500 E0.32498
G1 F1148.3 X84.999 Y83.316 E0.3337
G1 F1145.6 X83.21 Y83.316 E0.37109
G1 F1140.1 X83.21 Y83.527 E0.37553
G1 F1059.6 X83.243 Y83.943 E0.38496
G1 X83.453 Y83.735 E0.39164
G1 F1145.6 X84.999 Y83.734 E0.42395
G1 F1500 E-6.07605
G0 F6000 X84.738 Y83.556
G0 X87.284 Y83.746
G1 F1500 E0.42395
G1 F904 X87.355 Y83.603 E0.42818
G1 F1039 X87.489 Y83.65 E0.43146
G1 F1333.3 X87.656 Y83.637 E0.43447
G1 F937.5 X88.037 Y83.44 E0.44542
G1 X87.638 Y83.283 E0.45637
G1 F1333.3 X87.458 Y83.288 E0.45961
G1 F1039 X87.284 Y83.387 E0.46422
G1 F1041.2 X87.127 Y83.292 E0.46844
G1 F1340.8 X86.961 Y83.284 E0.47141
G1 F941.2 X86.562 Y83.441 E0.48232
G1 X86.942 Y83.639 E0.49322
G1 F1340.8 X87.087 Y83.653 E0.49583
G1 F1041.2 X87.213 Y83.603 E0.49894
G1 F904 X87.284 Y83.746 E0.50317
G1 F981.6 X87.283 Y90.374 E0.66487
G1 F784.3 X87.147 Y90.692 E0.67543
G1 F676.1 X86.68 Y90.73 E0.69203
G1 F1500 E-5.80797
G0 F6000 X90.436 Y88.63
G1 F1500 E0.69203
G1 F1224.5 X90.731 Y88.582 E0.69787
G1 F1218.3 X90.872 Y88.514 E0.70095
G1 F1145.6 X90.962 Y88.422 E0.70364
G1 F893.9 X91.076 Y88.083 E0.71322
G1 F804 X90.962 Y88.148 E0.71713
G1 F1004.2 X90.714 Y88.157 E0.72305
G1 F1233.9 X90.445 Y88.24 E0.72851
G1 F1276.6 X90.134 Y88.178 E0.73446
G1 F1315.1 X89.703 Y87.961 E0.74325
G1 F1322.3 X89.633 Y88.258 E0.74877
G1 F1326 X89.869 Y88.451 E0.75428
G1 F1286.9 X90.162 Y88.584 E0.76027
G1 F1243.5 X90.436 Y88.63 E0.76562
G0 F6000 X91.076 Y88.083
G1 F770.5 X91.141 Y87.937 E0.77059
G1 F813.6 X91.267 Y87.577 E0.78181
G1 F924.9 X91.322 Y86.857 E0.80051
G1 F1010.5 X91.323 Y86.479 E0.80947
G1 F823.3 X91.214 Y86.158 E0.81933
G1 F819.1 X91.32 Y85.88 E0.82803
G1 F1000 X91.32 Y85.297 E0.84199
G1 F971.7 X91.306 Y84.812 E0.85395
G1 F877.5 X91.267 Y84.408 E0.86502
G1 F763.1 X91.224 Y84.168 E0.87267
G1 F857.1 X91.336 Y83.889 E0.88107
G1 F1173.6 X91.375 Y83.291 E0.8933
G0 F6000 X90.849 Y83.792
G1 F1200 X90.976 Y83.991 E0.89801
G1 F904 X91.224 Y84.168 E0.90608
G0 F6000 X90.849 Y83.792
G1 F1209.1 X90.791 Y83.66 E0.90894
G1 F1318.7 X90.624 Y83.349 E0.91535
G1 F1399.4 X90.461 Y83.243 E0.91868
G1 F1355.9 X90.133 Y83.187 E0.92455
G1 F1293.8 X89.942 Y83.228 E0.92817
G1 F1200 X89.786 Y83.371 E0.93239
G1 F943 X89.69 Y83.68 E0.94061
G1 F846.6 X89.767 Y83.626 E0.94327
G1 F1048 X90.076 Y83.582 E0.9504
G1 F1307.9 X90.204 Y83.543 E0.95285
G1 F1352.1 X90.56 Y83.613 E0.95928
G1 F1283.4 X90.796 Y83.747 E0.96434
G1 F1191.1 X90.849 Y83.792 E0.96574
G0 F6000 X89.69 Y83.68
G1 F824.7 X89.609 Y83.848 E0.97116
G1 F900.6 X89.517 Y84.112 E0.97859
G1 F973.6 X89.473 Y84.634 E0.99147
G1 F1012.7 X89.515 Y85.027 E1.00082
G1 F1002.1 X89.603 Y85.457 E1.01131
G1 F937.5 X89.719 Y85.64 E1.01684
G1 F874.3 X89.982 Y85.929 E1.02755
G1 F816.3 X90.256 Y86.034 E1.03616
G1 F769.2 X90.602 Y86.118 E1.04724
G1 F747.7 X91.051 Y86.157 E1.06167
G1 F721.8 X91.214 Y86.158 E1.06708
G1 F1500 E-5.43292
G0 F6000 X93.248 Y86.408
G1 F1500 E1.06708
G1 F790.8 X93.069 Y86.618 E1.07544
G1 F921.3 X92.945 Y86.964 E1.08499
G1 F985.6 X92.898 Y87.355 E1.09456
G1 F987.7 X92.944 Y87.718 E1.10343
G1 F973.6 X92.976 Y87.85 E1.10677
G0 F6000 X93.504 Y88.592
G1 F1240.3 X93.767 Y88.629 E1.1119
G1 F1233.9 X94.059 Y88.59 E1.11762
G1 F1243.5 X94.335 Y88.486 E1.1233
G1 F1253.3 X94.521 Y88.355 E1.12765
G1 F1256.5 X94.45 Y88.017 E1.13423
G1 X94.035 Y88.196 E1.14284
G1 F1250 X93.748 Y88.246 E1.14842
G1 F1243.5 X93.316 Y88.152 E1.15694
G1 F1121.5 X93.025 Y87.906 E1.16507
G1 F997.9 X92.976 Y87.85 E1.16686
G1 F1030 X93.001 Y88.035 E1.1712
G1 F1162.2 X93.115 Y88.308 E1.17729
G1 F1243.5 X93.294 Y88.487 E1.18217
G1 X93.504 Y88.592 E1.18669
G1 F1500 E-5.31331
G0 F6000 X93.248 Y86.408
G1 F1500 E1.18669
G1 F935.7 X93.639 Y86.295 E1.19711
G1 F1337 X94.071 Y85.954 E1.20697
G1 F1371.4 X94.311 Y85.709 E1.21295
G1 F1194 X94.393 Y85.46 E1.21821
G1 F1057.3 X94.406 Y85.305 E1.22173
G1 F1221.4 X94.052 Y85.493 E1.22959
G1 F1399.4 X93.975 Y85.567 E1.23142
G1 F1118.9 X93.393 Y86.033 E1.24738
G1 F813.6 X93.248 Y86.408 E1.25921
G1 F1500 E-5.24079
G0 F6000 X94.407 Y85.294
G1 F1500 E1.25921
G1 F872.7 X94.435 Y85.219 E1.26141
G1 F941.2 X94.533 Y84.825 E1.27174
G1 F1030 X94.544 Y84.569 E1.2777
G1 F1000 X94.499 Y84.207 E1.28643
G1 F973.6 X94.469 Y84.069 E1.28991
G1 F1043.5 X94.441 Y83.85 E1.29497
G1 F1170.7 X94.313 Y83.556 E1.30153
G1 F1233.9 X94.12 Y83.354 E1.30695
G1 X93.892 Y83.238 E1.31192
G1 F1246.8 X93.599 Y83.193 E1.31761
G1 X93.249 Y83.231 E1.32438
G1 X92.977 Y83.322 E1.32988
G1 F1256.5 X92.816 Y83.444 E1.33373
G1 F1259.8 X92.816 Y83.812 E1.34073
G1 X93.244 Y83.624 E1.34961
G1 F1256.5 X93.599 Y83.575 E1.35644
G1 F1246.8 X94.089 Y83.682 E1.36608
G1 F1137.4 X94.404 Y83.979 E1.37519
G1 F1014.8 X94.469 Y84.069 E1.37781
G1 F1500 E-5.12219
G0 F6000 X96.916 Y83.633
G1 F1500 E1.37781
G1 F830.4 X96.762 Y83.866 E1.38587
G1 F924.9 X96.675 Y84.187 E1.39448
G1 F1019.1 X96.616 Y84.758 E1.40797
G1 F985.6 X96.615 Y88.073 E1.48851
G0 F6000 X97.817 Y88.544
G1 F1311.5 X97.817 Y88.178 E1.49519
G1 F1256.5 X96.774 Y88.178 E1.51507
G1 F1006.3 X96.701 Y88.229 E1.51719
G1 F909.1 X96.615 Y88.073 E1.52188
G1 X96.53 Y88.229 E1.52656
G1 F864.9 X96.378 Y88.272 E1.53094
G1 F866.4 X95.958 Y88.273 E1.54254
G1 X95.958 Y88.308 E1.54351
G1 X96.514 Y88.515 E1.55991
G1 F910.8 X96.61 Y88.668 E1.56466
G1 F909.1 X96.701 Y88.493 E1.56985
G1 F1006.3 X96.774 Y88.544 E1.57197
G1 F1256.5 X97.817 Y88.544 E1.59185
G0 F6000 X96.61 Y88.668
G1 F1071.4 X96.658 Y89.371 E1.6076
G1 F1395.3 X96.707 Y90.075 E1.61971
G1 F1500 E-4.88029
G0 F6000 X96.916 Y83.633
G1 F1500 E1.61971
G1 F845.1 X97.091 Y83.578 E1.62491
G1 F1030 X97.367 Y83.58 E1.63133
G1 F1256.5 X97.794 Y83.628 E1.63952
G1 F1253.3 X97.794 Y83.299 E1.6458
G1 F1256.5 X97.403 Y83.178 E1.6536
G1 F1286.9 X97.18 Y83.25 E1.65796
G1 F1048 X96.993 Y83.416 E1.66368
G1 F845.1 X96.916 Y83.633 E1.6702
G1 F1500 E-4.8298
G0 F6000 X97.541 Y84.448
G0 X98.634 Y84.682
G0 X99.296 Y84.417
G0 X100.188 Y83.746
G1 F1500 E1.6702
G1 F904 X100.259 Y83.603 E1.67443
G1 F1039 X100.393 Y83.65 E1.6777
G1 F1333.3 X100.56 Y83.637 E1.68071
G1 F939.3 X100.941 Y83.439 E1.69166
G1 X100.542 Y83.283 E1.70258
G1 F1333.3 X100.362 Y83.288 E1.70582
G1 F1039 X100.188 Y83.387 E1.71043
G1 F1041.2 X100.031 Y83.292 E1.71465
G1 F1340.8 X99.865 Y83.284 E1.71762
G1 F941.2 X99.466 Y83.441 E1.72853
G1 X99.846 Y83.639 E1.73943
G1 F1340.8 X99.991 Y83.653 E1.74203
G1 F1041.2 X100.117 Y83.603 E1.74515
G1 F904 X100.188 Y83.746 E1.74938
G1 F981.6 X100.187 Y88.035 E1.85402
G1 F784.3 X100.051 Y88.353 E1.86458
G1 F676.1 X99.579 Y88.391 E1.88135
G1 F1500 E-4.61865
G0 F6000 X100.221 Y90.39
G1 F1500 E1.88135
G1 F863.3 X100.153 Y90.39 E1.88324
G1 X100.118 Y90.449 E1.88514
G1 X100.153 Y90.508 E1.88704
G1 X100.221 Y90.508 E1.88893
G1 X100.256 Y90.449 E1.89083
G1 F1500 E-4.60917
G0 F6000 X101.123 Y90.349
G0 X102.639 Y89.14
G0 X102.904 Y87.992
G1 F1500 E1.89083
G1 F775.4 X102.858 Y87.926 E1.89332
G1 F809.4 X102.651 Y87.42 E1.90949
G1 F897.2 X102.567 Y87.153 E1.91696
G1 F935.7 X102.508 Y86.728 E1.92794
G1 F944.9 X102.45 Y85.877 E1.94956
G1 X102.507 Y85.051 E1.97054
G1 F937.5 X102.554 Y84.689 E1.97987
G1 F898.9 X102.647 Y84.38 E1.98847
G1 F808.1 X102.861 Y83.865 E2.00499
G1 F919.5 X103.207 Y83.767 E2.01436
G1 F1142.9 X103.609 Y83.603 E2.02346
G1 F1197 X103.94 Y83.649 E2.03014
G1 F1240.3 X104.291 Y83.781 E2.03738
G1 F1246.8 X104.291 Y83.411 E2.04449
G1 X104.141 Y83.31 E2.04796
G1 F1221.4 X103.899 Y83.232 E2.05295
G1 F1194 X103.629 Y83.203 E2.05839
G1 F1176.5 X103.286 Y83.278 E2.06554
G1 F1025.6 X102.998 Y83.49 E2.07389
G1 F842.1 X102.861 Y83.865 E2.08524
G1 F1500 E-4.41476
G0 F6000 X103.326 Y83.499
G0 X103.613 Y84.543
G0 X103.738 Y87.319
G0 X103.663 Y88.62
G1 F1500 E2.08524
G1 F1179.4 X103.913 Y88.591 E2.09035
G1 F1194 X104.165 Y88.506 E2.09569
G1 F1209.1 X104.311 Y88.419 E2.09905
G1 X104.23 Y88.043 E2.10667
G1 F1215.2 X103.951 Y88.164 E2.11266
G1 F1165 X103.641 Y88.216 E2.11913
G1 F1088.4 X103.217 Y88.061 E2.12906
G1 F893.9 X102.904 Y87.992 E2.13764
G1 F829 X103.023 Y88.319 E2.1477
G1 F1006.3 X103.31 Y88.543 E2.15636
G1 F1165 X103.663 Y88.62 E2.16379
G1 F1500 E-4.33621
G0 F6000 X104.105 Y89.442
G0 X104.536 Y89.291
G0 X107.883 Y87.057
G0 X108.792 Y87.422
G1 F1500 E2.16379
G1 F981.6 X108.792 Y89.818 E2.22224
G1 F983.6 X108.836 Y89.914 E2.22481
G0 F6000 X108.792 Y90.331
G1 F939.3 X108.959 Y90.331 E2.22907
G1 F1034.5 X109.066 Y90.387 E2.23186
G1 F1179.4 X109.686 Y90.388 E2.24445
G1 F1185.2 X110.083 Y90.342 E2.25253
G1 F1203 X110.366 Y90.224 E2.25863
G1 F1240.3 X110.463 Y90.142 E2.26109
G1 F1103.4 X110.547 Y89.971 E2.26522
G1 F851.1 X110.605 Y89.696 E2.27313
G1 X110.36 Y89.834 E2.28104
G1 F1103.4 X110.256 Y89.832 E2.2833
G1 F1240.3 X110.028 Y89.941 E2.28818
G1 F1203 X109.741 Y89.977 E2.29393
G1 F1185.2 X109.066 Y89.98 E2.30757
G1 F1034.5 X108.986 Y90.032 E2.30978
G1 F956.2 X108.836 Y89.914 E2.31456
G1 F973.6 X108.792 Y90.331 E2.32488
G1 F1500 E-4.17512
G0 F6000 X109.018 Y90.226
G0 X109.948 Y90.154
G0 X110.605 Y89.696
G1 F1500 E2.32488
G1 F804 X110.721 Y89.395 E2.33448
G1 F892.2 X110.786 Y89.016 E2.3448
G1 F923.1 X110.805 Y88.687 E2.35335
G1 F930.2 X110.788 Y88.308 E2.36312
G1 F956.2 X110.716 Y87.896 E2.3736
G1 F993.8 X110.566 Y87.577 E2.38209
G1 F1027.8 X110.349 Y87.351 E2.38939
G1 F1036.7 X110.204 Y87.285 E2.39307
G0 F6000 X109.831 Y87.057
G0 X109.018 Y87.057
G0 X108.792 Y87.422
G1 F1069 X108.998 Y87.218 E2.39956
G1 F1145.6 X110.017 Y87.213 E2.42087
G1 F1078.7 X110.204 Y87.285 E2.42531
G1 F1061.9 X110.101 Y87.166 E2.42886
G1 F1129.4 X110.097 Y86.995 E2.43249
G1 F1134.8 X110.181 Y86.838 E2.43625
G1 F1050.3 X110.377 Y86.685 E2.44192
G1 X110.133 Y86.735 E2.4476
G1 F1134.8 X109.843 Y86.81 E2.45392
G1 F1165 X108.998 Y86.811 E2.47129
G1 F1061.9 X108.792 Y86.649 E2.4772
G1 X108.755 Y87.015 E2.48549
G1 F1069 X108.792 Y87.422 E2.49465
G0 F6000 X108.792 Y86.649
G1 F981.6 X108.792 Y83.913 E2.56139
G1 F1076.2 X108.995 Y83.713 E2.56774
G1 F1185.2 X109.874 Y83.713 E2.5855
G1 F1137.4 X110.257 Y83.822 E2.59388
G1 F900.6 X110.533 Y83.868 E2.60132
G1 F750 X110.575 Y83.901 E2.60303
G1 X110.568 Y83.843 E2.60489
G1 F830.4 X110.447 Y83.533 E2.61449
G1 F1008.4 X110.209 Y83.37 E2.62134
G1 F1167.9 X109.907 Y83.309 E2.62765
G1 F1129.4 X108.73 Y83.309 E2.65261
G1 F1030 X108.792 Y83.913 E2.66673
G1 F1500 E-3.83327
G0 F6000 X109.018 Y83.556
G0 X110.197 Y83.602
G0 X110.575 Y83.901
G1 F1500 E2.66673
G1 F755.9 X110.729 Y84.204 E2.6775
G1 F842.1 X110.848 Y84.534 E2.68747
G1 F919.5 X110.915 Y85.29 E2.70724
G1 F912.5 X110.817 Y86.089 E2.72836
G1 F888.9 X110.572 Y86.515 E2.7416
G1 F935.7 X110.377 Y86.685 E2.74822
G1 F1500 E-3.75178
G0 F6000 X109.842 Y86.972
G0 X112.025 Y86.505
G1 F1500 E2.74822
G1 F997.9 X112.043 Y86.687 E2.75261
G1 F1008.4 X112.161 Y87.427 E2.77041
G1 F954.3 X112.362 Y87.909 E2.78351
G1 F884 X112.444 Y88.054 E2.78802
G0 F6000 X113.326 Y88.569
G1 F1191.1 X113.552 Y88.369 E2.79409
G1 F993.8 X113.674 Y88.061 E2.80207
G1 X113.388 Y88.139 E2.80922
G1 F1162.2 X113.061 Y88.245 E2.8163
G1 F1145.6 X112.693 Y88.128 E2.82437
G1 F983.6 X112.444 Y88.054 E2.8307
G1 X112.547 Y88.329 E2.83785
G1 F1179.4 X112.781 Y88.558 E2.84449
G1 F1256.5 X113.07 Y88.627 E2.85016
G1 F1253.3 X113.326 Y88.569 E2.85517
G0 F6000 X113.674 Y88.061
G1 F880.7 X113.701 Y88.022 E2.85646
G1 F916 X113.929 Y87.475 E2.87196
G1 F956.2 X113.999 Y86.981 E2.88445
G1 F977.6 X114.033 Y86.516 E2.89587
G1 F1500 E-3.60413
G0 F6000 X111.971 Y86.115
G1 F1500 E2.89587
G1 F1103.4 X112.025 Y86.505 E2.90442
G1 X112.216 Y86.299 E2.91051
G1 F1215.2 X113.842 Y86.302 E2.94256
G1 F1218.3 X113.942 Y86.364 E2.94487
G1 X113.993 Y86.504 E2.9478
G1 X114.088 Y86.506 E2.94967
G1 X114.088 Y85.914 E2.9613
G1 F1215.2 X112.21 Y85.911 E2.99831
G1 F1121.5 X112.062 Y85.848 E3.00175
G1 F1014.8 X112.008 Y85.745 E3.00449
G1 X111.99 Y85.87 E3.00747
G1 F1121.5 X111.971 Y86.115 E3.01272
G0 F6000 X112.008 Y85.745
G1 F958.1 X112.059 Y85.067 E3.02971
G1 F921.3 X112.135 Y84.526 E3.04391
G1 F869.6 X112.4 Y83.897 E3.06271
G1 F833.3 X112.422 Y83.859 E3.06397
G1 F1500 E-3.43603
G0 F6000 X112.919 Y83.472
G0 X113.322 Y83.471
G0 X113.938 Y83.827
G1 F1500 E3.06397
G1 F1263.2 X113.938 Y83.475 E3.07064
G1 F1266.5 X113.738 Y83.335 E3.07526
G1 F1230.8 X113.463 Y83.24 E3.08092
G1 F1197 X113.183 Y83.204 E3.08657
G1 F1194 X112.859 Y83.272 E3.09321
G1 F1071.4 X112.568 Y83.493 E3.10138
G1 F897.2 X112.422 Y83.859 E3.11189
G1 F971.7 X112.763 Y83.752 E3.1207
G1 F1173.6 X113.127 Y83.6 E3.12875
G1 F1215.2 X113.518 Y83.659 E3.13654
G1 F1256.5 X113.938 Y83.827 E3.14516
G1 F1500 E-3.35484
G0 F6000 X113.322 Y83.471
G0 X115.45 Y83.681
G1 F1500 E3.14516
G1 F824.7 X115.37 Y83.848 E3.15054
G1 F898.9 X115.279 Y84.111 E3.15796
G1 F969.7 X115.233 Y84.633 E3.1709
G1 F1010.5 X115.275 Y85.029 E3.18033
G1 F1002.1 X115.363 Y85.458 E3.1908
G1 F937.5 X115.48 Y85.64 E3.19633
G1 F874.3 X115.743 Y85.929 E3.20703
G1 F816.3 X116.017 Y86.034 E3.21564
G1 F769.2 X116.363 Y86.118 E3.22672
G1 F747.7 X116.812 Y86.157 E3.24116
G1 F721.8 X116.974 Y86.158 E3.24653
G1 F1500 E-3.25347
G0 F6000 X116.835 Y88.083
G1 F1500 E3.24653
G1 F766.8 X116.902 Y87.937 E3.25155
G1 F864.9 X117.031 Y87.564 E3.26248
G1 F991.7 X117.082 Y86.858 E3.27957
G1 F1010.5 X117.083 Y86.479 E3.28855
G1 F823.3 X116.974 Y86.158 E3.29841
G1 F819.1 X117.08 Y85.88 E3.30711
G1 F1002.1 X117.081 Y85.311 E3.32071
G1 F979.6 X117.069 Y84.862 E3.33169
G1 F882.4 X117.027 Y84.409 E3.34403
G1 F764.3 X116.985 Y84.17 E3.35164
G1 F858.7 X117.096 Y83.891 E3.36001
G1 F1173.6 X117.135 Y83.291 E3.37228
G0 F6000 X116.686 Y83.931
G1 F1300.8 X116.723 Y83.986 E3.3735
G1 F923.1 X116.985 Y84.17 E3.38181
G1 F1500 E-3.11819
G0 F6000 X115.45 Y83.681
G1 F1500 E3.38181
G1 F848.1 X115.529 Y83.626 E3.38452
G1 F1050.3 X115.836 Y83.583 E3.39159
G1 F1315.1 X115.964 Y83.543 E3.39403
G1 F1375.4 X116.275 Y83.602 E3.39955
G1 F1379.3 X116.543 Y83.765 E3.40499
G1 F1333.3 X116.686 Y83.931 E3.40893
G1 F1340.8 X116.567 Y83.654 E3.41431
G1 F1387.3 X116.383 Y83.35 E3.42044
G1 F1395.3 X116.221 Y83.243 E3.42378
G1 F1352.1 X115.894 Y83.187 E3.42965
G1 F1293.8 X115.703 Y83.228 E3.43327
G1 F1200 X115.546 Y83.371 E3.43751
G1 F943 X115.45 Y83.681 E3.44575
G1 F1500 E-3.05425
G0 F6000 X116.197 Y88.63
G1 F1500 E3.44575
G1 F1224.5 X116.492 Y88.582 E3.45159
