;FLAVOR:Marlin
;TIME:1337
;Filament used: 0.491847m
;Layer height: 0.12
;MINX:87.701
;MINY:81.764
;MINZ:0.12
;MAXX:132.299
;MAXY:138.223
;MAXZ:2.24
;Generated with Cura_SteamEngine 5.2.2
M82 ;absolute extrusion mode
; Ender 3 Custom Start G-code
G92 E0 ; Reset Extruder
G28 ; Home all axes
M104 S175 ; Start heating up the nozzle most of the way
M190 S60 ; Start heating the bed, wait until target temperature reached
M109 S215 ; Finish heating the nozzle
G1 Z2.0 F3000 ; Move Z Axis up little to prevent scratching of Heat Bed
G1 X0.1 Y20 Z0.3 F5000.0 ; Move to start position
G1 X0.1 Y200.0 Z0.3 F1500.0 E15 ; Draw the first line
G1 X0.4 Y200.0 Z0.3 F5000.0 ; Move to side a little
G1 X0.4 Y20 Z0.3 F1500.0 E30 ; Draw the second line
G92 E0 ; Reset Extruder
G1 Z2.0 F3000 ; Move Z Axis up little to prevent scratching of Heat Bed
G1 X5 Y20 Z0.3 F5000.0 ; Move over to prevent blob squish
G92 E0
G92 E0
G1 F1500 E-6.5
;LAYER_COUNT:17
;LAYER:0
M107
G1 F300 Z0.32
;MESH:Route_53.stl
G0 F6000 X93.838 Y82.019 Z0.32
;TYPE:WALL-OUTER
G1 F300 Z0.12
G1 F1500 E0
G1 F708 X93.84 Y85.3 E0.11098
G1 F1500 E-6.38902
G1 F300 Z0.32
G0 F6000 X94.765 Y90.083 Z0.32
G1 F300 Z0.12
G1 F1500 E0.11098
G1 F1064.3 X95.306 Y89.963 E0.12345
G1 F1088.4 X95.719 Y89.845 E0.1329
G1 F1156.6 X96.097 Y89.411 E0.14482
G1 F1240.3 X96.293 Y89.145 E0.1512
G1 F1286.9 X96.358 Y88.858 E0.15667
G1 F1395.3 X96.439 Y88.397 E0.16471
G1 F1383.3 X96.512 Y87.855 E0.17417
G1 F1375.4 X96.448 Y87.229 E0.18513
G1 F1371.4 X96.394 Y86.857 E0.19169
G1 F1322.3 X96.07 Y86.182 E0.20525
G1 F1297.3 X95.722 Y85.871 E0.21387
G1 F1182.3 X95.413 Y85.638 E0.22171
G1 F1140.1 X96.114 Y83.753 E0.26395
G1 F1233.9 X96.815 Y81.867 E0.303
G1 F1286.9 X96.415 Y81.867 E0.31044
G1 F1233.9 X95.76 Y83.674 E0.34774
G1 F1140.1 X95.104 Y85.481 E0.38812
G1 F1023.5 X94.088 Y85.477 E0.41189
G1 F813.6 X93.84 Y85.3 E0.42086
G1 X93.75 Y85.712 E0.43327
G1 F816.3 X93.838 Y86.182 E0.4473
G1 X94.088 Y85.947 E0.45737
G1 F989.7 X94.793 Y85.948 E0.47443
G1 F985.6 X95.138 Y85.97 E0.48283
G1 F1093.4 X95.522 Y86.181 E0.49242
G1 F1297.3 X95.797 Y86.425 E0.49921
G1 F1363.6 X96.028 Y86.874 E0.50808
G1 F1415.9 X96.11 Y87.269 E0.5149
G1 F1375.4 X96.152 Y87.84 E0.52487
G1 F1383.3 X96.108 Y88.345 E0.53364
G1 F1395.3 X96.015 Y88.774 E0.54118
G1 F1311.5 X95.817 Y89.153 E0.54898
G1 F1167.9 X95.531 Y89.423 E0.55705
G1 F1081.1 X95.196 Y89.549 E0.56498
G1 F1054.9 X94.774 Y89.609 E0.57465
G1 F1030 X94.77 Y89.615 E0.57482
G1 F1012.7 X94.095 Y89.613 E0.59078
G1 F829 X93.84 Y89.436 E0.59975
G1 F821.9 X93.745 Y89.829 E0.61153
G1 F983.6 X93.745 Y90.073 E0.61747
G1 F1002.1 X94.176 Y90.083 E0.62777
G1 F1021.3 X94.765 Y90.083 E0.64158
G0 F6000 X93.84 Y89.436
G1 F708 X93.838 Y86.182 E0.75165
G1 F1500 E-5.74835
G1 F300 Z0.32
G0 F6000 X99.11 Y87.962 Z0.32
G1 F300 Z0.12
G1 F1500 E0.75165
G1 F1052.6 X99.522 Y88.058 E0.76128
G1 X99.945 Y87.961 E0.77115
G1 F1088.4 X100.321 Y87.718 E0.781
G1 F1182.3 X100.644 Y87.357 E0.79081
G1 F1293.8 X100.981 Y86.572 E0.80662
G1 F1359.8 X101.116 Y85.847 E0.81961
G1 F1375.4 X101.178 Y84.918 E0.83582
G1 F1371.4 X101.116 Y83.979 E0.85225
G1 F1399.4 X101.022 Y83.45 E0.86145
G1 F1407.6 X100.954 Y83.183 E0.86614
G1 F1283.4 X100.658 Y82.485 E0.88028
G1 F1173.6 X100.325 Y82.112 E0.89049
G1 F1090.9 X99.948 Y81.876 E0.90025
G1 F1061.9 X99.537 Y81.779 E0.90977
G1 X99.117 Y81.875 E0.91949
G1 F1095.9 X98.743 Y82.117 E0.92922
G1 F1185.2 X98.399 Y82.517 E0.93988
G1 F1300.8 X98.111 Y83.201 E0.95354
G1 F1424.3 X98.047 Y83.45 E0.95787
G1 F1411.8 X97.95 Y83.996 E0.96727
G1 F1383.3 X97.887 Y84.931 E0.9835
G1 F1379.3 X97.949 Y85.865 E0.99975
G1 F1407.6 X98.041 Y86.392 E1.00885
G1 F1411.8 X98.108 Y86.655 E1.01345
G1 F1283.4 X98.408 Y87.368 E1.02789
G1 F1167.9 X98.729 Y87.722 E1.03769
G1 F1083.5 X99.11 Y87.962 E1.04764
G0 F6000 X99.533 Y87.606
G1 F1061.9 X99.293 Y87.534 E1.05329
G1 F1090.9 X98.849 Y87.315 E1.06416
G1 F1230.8 X98.736 Y87.186 E1.06749
G1 F1363.6 X98.373 Y86.387 E1.0829
G1 F1371.4 X98.303 Y85.826 E1.09278
G1 F1383.3 X98.229 Y84.947 E1.10805
G1 X98.302 Y84.035 E1.12389
G1 F1379.3 X98.37 Y83.473 E1.13371
G1 F1363.6 X98.737 Y82.649 E1.14956
G1 F1237.1 X98.855 Y82.522 E1.15291
G1 F1100.9 X99.301 Y82.298 E1.16377
G1 F1071.4 X99.536 Y82.227 E1.16925
G1 X99.765 Y82.3 E1.17463
G1 F1098.4 X100.206 Y82.518 E1.18535
G1 F1246.8 X100.322 Y82.636 E1.18853
G1 F1383.3 X100.693 Y83.468 E1.2043
G1 F1375.4 X100.76 Y84.018 E1.21395
G1 F1371.4 X100.835 Y84.917 E1.2297
G1 F1379.3 X100.761 Y85.807 E1.24521
G1 F1375.4 X100.687 Y86.383 E1.25532
G1 F1395.3 X100.32 Y87.192 E1.27056
G1 F1259.8 X100.204 Y87.313 E1.27375
G1 F1093.4 X99.76 Y87.534 E1.28461
G1 F1061.9 X99.533 Y87.606 E1.28998
G1 F1500 E-5.21002
G1 F300 Z0.32
G0 F6000 X102.689 Y87.837 Z0.32
G1 F300 Z0.12
G1 F1500 E1.28998
G1 F727.3 X102.69 Y83.948 E1.41804
G1 F731.7 X102.788 Y83.093 E1.4462
G1 F779.2 X102.859 Y82.986 E1.45015
G1 F995.9 X103.081 Y82.79 E1.45727
G1 F1212.1 X103.291 Y82.42 E1.46568
G1 F1129.4 X103.837 Y82.231 E1.47793
G1 F1116.3 X104.06 Y82.265 E1.48277
G1 F1256.5 X104.329 Y82.367 E1.48825
G1 F1263.2 X104.711 Y82.532 E1.49614
G1 X104.556 Y82.111 E1.50464
G1 F1256.5 X104.189 Y81.863 E1.51308
G1 F1116.3 X103.785 Y81.786 E1.52191
G1 F1126.8 X103.15 Y82 E1.53615
G1 F1215.2 X102.904 Y82.333 E1.54431
G1 F1256.5 X102.749 Y82.598 E1.55016
G1 F1179.4 X102.721 Y82.717 E1.55264
G1 F887.2 X102.788 Y83.093 E1.56295
G1 F1500 E-4.93705
G1 F300 Z0.32
G0 F6000 X104.718 Y82.551 Z0.32
G1 F300 Z0.12
G1 F1500 E1.56295
G1 F987.7 X104.823 Y82.714 E1.56765
G1 F1500 E-4.93235
G1 F300 Z0.32
G0 F6000 X105.326 Y84.532 Z0.32
G1 F300 Z0.12
G1 F1500 E1.56765
G1 F939.3 X105.491 Y84.133 E1.57866
G1 F1283.4 X105.463 Y83.307 E1.59408
G1 F1113.7 X105.435 Y82.968 E1.60139
G1 F1069 X105.445 Y82.916 E1.60258
G1 F977.6 X105.357 Y82.567 E1.6114
G1 F958.1 X105.118 Y82.756 E1.61901
G1 F1034.5 X104.971 Y82.777 E1.62245
G1 F1008.4 X104.823 Y82.714 E1.62627
G1 F1048 X104.956 Y82.913 E1.63174
G1 F1145.6 X105.07 Y83.371 E1.64161
G1 F1276.6 X105.142 Y84.009 E1.65365
G1 F1383.3 X105.146 Y84.139 E1.6559
G1 F939.3 X105.326 Y84.532 E1.66692
G1 F715.4 X105.331 Y87.834 E1.77746
G1 F1500 E-4.72254
G1 F300 Z0.32
G0 F6000 X105.35 Y82.539 Z0.32
G1 F300 Z0.12
G1 F1500 E1.77746
G1 F804 X105.381 Y81.964 E1.79461
G1 F1500 E-4.70539
G1 F300 Z0.32
G0 F6000 X107.883 Y87.967 Z0.32
G1 F300 Z0.12
G1 F1500 E1.79461
G1 F956.2 X107.886 Y88.027 E1.79612
G1 F858.7 X108.065 Y88.251 E1.80411
G1 X108.216 Y88.01 E1.81204
G1 F1014.8 X108.214 Y87.956 E1.81332
G1 F1066.7 X109.772 Y87.956 E1.8483
G1 F1137.4 X109.772 Y87.534 E1.85718
G1 F1004.2 X108.225 Y87.534 E1.89407
G1 F933.9 X108.225 Y86.741 E1.91441
G1 F1016.9 X108.225 Y85.948 E1.93308
G1 F1113.7 X108.226 Y85.155 E1.95013
G1 F1233.9 X108.226 Y84.362 E1.96552
G1 F1383.3 X108.227 Y83.569 E1.97925
G1 F1407.6 X108.318 Y82.829 E1.99194
G1 F1286.9 X108.6 Y82.377 E2.00185
G1 F1165 X109.129 Y82.212 E2.01324
G1 F1116.3 X109.748 Y82.302 E2.02666
G1 F1118.9 X109.748 Y81.872 E2.03586
G1 F1113.7 X109.123 Y81.764 E2.0495
G1 F1145.6 X108.463 Y81.966 E2.06393
G1 F1224.5 X108.221 Y82.272 E2.07156
G1 F1266.5 X108.06 Y82.523 E2.0772
G1 F1363.6 X107.984 Y82.894 E2.08385
G1 F1467.9 X107.895 Y83.591 E2.09531
G1 F1371.4 X107.895 Y84.38 E2.10909
G1 F1227.6 X107.895 Y85.169 E2.12448
G1 F1111.1 X107.895 Y85.958 E2.14148
G1 F1014.8 X107.895 Y86.747 E2.1601
G1 F933.9 X107.895 Y87.536 E2.18034
G1 F897.2 X107.789 Y87.591 E2.18352
G1 F895.5 X107.028 Y87.592 E2.20387
G1 X107.028 Y87.705 E2.2069
G1 X107.883 Y87.967 E2.23081
G0 F6000 X108.065 Y88.251
G1 F813.6 X108.124 Y88.968 E2.25199
G1 F1019.1 X108.184 Y89.685 E2.26889
G1 F1500 E-4.23111
G1 F300 Z0.32
G0 F6000 X111.801 Y86.755 Z0.32
G1 F300 Z0.12
G1 F1500 E2.26889
G1 F745.3 X111.741 Y86.584 E2.27471
G1 F722.9 X111.597 Y85.801 E2.30109
G1 F720.7 X111.576 Y85.609 E2.30751
G0 F6000 X111.466 Y85.158
G1 F842.1 X111.576 Y85.609 E2.32071
G1 X111.806 Y85.367 E2.3302
G1 F995.9 X114.12 Y85.366 E2.38585
G1 F1008.4 X114.215 Y85.444 E2.38877
G1 F1012.7 X114.268 Y85.606 E2.3928
G1 X114.462 Y85.618 E2.39739
G1 X114.479 Y85.357 E2.40358
G1 X114.479 Y84.93 E2.41368
G1 F1041.2 X114.028 Y84.918 E2.42405
G1 F1030 X111.799 Y84.919 E2.47587
G1 F877.5 X111.623 Y84.843 E2.48111
G1 F746.5 X111.552 Y84.731 E2.48536
G1 X111.513 Y84.868 E2.48993
G1 F877.5 X111.466 Y85.158 E2.49795
G0 F6000 X111.561 Y84.599
G1 F943 X111.77 Y84.222 E2.50889
G1 F1367.5 X111.796 Y83.981 E2.51314
G1 X111.884 Y83.387 E2.52365
G1 F1352.1 X112.287 Y82.64 E2.53869
G1 F1197 X112.413 Y82.524 E2.54211
G1 F1048 X112.862 Y82.338 E2.55322
G1 F1012.7 X113.137 Y82.257 E2.56
G1 F1034.5 X113.602 Y82.305 E2.57082
G1 F1054.9 X114.272 Y82.525 E2.58683
G1 F1064.3 X114.272 Y82.123 E2.59587
G1 F1069 X113.991 Y81.958 E2.60317
G1 F1050.3 X113.591 Y81.836 E2.6127
G1 F1025.6 X113.146 Y81.791 E2.62315
G1 F1012.7 X112.697 Y81.886 E2.634
G1 F1050.3 X112.284 Y82.114 E2.64476
G1 F1134.8 X111.934 Y82.475 E2.65537
G1 F1256.5 X111.584 Y83.213 E2.67093
G1 F1355.9 X111.443 Y83.935 E2.68393
G1 F1367.5 X111.424 Y84.19 E2.6884
G1 F943 X111.561 Y84.599 E2.69936
G1 F1500 E-3.80064
G1 F300 Z0.32
G0 F6000 X114.362 Y85.627 Z0.32
G1 F300 Z0.12
G1 F1500 E2.69936
G1 F702.8 X114.318 Y86.138 E2.71683
G1 F719.6 X114.234 Y86.655 E2.73426
G1 F737.3 X114.197 Y86.77 E2.73819
G0 F6000 X113.416 Y87.975
G1 F1098.4 X113.765 Y87.771 E2.747
G1 F1188.1 X114.061 Y87.46 E2.75565
G1 F1293.8 X114.182 Y87.2 E2.76096
G1 F946.7 X114.197 Y86.77 E2.77185
G1 X113.867 Y87.042 E2.78266
G1 F1359.8 X113.705 Y87.318 E2.7883
G1 F1237.1 X113.621 Y87.389 E2.79043
G1 F1095.9 X113.254 Y87.544 E2.79913
G1 F1066.7 X113.022 Y87.607 E2.80453
G1 F1069 X112.762 Y87.536 E2.81057
G1 F1159.4 X112.345 Y87.354 E2.81997
G1 F1307.9 X112.171 Y87.089 E2.82577
G1 F963.9 X111.801 Y86.755 E2.83815
G1 X111.851 Y87.25 E2.85052
G1 F1297.3 X112.145 Y87.685 E2.86021
G1 F1151.1 X112.597 Y87.963 E2.87125
G1 F1069 X113.022 Y88.055 E2.88099
G1 F1066.7 X113.416 Y87.975 E2.89001
G1 F1500 E-3.60999
G1 F300 Z0.32
G0 F6000 X120.746 Y86.871 Z0.32
G1 F300 Z0.12
G1 F1500 E2.89001
G1 F781.8 X120.882 Y89.402 E2.96766
G0 F6000 X120.851 Y90.07
G1 F971.7 X122.878 Y90.072 E3.01761
G1 F975.6 X122.878 Y89.58 E3.02969
G1 F971.7 X121.137 Y89.578 E3.0726
G1 F855.6 X120.882 Y89.402 E3.08127
G1 X120.838 Y89.833 E3.0934
G1 F965.8 X120.851 Y90.07 E3.09928
G1 F1500 E-3.40072
G1 F300 Z0.32
G0 F6000 X121.491 Y86.737 Z0.32
G1 F300 Z0.12
G1 F1500 E3.09928
G1 F1048 X121.791 Y86.734 E3.10614
G1 F985.6 X122.199 Y86.659 E3.11622
G1 F1002.1 X122.556 Y86.486 E3.1257
G1 F1073.8 X122.861 Y86.172 E3.13546
G1 F1153.8 X123.119 Y85.714 E3.14637
G1 F1269.8 X123.202 Y85.472 E3.15119
G1 F1322.3 X123.28 Y85.137 E3.15742
G1 F1340.8 X123.347 Y84.389 E3.17084
G1 F1367.5 X123.283 Y83.615 E3.18444
G1 F1348.3 X123.157 Y83.014 E3.19534
G1 F1237.1 X122.814 Y82.367 E3.20952
G1 F1126.8 X122.498 Y82.07 E3.21873
G1 F1057.3 X122.081 Y81.871 E3.2292
G1 F1036.7 X121.588 Y81.789 E3.24074
G1 F1050.3 X121.136 Y81.837 E3.25111
G1 F1054.9 X120.783 Y81.948 E3.25951
G1 F1073.8 X120.522 Y82.133 E3.26664
G1 F1083.5 X120.522 Y82.479 E3.27429
G1 F1078.7 X120.522 Y82.552 E3.27591
G1 F1069 X121.092 Y82.305 E3.28983
G1 F1048 X121.623 Y82.244 E3.30204
G1 F1025.6 X121.939 Y82.325 E3.30966
G1 F1076.2 X122.354 Y82.478 E3.3195
G1 F1218.3 X122.467 Y82.57 E3.32236
G1 F1337 X122.861 Y83.222 E3.33601
G1 F1367.5 X122.931 Y83.664 E3.34384
G1 F1395.3 X123.007 Y84.337 E3.35547
G1 F1415.9 X122.889 Y85.295 E3.37179
G1 F1293.8 X122.77 Y85.526 E3.3766
G1 F1182.3 X122.449 Y86.005 E3.38828
G1 F1098.4 X122.347 Y86.081 E3.39105
G1 F1002.1 X122.053 Y86.18 E3.39847
G1 F1023.5 X121.563 Y86.294 E3.41024
G1 F1106 X121.156 Y86.219 E3.4192
G1 F1078.7 X120.816 Y86.162 E3.42685
G1 F965.8 X120.638 Y86.348 E3.43324
G1 F846.6 X120.746 Y86.871 E3.44834
G1 F912.5 X120.983 Y86.617 E3.45746
G1 F1081.1 X121.491 Y86.737 E3.46902
G1 F1500 E-3.03098
G1 F300 Z0.32
G0 F6000 X125.673 Y86.362 Z0.32
G1 F300 Z0.12
G1 F1500 E3.46902
G1 F1036.7 X125.955 Y86.361 E3.47554
G1 F981.6 X126.319 Y86.384 E3.48443
G1 F898.9 X126.553 Y86.466 E3.49104
G1 F885.6 X126.447 Y86.353 E3.49523
G1 F933.9 X126.428 Y86.153 E3.50038
G1 F924.9 X126.558 Y85.938 E3.50689
G1 F834.8 X126.762 Y85.8 E3.51395
G1 X126.517 Y85.817 E3.521
G1 F948.6 X125.978 Y85.9 E3.53476
G1 F1030 X125.673 Y85.9 E3.54185
G1 F1041.2 X125.673 Y86.362 E3.55248
G0 F6000 X126.553 Y86.466
G1 F824.7 X126.856 Y86.627 E3.56244
G1 F769.2 X127.059 Y86.815 E3.57106
G1 F737.3 X127.23 Y87.081 E3.58133
G1 F725.1 X127.339 Y87.307 E3.58961
G1 F720.7 X127.452 Y87.756 E3.605
G1 F711.1 X127.484 Y88.285 E3.62285
G1 F709 X127.465 Y88.54 E3.63148
G1 F1500 E-2.86852
G1 F300 Z0.32
G0 F6000 X125.696 Y90.115 Z0.32
G1 F300 Z0.12
G1 F1500 E3.63148
G1 F1064.3 X126.234 Y90.208 E3.64377
G1 F1050.3 X126.625 Y90.152 E3.65277
G1 F1066.7 X126.949 Y89.995 E3.66086
G1 F1121.5 X127.233 Y89.721 E3.66928
G1 F1185.2 X127.446 Y89.381 E3.67739
G1 F1156.6 X127.584 Y88.935 E3.68706
G1 F1014.8 X127.47 Y88.556 E3.69639
G1 F1108.5 X127.228 Y88.888 E3.70527
G1 F1355.9 X127.2 Y88.987 E3.70709
G1 F1304.3 X127.055 Y89.286 E3.71319
G1 F1206 X126.843 Y89.53 E3.71961
G1 F1103.4 X126.525 Y89.706 E3.72749
G1 F1050.3 X126.237 Y89.745 E3.73412
G1 F1059.6 X125.774 Y89.665 E3.74474
G1 F1093.4 X125.495 Y89.511 E3.75172
G1 F1167.9 X125.272 Y89.363 E3.75721
G1 F1233.9 X125.045 Y89.143 E3.76334
G1 F1209.1 X124.873 Y89.525 E3.77164
G1 F1145.6 X125.257 Y89.872 E3.78246
G1 F1098.4 X125.696 Y90.115 E3.7934
G1 F1500 E-2.7066
G1 F300 Z0.32
G0 F6000 X126.762 Y85.8 Z0.32
G1 F300 Z0.12
G1 F1500 E3.7934
G1 F786.9 X126.875 Y85.749 E3.79717
G1 F715.4 X127.154 Y85.544 E3.80876
G1 F693.6 X127.437 Y85.176 E3.82479
G1 F713.2 X127.509 Y85.023 E3.83047
G1 F706.9 X127.64 Y84.221 E3.85799
G0 F6000 X127.483 Y84.186
G1 F958.1 X127.64 Y84.221 E3.86201
G1 X127.803 Y84.23 E3.86609
G1 F1415.9 X127.82 Y84.118 E3.86801
G1 F1363.6 X127.753 Y83.417 E3.88038
G1 F1348.3 X127.675 Y83.088 E3.88638
G1 F1315.1 X127.585 Y82.824 E3.89146
G1 F1176.5 X127.287 Y82.32 E3.90338
G1 F1098.4 X126.971 Y82.046 E3.9125
G1 F1045.8 X126.546 Y81.867 E3.92306
G1 F1032.3 X126.027 Y81.788 E3.93524
G1 F1050.3 X125.529 Y81.838 E3.94665
G1 X125.118 Y81.968 E3.95648
G1 F1057.3 X124.854 Y82.143 E3.96365
G1 X124.853 Y82.594 E3.97387
G1 X124.995 Y82.504 E3.97767
G1 F1054.9 X125.508 Y82.305 E3.99017
G1 F1041.2 X126.041 Y82.243 E4.00251
G1 F1019.1 X126.419 Y82.329 E4.01162
G1 F1048 X126.796 Y82.447 E4.02064
G1 F1145.6 X126.916 Y82.536 E4.02377
G1 F1233.9 X127.329 Y83.12 E4.03765
G1 F1293.8 X127.393 Y83.474 E4.04431
G1 F1363.6 X127.483 Y84.186 E4.05691
G1 F1500 E-2.44309
G1 F300 Z0.32
G0 F6000 X116.484 Y114.854 Z0.32
;TYPE:WALL-INNER
G1 F300 Z0.12
G1 F1500 E4.05691
G1 F935.7 X116.867 Y114.653 E4.06798
G1 F1322.3 X117.013 Y114.42 E4.07296
G1 F1283.4 X117.181 Y113.975 E4.08183
G1 F1259.8 X117.24 Y113.713 E4.08694
G1 F1250 X117.269 Y113.463 E4.09176
G1 F1246.8 X117.283 Y113.181 E4.09718
G1 X117.266 Y112.866 E4.10324
G1 F1253.3 X117.226 Y112.578 E4.1088
G1 F1263.2 X117.163 Y112.334 E4.11358
G1 F1280 X117.036 Y111.977 E4.12067
G1 F1337 X116.809 Y111.617 E4.12829
G1 F1375.4 X116.641 Y111.425 E4.13273
G1 X116.401 Y111.599 E4.13789
G1 F1363.6 X116.691 Y112.105 E4.14813
G1 F1311.5 X116.841 Y112.584 E4.1573
G1 F1259.8 X116.881 Y112.909 E4.16352
G1 F1250 X116.9 Y113.201 E4.16913
G1 F1263.2 X116.855 Y113.726 E4.17912
G1 F1276.6 X116.707 Y114.217 E4.18874
G1 F1311.5 X116.569 Y114.454 E4.19375
G1 F935.7 X116.484 Y114.854 E4.20421
G1 F1500 E-2.29579
G1 F300 Z0.32
G0 F6000 X113.857 Y116.617 Z0.32
G1 F300 Z0.12
G1 F1500 E4.20421
G1 F1215.2 X113.717 Y115.963 E4.21739
G1 F1134.8 X113.97 Y115.695 E4.22517
G1 F1188.1 X114.145 Y115.635 E4.2289
G1 X113.959 Y115.653 E4.23267
G1 F1134.8 X113.366 Y115.653 E4.24518
G1 F1108.5 X113.11 Y115.638 E4.25072
G1 X113.109 Y115.747 E4.25307
G1 X113.36 Y116.019 E4.26107
G1 F1215.2 X113.857 Y116.617 E4.27639
G1 F1500 E-2.22361
G1 F300 Z0.32
G0 F6000 X115.833 Y120.136 Z0.32
G1 F300 Z0.12
G1 F1500 E4.27639
G1 F1004.2 X116.789 Y120.129 E4.29919
G1 F1032.3 X116.789 Y119.822 E4.30631
G1 F1129.4 X116.169 Y119.101 E4.32648
G1 F1078.7 X116.306 Y119.783 E4.34192
G1 F1004.2 X115.833 Y120.136 E4.35599
