;FLAVOR:Marlin
;TIME:14555
;Filament used: 19.6401m
;Layer height: 0.2
;MINX:30.7
;MINY:60.2
;MINZ:0.2
;MAXX:189.3
;MAXY:159.8
;MAXZ:46
;Generated with Cura_SteamEngine 5.2.2
M82 ;absolute extrusion mode
; Ender 3 Custom Start G-code
G92 E0 ; Reset Extruder
G28 ; Home all axes
M104 S175 ; Start heating up the nozzle most of the way
M190 S60 ; Start heating the bed, wait until target temperature reached
M109 S215.0 ; Finish heating the nozzle
G1 Z2.0 F3000 ; Move Z Axis up little to prevent scratching of Heat Bed
G1 X0.1 Y20 Z0.3 F5000.0 ; Move to start position
G1 X0.1 Y200.0 Z0.3 F1500.0 E15 ; Draw the first line
G1 X0.4 Y200.0 Z0.3 F5000.0 ; Move to side a little
G1 X0.4 Y20 Z0.3 F1500.0 E30 ; Draw the second line
G92 E0 ; Reset Extruder
G1 Z2.0 F3000 ; Move Z Axis up little to prevent scratching of Heat Bed
G1 X5 Y20 Z0.3 F5000.0 ; Move over to prevent blob squish
G92 E0
G92 E0
G1 F1500 E-6.5
;LAYER_COUNT:230
;LAYER:0
M107
G0 F6000 X34.37 Y61.383 Z0.2
;TYPE:SKIRT
G1 F1500 E0
G1 F1200 X35.061 Y60.999 E0.02629
G1 X35.786 Y60.687 E0.05254
G1 X36.539 Y60.45 E0.0788
G1 X37.313 Y60.291 E0.10508
G1 X38.098 Y60.21 E0.13133
G1 X38.5 Y60.2 E0.1447
G1 X181.5 Y60.2 E4.9009
G1 X182.289 Y60.24 E4.92718
G1 X183.069 Y60.359 E4.95342
G1 X183.834 Y60.557 E4.97971
G1 X184.574 Y60.831 E5.00595
G1 X185.283 Y61.179 E5.03222
G1 X185.954 Y61.597 E5.05851
G1 X186.578 Y62.08 E5.08476
G1 X187.151 Y62.623 E5.11101
G1 X187.666 Y63.222 E5.13729
G1 X188.117 Y63.87 E5.16355
G1 X188.501 Y64.561 E5.18984
G1 X188.813 Y65.286 E5.21609
G1 X189.05 Y66.039 E5.24235
G1 X189.209 Y66.813 E5.26863
G1 X189.29 Y67.598 E5.29488
G1 X189.3 Y68 E5.30825
G1 X189.3 Y152 E8.1021
G1 X189.26 Y152.789 E8.12838
G1 X189.141 Y153.569 E8.15462
G1 X188.943 Y154.334 E8.1809
G1 X188.669 Y155.074 E8.20715
G1 X188.321 Y155.783 E8.23342
G1 X187.903 Y156.454 E8.25971
G1 X187.42 Y157.078 E8.28596
G1 X186.877 Y157.651 E8.31221
G1 X186.278 Y158.166 E8.33849
G1 X185.63 Y158.617 E8.36475
G1 X184.939 Y159.001 E8.39104
G1 X184.214 Y159.313 E8.41729
G1 X183.461 Y159.55 E8.44355
G1 X182.687 Y159.709 E8.46983
G1 X181.902 Y159.79 E8.49608
G1 X181.5 Y159.8 E8.50945
G1 X38.5 Y159.8 E13.26565
G1 X37.711 Y159.76 E13.29193
G1 X36.931 Y159.641 E13.31817
G1 X36.166 Y159.443 E13.34445
G1 X35.426 Y159.169 E13.3707
G1 X34.717 Y158.821 E13.39697
G1 X34.046 Y158.403 E13.42326
G1 X33.422 Y157.92 E13.44951
G1 X32.849 Y157.377 E13.47576
G1 X32.334 Y156.778 E13.50204
G1 X31.883 Y156.13 E13.52829
G1 X31.499 Y155.439 E13.55459
G1 X31.187 Y154.714 E13.58084
G1 X30.95 Y153.961 E13.60709
G1 X30.791 Y153.187 E13.63338
G1 X30.71 Y152.402 E13.65962
G1 X30.7 Y152 E13.673
G1 X30.7 Y68 E16.46685
G1 X30.74 Y67.211 E16.49313
G1 X30.859 Y66.431 E16.51937
G1 X31.057 Y65.666 E16.54565
G1 X31.331 Y64.926 E16.5719
G1 X31.679 Y64.217 E16.59817
G1 X32.097 Y63.546 E16.62446
G1 X32.58 Y62.922 E16.6507
G1 X33.123 Y62.349 E16.67696
G1 X33.722 Y61.834 E16.70323
G1 X34.37 Y61.383 E16.72949
G0 F6000 X34.753 Y61.619
G1 F1200 X35.436 Y61.264 E16.7551
G1 X36.151 Y60.983 E16.78065
G1 X36.893 Y60.777 E16.80626
G1 X37.651 Y60.649 E16.83183
G1 X38.5 Y60.6 E16.86011
G1 X181.5 Y60.6 E21.61631
G1 X182.268 Y60.64 E21.64189
G1 X183.028 Y60.759 E21.66748
G1 X183.771 Y60.957 E21.69305
G1 X184.49 Y61.231 E21.71864
G1 X185.176 Y61.578 E21.74421
G1 X185.823 Y61.994 E21.7698
G1 X186.423 Y62.475 E21.79537
G1 X186.97 Y63.016 E21.82096
G1 X187.458 Y63.611 E21.84656
G1 X187.881 Y64.253 E21.87213
G1 X188.236 Y64.936 E21.89773
G1 X188.517 Y65.651 E21.92328
G1 X188.723 Y66.393 E21.94889
G1 X188.851 Y67.151 E21.97446
G1 X188.9 Y68 E22.00275
G1 X188.9 Y152 E24.7966
G1 X188.86 Y152.768 E24.82218
G1 X188.741 Y153.528 E24.84776
G1 X188.543 Y154.271 E24.87334
G1 X188.269 Y154.99 E24.89893
G1 X187.922 Y155.676 E24.9245
G1 X187.506 Y156.323 E24.95008
G1 X187.025 Y156.923 E24.97566
G1 X186.484 Y157.47 E25.00125
G1 X185.889 Y157.958 E25.02684
G1 X185.247 Y158.381 E25.05241
G1 X184.564 Y158.736 E25.07801
G1 X183.849 Y159.017 E25.10357
G1 X183.107 Y159.223 E25.12918
G1 X182.349 Y159.351 E25.15475
G1 X181.5 Y159.4 E25.18303
G1 X38.5 Y159.4 E29.93923
G1 X37.732 Y159.36 E29.96481
G1 X36.972 Y159.241 E29.99039
G1 X36.229 Y159.043 E30.01597
G1 X35.51 Y158.769 E30.04156
G1 X34.824 Y158.422 E30.06713
G1 X34.177 Y158.006 E30.09271
G1 X33.577 Y157.525 E30.11829
G1 X33.03 Y156.984 E30.14388
G1 X32.542 Y156.389 E30.16947
G1 X32.119 Y155.747 E30.19504
G1 X31.764 Y155.064 E30.22065
G1 X31.483 Y154.349 E30.2462
G1 X31.277 Y153.607 E30.27181
G1 X31.149 Y152.849 E30.29738
G1 X31.1 Y152 E30.32566
G1 X31.1 Y68 E33.11951
G1 X31.14 Y67.232 E33.14509
G1 X31.259 Y66.472 E33.17068
G1 X31.457 Y65.729 E33.19625
G1 X31.731 Y65.01 E33.22185
G1 X32.078 Y64.324 E33.24741
G1 X32.494 Y63.677 E33.273
G1 X32.975 Y63.077 E33.29858
G1 X33.516 Y62.53 E33.32416
G1 X34.111 Y62.042 E33.34976
G1 X34.753 Y61.619 E33.37533
G0 F6000 X35.134 Y61.862
G1 F1200 X35.808 Y61.538 E33.4002
G1 X36.513 Y61.288 E33.42508
G1 X37.241 Y61.114 E33.44998
G1 X37.983 Y61.019 E33.47486
G1 X38.5 Y61 E33.49206
G1 X181.5 Y61 E38.24826
G1 X182.247 Y61.04 E38.27314
G1 X182.985 Y61.159 E38.29801
G1 X183.707 Y61.357 E38.32291
G1 X184.403 Y61.63 E38.34777
G1 X185.066 Y61.977 E38.37266
G1 X185.689 Y62.392 E38.39756
G1 X186.263 Y62.871 E38.42243
G1 X186.784 Y63.408 E38.44731
G1 X187.243 Y63.998 E38.47217
G1 X187.638 Y64.634 E38.49708
G1 X187.962 Y65.308 E38.52195
G1 X188.212 Y66.013 E38.54683
G1 X188.386 Y66.741 E38.57172
G1 X188.481 Y67.483 E38.5966
G1 X188.5 Y68 E38.61381
G1 X188.5 Y152 E41.40766
G1 X188.46 Y152.747 E41.43254
G1 X188.341 Y153.485 E41.45741
G1 X188.143 Y154.207 E41.48231
G1 X187.87 Y154.903 E41.50717
G1 X187.523 Y155.566 E41.53206
G1 X187.108 Y156.189 E41.55696
G1 X186.629 Y156.763 E41.58182
G1 X186.092 Y157.284 E41.60671
G1 X185.502 Y157.743 E41.63157
G1 X184.866 Y158.138 E41.65647
G1 X184.192 Y158.462 E41.68135
G1 X183.487 Y158.712 E41.70623
G1 X182.759 Y158.886 E41.73112
G1 X182.017 Y158.981 E41.756
G1 X181.5 Y159 E41.77321
G1 X38.5 Y159 E46.52941
G1 X37.753 Y158.96 E46.55429
G1 X37.015 Y158.841 E46.57915
G1 X36.293 Y158.643 E46.60405
G1 X35.597 Y158.37 E46.62892
G1 X34.934 Y158.023 E46.65381
G1 X34.311 Y157.608 E46.67871
G1 X33.737 Y157.129 E46.70357
G1 X33.216 Y156.592 E46.72846
G1 X32.757 Y156.002 E46.75332
G1 X32.362 Y155.366 E46.77822
G1 X32.038 Y154.692 E46.80309
G1 X31.788 Y153.987 E46.82797
G1 X31.614 Y153.259 E46.85287
G1 X31.519 Y152.517 E46.87775
G1 X31.5 Y152 E46.89495
G1 X31.5 Y68 E49.68881
G1 X31.54 Y67.253 E49.71369
G1 X31.659 Y66.515 E49.73855
G1 X31.857 Y65.793 E49.76345
G1 X32.13 Y65.097 E49.78832
G1 X32.477 Y64.434 E49.81321
G1 X32.892 Y63.811 E49.8381
G1 X33.371 Y63.237 E49.86297
G1 X33.908 Y62.716 E49.88785
G1 X34.498 Y62.257 E49.91272
G1 X35.134 Y61.862 E49.93762
G0 F6000 X35.513 Y62.115
G1 F1200 X36.178 Y61.822 E49.96179
G1 X36.871 Y61.604 E49.98595
G1 X37.583 Y61.464 E50.01008
G1 X38.5 Y61.4 E50.04066
G1 X181.5 Y61.4 E54.79686
G1 X182.225 Y61.44 E54.82101
G1 X182.942 Y61.559 E54.84518
G1 X183.641 Y61.757 E54.86935
G1 X184.314 Y62.03 E54.8935
G1 X184.953 Y62.375 E54.91765
G1 X185.55 Y62.789 E54.94182
G1 X186.098 Y63.265 E54.96596
G1 X186.591 Y63.799 E54.99013
G1 X187.021 Y64.384 E55.01428
G1 X187.385 Y65.013 E55.03845
G1 X187.678 Y65.678 E55.06262
G1 X187.896 Y66.371 E55.08678
G1 X188.036 Y67.083 E55.11092
G1 X188.1 Y68 E55.14149
G1 X188.1 Y152 E57.93534
G1 X188.06 Y152.725 E57.95949
G1 X187.941 Y153.442 E57.98367
G1 X187.743 Y154.141 E58.00783
G1 X187.47 Y154.814 E58.03199
G1 X187.125 Y155.453 E58.05614
G1 X186.711 Y156.05 E58.0803
G1 X186.235 Y156.598 E58.10445
G1 X185.701 Y157.091 E58.12862
G1 X185.116 Y157.521 E58.15277
G1 X184.487 Y157.885 E58.17694
G1 X183.822 Y158.178 E58.20111
G1 X183.129 Y158.396 E58.22527
G1 X182.417 Y158.536 E58.24941
G1 X181.5 Y158.6 E58.27998
G1 X38.5 Y158.6 E63.03618
G1 X37.775 Y158.56 E63.06033
G1 X37.058 Y158.441 E63.0845
G1 X36.359 Y158.243 E63.10867
G1 X35.686 Y157.97 E63.13282
G1 X35.047 Y157.625 E63.15697
G1 X34.45 Y157.211 E63.18114
G1 X33.902 Y156.735 E63.20528
G1 X33.409 Y156.201 E63.22945
G1 X32.979 Y155.616 E63.2536
G1 X32.615 Y154.987 E63.27777
G1 X32.322 Y154.322 E63.30194
G1 X32.104 Y153.629 E63.3261
G1 X31.964 Y152.917 E63.35024
G1 X31.9 Y152 E63.38081
G1 X31.9 Y68 E66.17466
G1 X31.94 Y67.275 E66.19881
G1 X32.059 Y66.558 E66.22299
G1 X32.257 Y65.859 E66.24715
G1 X32.53 Y65.186 E66.27131
G1 X32.875 Y64.547 E66.29546
G1 X33.289 Y63.95 E66.31962
G1 X33.765 Y63.402 E66.34377
G1 X34.299 Y62.909 E66.36794
G1 X34.884 Y62.479 E66.39209
G1 X35.513 Y62.115 E66.41626
G0 F6000 X35.889 Y62.377
G1 F1200 X36.543 Y62.117 E66.43967
G1 X37.223 Y61.933 E66.4631
G1 X37.919 Y61.827 E66.48651
G1 X38.5 Y61.8 E66.50586
G1 X181.5 Y61.8 E71.26206
G1 X182.203 Y61.84 E71.28548
G1 X182.897 Y61.959 E71.3089
G1 X183.572 Y62.157 E71.33229
G1 X184.221 Y62.429 E71.3557
G1 X184.835 Y62.774 E71.37912
G1 X185.406 Y63.185 E71.40252
G1 X185.927 Y63.659 E71.42595
G1 X186.391 Y64.189 E71.44938
G1 X186.791 Y64.768 E71.47278
G1 X187.123 Y65.389 E71.49621
G1 X187.383 Y66.043 E71.51961
G1 X187.567 Y66.723 E71.54304
G1 X187.673 Y67.419 E71.56646
G1 X187.7 Y68 E71.5858
G1 X187.7 Y152 E74.37966
G1 X187.66 Y152.703 E74.40308
G1 X187.541 Y153.397 E74.42649
G1 X187.343 Y154.072 E74.44989
G1 X187.071 Y154.721 E74.4733
G1 X186.726 Y155.335 E74.49672
G1 X186.315 Y155.906 E74.52012
G1 X185.841 Y156.427 E74.54355
G1 X185.311 Y156.891 E74.56698
G1 X184.732 Y157.291 E74.59038
G1 X184.111 Y157.623 E74.6138
G1 X183.457 Y157.883 E74.63721
G1 X182.777 Y158.067 E74.66064
G1 X182.081 Y158.173 E74.68406
G1 X181.5 Y158.2 E74.7034
G1 X38.5 Y158.2 E79.4596
G1 X37.797 Y158.16 E79.48302
G1 X37.103 Y158.041 E79.50644
G1 X36.428 Y157.843 E79.52984
G1 X35.779 Y157.571 E79.55324
G1 X35.165 Y157.226 E79.57667
G1 X34.594 Y156.815 E79.60007
G1 X34.073 Y156.341 E79.62349
G1 X33.609 Y155.811 E79.64692
G1 X33.209 Y155.232 E79.67033
G1 X32.877 Y154.611 E79.69375
G1 X32.617 Y153.957 E79.71716
G1 X32.433 Y153.277 E79.74059
G1 X32.327 Y152.581 E79.764
G1 X32.3 Y152 E79.78335
G1 X32.3 Y68 E82.5772
G1 X32.34 Y67.297 E82.60062
G1 X32.459 Y66.603 E82.62404
G1 X32.657 Y65.928 E82.64744
G1 X32.929 Y65.279 E82.67084
G1 X33.274 Y64.665 E82.69427
G1 X33.685 Y64.094 E82.71767
G1 X34.159 Y63.573 E82.74109
G1 X34.689 Y63.109 E82.76452
G1 X35.268 Y62.709 E82.78793
G1 X35.889 Y62.377 E82.81135
G0 F6000 X36.262 Y62.649
G1 F1200 X36.904 Y62.424 E82.83398
G1 X37.569 Y62.275 E82.85664
G1 X38.5 Y62.2 E82.88771
G1 X181.5 Y62.2 E87.64391
G1 X182.18 Y62.24 E87.66656
G1 X182.85 Y62.359 E87.6892
G1 X183.502 Y62.556 E87.71185
G1 X184.126 Y62.828 E87.73449
G1 X184.714 Y63.172 E87.75715
G1 X185.258 Y63.582 E87.7798
G1 X185.749 Y64.053 E87.80243
G1 X186.183 Y64.578 E87.82509
G1 X186.552 Y65.15 E87.84773
G1 X186.851 Y65.762 E87.87038
G1 X187.076 Y66.404 E87.89301
G1 X187.225 Y67.069 E87.91568
G1 X187.3 Y68 E87.94674
G1 X187.3 Y152 E90.74059
G1 X187.26 Y152.68 E90.76325
G1 X187.141 Y153.35 E90.78588
G1 X186.944 Y154.002 E90.80854
G1 X186.672 Y154.626 E90.83118
G1 X186.328 Y155.214 E90.85384
G1 X185.918 Y155.758 E90.87649
G1 X185.447 Y156.249 E90.89912
G1 X184.922 Y156.683 E90.92178
G1 X184.35 Y157.052 E90.94442
G1 X183.738 Y157.351 E90.96707
G1 X183.096 Y157.576 E90.9897
G1 X182.431 Y157.725 E91.01237
G1 X181.5 Y157.8 E91.04343
G1 X38.5 Y157.8 E95.79963
G1 X37.82 Y157.76 E95.82229
G1 X37.15 Y157.641 E95.84492
G1 X36.498 Y157.444 E95.86757
G1 X35.874 Y157.172 E95.89021
G1 X35.286 Y156.828 E95.91287
G1 X34.742 Y156.418 E95.93553
G1 X34.251 Y155.947 E95.95816
G1 X33.817 Y155.422 E95.98081
G1 X33.448 Y154.85 E96.00345
G1 X33.149 Y154.238 E96.02611
G1 X32.924 Y153.596 E96.04873
G1 X32.775 Y152.931 E96.0714
G1 X32.7 Y152 E96.10247
G1 X32.7 Y68 E98.89632
G1 X32.74 Y67.32 E98.91897
G1 X32.859 Y66.65 E98.94161
G1 X33.056 Y65.998 E98.96426
G1 X33.328 Y65.374 E98.9869
G1 X33.672 Y64.786 E99.00956
G1 X34.082 Y64.242 E99.03222
G1 X34.553 Y63.751 E99.05485
G1 X35.078 Y63.317 E99.0775
G1 X35.65 Y62.948 E99.10014
G1 X36.262 Y62.649 E99.1228
G0 F6000 X36.631 Y62.934
G1 F1200 X37.26 Y62.744 E99.14465
G1 X37.907 Y62.633 E99.16648
G1 X38.5 Y62.6 E99.18624
G1 X181.5 Y62.6 E103.94244
G1 X182.156 Y62.64 E103.9643
G1 X182.802 Y62.759 E103.98614
G1 X183.429 Y62.956 E104.008
G1 X184.027 Y63.228 E104.02985
G1 X184.588 Y63.57 E104.05171
G1 X185.103 Y63.978 E104.07356
G1 X185.565 Y64.445 E104.09541
G1 X185.966 Y64.965 E104.11725
G1 X186.302 Y65.529 E104.13908
G1 X186.566 Y66.131 E104.16095
G1 X186.756 Y66.76 E104.1828
G1 X186.867 Y67.407 E104.20463
G1 X186.9 Y68 E104.22439
G1 X186.9 Y152 E107.01824
G1 X186.86 Y152.656 E107.0401
G1 X186.741 Y153.302 E107.06195
G1 X186.544 Y153.929 E107.08381
G1 X186.272 Y154.527 E107.10566
G1 X185.93 Y155.088 E107.12751
G1 X185.522 Y155.603 E107.14936
G1 X185.055 Y156.065 E107.17121
G1 X184.535 Y156.466 E107.19305
G1 X183.971 Y156.802 E107.21489
G1 X183.369 Y157.066 E107.23675
G1 X182.74 Y157.256 E107.2586
G1 X182.093 Y157.367 E107.28044
G1 X181.5 Y157.4 E107.30019
G1 X38.5 Y157.4 E112.05639
G1 X37.844 Y157.36 E112.07825
G1 X37.198 Y157.241 E112.1001
G1 X36.571 Y157.044 E112.12196
G1 X35.973 Y156.772 E112.14381
G1 X35.412 Y156.43 E112.16566
G1 X34.897 Y156.022 E112.18751
G1 X34.435 Y155.555 E112.20936
G1 X34.034 Y155.035 E112.2312
G1 X33.698 Y154.471 E112.25304
G1 X33.434 Y153.869 E112.2749
G1 X33.244 Y153.24 E112.29676
G1 X33.133 Y152.593 E112.31859
G1 X33.1 Y152 E112.33834
G1 X33.1 Y68 E115.13219
G1 X33.14 Y67.344 E115.15405
G1 X33.259 Y66.698 E115.1759
G1 X33.456 Y66.071 E115.19776
G1 X33.728 Y65.473 E115.21961
G1 X34.07 Y64.912 E115.24146
G1 X34.478 Y64.397 E115.26332
G1 X34.945 Y63.935 E115.28516
G1 X35.465 Y63.534 E115.30701
G1 X36.029 Y63.198 E115.32884
G1 X36.631 Y62.934 E115.3507
G0 F6000 X36.995 Y63.232
G1 F1200 X37.609 Y63.08 E115.37174
G1 X38.5 Y63 E115.4015
G1 X181.5 Y63 E120.1577
G1 X182.131 Y63.04 E120.17872
G1 X182.752 Y63.159 E120.19976
G1 X183.352 Y63.356 E120.22076
G1 X183.924 Y63.627 E120.24181
G1 X184.456 Y63.967 E120.26281
G1 X184.941 Y64.373 E120.28385
G1 X185.371 Y64.836 E120.30486
G1 X185.74 Y65.35 E120.32591
G1 X186.04 Y65.906 E120.34692
G1 X186.268 Y66.495 E120.36793
G1 X186.42 Y67.109 E120.38897
G1 X186.5 Y68 E120.41872
G1 X186.5 Y152 E123.21257
G1 X186.46 Y152.631 E123.2336
G1 X186.341 Y153.252 E123.25463
G1 X186.144 Y153.852 E123.27564
G1 X185.873 Y154.424 E123.29669
G1 X185.533 Y154.956 E123.31769
G1 X185.127 Y155.441 E123.33872
G1 X184.664 Y155.871 E123.35974
G1 X184.15 Y156.24 E123.38079
G1 X183.594 Y156.54 E123.4018
G1 X183.005 Y156.768 E123.42281
G1 X182.391 Y156.92 E123.44384
G1 X181.5 Y157 E123.4736
G1 X38.5 Y157 E128.2298
G1 X37.869 Y156.96 E128.25083
G1 X37.248 Y156.841 E128.27186
G1 X36.648 Y156.644 E128.29286
G1 X36.076 Y156.373 E128.31391
G1 X35.544 Y156.033 E128.33491
G1 X35.059 Y155.627 E128.35595
G1 X34.629 Y155.164 E128.37697
G1 X34.26 Y154.65 E128.39801
G1 X33.96 Y154.094 E128.41902
G1 X33.732 Y153.505 E128.44003
G1 X33.58 Y152.891 E128.46107
G1 X33.5 Y152 E128.49082
G1 X33.5 Y68 E131.28467
G1 X33.54 Y67.369 E131.3057
G1 X33.659 Y66.748 E131.32673
G1 X33.856 Y66.148 E131.34774
G1 X34.127 Y65.576 E131.36879
G1 X34.467 Y65.044 E131.38979
G1 X34.873 Y64.559 E131.41083
G1 X35.336 Y64.129 E131.43184
G1 X35.85 Y63.76 E131.45289
G1 X36.406 Y63.46 E131.4739
G1 X36.995 Y63.232 E131.49491
G0 F6000 X37.354 Y63.545
G1 F1200 X37.95 Y63.433 E131.51508
G1 X38.5 Y63.4 E131.5334
G1 X181.5 Y63.4 E136.2896
G1 X182.105 Y63.44 E136.30977
G1 X182.699 Y63.559 E136.32992
G1 X183.273 Y63.755 E136.35009
G1 X183.816 Y64.026 E136.37028
G1 X184.319 Y64.365 E136.39045
G1 X184.772 Y64.767 E136.41059
G1 X185.169 Y65.225 E136.43075
G1 X185.502 Y65.732 E136.45093
G1 X185.766 Y66.278 E136.4711
G1 X185.955 Y66.854 E136.49126
G1 X186.067 Y67.45 E136.51143
G1 X186.1 Y68 E136.52976
G1 X186.1 Y152 E139.32361
G1 X186.06 Y152.605 E139.34378
G1 X185.941 Y153.199 E139.36393
G1 X185.745 Y153.773 E139.3841
G1 X185.474 Y154.316 E139.40428
G1 X185.135 Y154.819 E139.42446
G1 X184.733 Y155.272 E139.4446
G1 X184.275 Y155.669 E139.46476
G1 X183.768 Y156.002 E139.48494
G1 X183.222 Y156.266 E139.50511
G1 X182.646 Y156.455 E139.52527
