;FLAVOR:Marlin
;TIME:3115
;Filament used: 3.58755m
;Layer height: 0.2
;MINX:61
;MINY:54.683
;MINZ:0.2
;MAXX:159
;MAXY:165.317
;MAXZ:2
;Generated with Cura_SteamEngine 5.2.2
M82 ;absolute extrusion mode
; Ender 3 Custom Start G-code
G92 E0 ; Reset Extruder
G28 ; Home all axes
M104 S175 ; Start heating up the nozzle most of the way
M190 S60 ; Start heating the bed, wait until target temperature reached
M109 S215 ; Finish heating the nozzle
G1 Z2.0 F3000 ; Move Z Axis up little to prevent scratching of Heat Bed
G1 X0.1 Y20 Z0.3 F5000.0 ; Move to start position
G1 X0.1 Y200.0 Z0.3 F1500.0 E15 ; Draw the first line
G1 X0.4 Y200.0 Z0.3 F5000.0 ; Move to side a little
G1 X0.4 Y20 Z0.3 F1500.0 E30 ; Draw the second line
G92 E0 ; Reset Extruder
G1 Z2.0 F3000 ; Move Z Axis up little to prevent scratching of Heat Bed
G1 X5 Y20 Z0.3 F5000.0 ; Move over to prevent blob squish
G92 E0
G92 E0
G1 F1500 E-6.5
;LAYER_COUNT:10
;LAYER:0
M107
G0 F6000 X64.893 Y79.451 Z0.2
;TYPE:SKIRT
G1 F1500 E0
G1 F1200 X65.633 Y78.875 E0.03119
G1 X66.306 Y78.433 E0.05797
G1 X66.961 Y78.037 E0.08343
G1 X103.98 Y56.445 E1.50882
G1 X104.588 Y56.102 E1.53204
G1 X105.424 Y55.677 E1.56323
G1 X106.293 Y55.324 E1.59442
G1 X107.189 Y55.046 E1.62563
G1 X108.105 Y54.846 E1.65681
G1 X109.035 Y54.725 E1.688
G1 X109.972 Y54.683 E1.7192
G1 X110.909 Y54.721 E1.75039
G1 X111.839 Y54.839 E1.78157
G1 X112.756 Y55.036 E1.81277
G1 X113.653 Y55.31 E1.84396
G1 X114.524 Y55.659 E1.87517
G1 X115.358 Y56.08 E1.90624
G1 X116.328 Y56.624 E1.94323
G1 X152.963 Y77.993 E3.35385
G1 X153.681 Y78.426 E3.38174
G1 X154.462 Y78.945 E3.41293
G1 X155.196 Y79.528 E3.44411
G1 X155.878 Y80.172 E3.4753
G1 X156.503 Y80.872 E3.50652
G1 X157.065 Y81.623 E3.53771
G1 X157.562 Y82.418 E3.5689
G1 X157.989 Y83.253 E3.60009
G1 X158.343 Y84.122 E3.6313
G1 X158.622 Y85.017 E3.66248
G1 X158.824 Y85.933 E3.69368
G1 X158.947 Y86.863 E3.72488
G1 X158.988 Y87.645 E3.75092
G1 X159 Y88.405 E3.77621
G1 X158.999 Y131.585 E5.21238
G1 X158.989 Y132.313 E5.23659
G1 X158.936 Y133.249 E5.26777
G1 X158.804 Y134.178 E5.29898
G1 X158.593 Y135.092 E5.33018
G1 X158.305 Y135.984 E5.36136
G1 X157.941 Y136.849 E5.39257
G1 X157.506 Y137.68 E5.42377
G1 X157.001 Y138.47 E5.45496
G1 X156.431 Y139.215 E5.48615
G1 X155.8 Y139.908 E5.51733
G1 X155.112 Y140.545 E5.54851
G1 X154.372 Y141.122 E5.57972
G1 X153.694 Y141.567 E5.6067
G1 X153.039 Y141.963 E5.63215
G1 X116.169 Y163.469 E7.05182
G1 X115.422 Y163.892 E7.08037
G1 X114.587 Y164.319 E7.11157
G1 X113.718 Y164.672 E7.14276
G1 X112.823 Y164.951 E7.17394
G1 X111.907 Y165.152 E7.20514
G1 X110.977 Y165.274 E7.23633
G1 X110.04 Y165.317 E7.26753
G1 X109.103 Y165.28 E7.29872
G1 X108.172 Y165.163 E7.32993
G1 X107.255 Y164.967 E7.36112
G1 X106.358 Y164.694 E7.3923
G1 X105.487 Y164.345 E7.42351
G1 X104.648 Y163.923 E7.45475
G1 X103.672 Y163.376 E7.49196
G1 X67.037 Y142.007 E8.90258
G1 X66.319 Y141.574 E8.93047
G1 X65.538 Y141.055 E8.96166
G1 X64.804 Y140.472 E8.99283
G1 X64.122 Y139.828 E9.02403
G1 X63.497 Y139.128 E9.05524
G1 X62.935 Y138.377 E9.08644
G1 X62.438 Y137.582 E9.11762
G1 X62.011 Y136.747 E9.14882
G1 X61.657 Y135.878 E9.18003
G1 X61.378 Y134.983 E9.21121
G1 X61.176 Y134.067 E9.24241
G1 X61.053 Y133.137 E9.27361
G1 X61.012 Y132.355 E9.29965
G1 X61 Y131.595 E9.32493
G1 X61.001 Y88.383 E10.76217
G1 X61.011 Y87.681 E10.78552
G1 X61.064 Y86.745 E10.8167
G1 X61.197 Y85.817 E10.84788
G1 X61.409 Y84.903 E10.87909
G1 X61.697 Y84.01 E10.9103
G1 X62.061 Y83.146 E10.94148
G1 X62.497 Y82.315 E10.97269
G1 X63.002 Y81.525 E11.00388
G1 X63.572 Y80.781 E11.03505
G1 X64.204 Y80.088 E11.06625
G1 X64.893 Y79.451 E11.09746
G0 F6000 X65.281 Y79.648
G1 F1200 X66.017 Y79.095 E11.12807
G1 X66.513 Y78.775 E11.14771
G1 X67.162 Y78.383 E11.17292
G1 X104.044 Y56.87 E12.59306
G1 X104.785 Y56.451 E12.62137
G1 X105.605 Y56.034 E12.65197
G1 X106.459 Y55.689 E12.6826
G1 X107.34 Y55.42 E12.71324
G1 X108.24 Y55.229 E12.74384
G1 X109.154 Y55.116 E12.77447
G1 X110.074 Y55.083 E12.80509
G1 X110.994 Y55.13 E12.83573
G1 X111.905 Y55.257 E12.86632
G1 X112.803 Y55.462 E12.89696
G1 X113.679 Y55.745 E12.92758
G1 X114.528 Y56.102 E12.95821
G1 X115.163 Y56.429 E12.98196
G1 X115.956 Y56.872 E13.01218
G1 X152.762 Y78.339 E14.42935
G1 X153.474 Y78.768 E14.457
G1 X154.241 Y79.278 E14.48763
G1 X154.96 Y79.853 E14.51826
G1 X155.627 Y80.488 E14.54889
G1 X156.236 Y81.178 E14.5795
G1 X156.783 Y81.919 E14.61013
G1 X157.263 Y82.704 E14.64073
G1 X157.674 Y83.528 E14.67136
G1 X158.011 Y84.384 E14.70196
G1 X158.273 Y85.267 E14.73259
G1 X158.458 Y86.169 E14.76322
G1 X158.563 Y87.084 E14.79385
G1 X158.588 Y87.652 E14.81276
G1 X158.6 Y88.405 E14.83781
G1 X158.599 Y131.58 E16.27381
G1 X158.589 Y132.308 E16.29803
G1 X158.536 Y133.227 E16.32865
G1 X158.404 Y134.138 E16.35926
G1 X158.193 Y135.034 E16.38988
G1 X157.906 Y135.909 E16.42051
G1 X157.543 Y136.755 E16.45113
G1 X157.109 Y137.567 E16.48175
G1 X156.605 Y138.337 E16.51236
G1 X156.037 Y139.062 E16.54299
G1 X155.408 Y139.734 E16.5736
G1 X154.723 Y140.349 E16.60422
G1 X153.987 Y140.902 E16.63484
G1 X153.487 Y141.225 E16.65464
G1 X152.838 Y141.617 E16.67986
G1 X115.968 Y163.123 E18.09953
G1 X115.225 Y163.544 E18.12793
G1 X114.405 Y163.962 E18.15854
G1 X113.551 Y164.307 E18.18918
G1 X112.671 Y164.577 E18.21979
G1 X111.771 Y164.769 E18.2504
G1 X110.857 Y164.883 E18.28103
G1 X109.937 Y164.917 E18.31165
G1 X109.018 Y164.871 E18.34226
G1 X108.106 Y164.745 E18.37288
G1 X107.208 Y164.541 E18.40351
G1 X106.331 Y164.259 E18.43415
G1 X105.483 Y163.902 E18.46475
G1 X104.843 Y163.574 E18.48867
G1 X104.049 Y163.131 E18.51891
G1 X67.238 Y141.661 E19.93628
G1 X66.526 Y141.232 E19.96393
G1 X65.759 Y140.722 E19.99456
G1 X65.04 Y140.147 E20.02518
G1 X64.373 Y139.512 E20.05582
G1 X63.764 Y138.822 E20.08642
G1 X63.217 Y138.081 E20.11706
G1 X62.737 Y137.296 E20.14766
G1 X62.326 Y136.472 E20.17829
G1 X61.989 Y135.616 E20.20889
G1 X61.727 Y134.733 E20.23952
G1 X61.542 Y133.831 E20.27015
G1 X61.437 Y132.916 E20.30078
G1 X61.412 Y132.348 E20.31969
G1 X61.4 Y131.595 E20.34474
G1 X61.401 Y88.389 E21.78177
G1 X61.411 Y87.687 E21.80512
G1 X61.464 Y86.768 E21.83574
G1 X61.597 Y85.857 E21.86636
G1 X61.808 Y84.961 E21.89698
G1 X62.096 Y84.086 E21.92762
G1 X62.459 Y83.24 E21.95824
G1 X62.894 Y82.429 E21.98885
G1 X63.398 Y81.658 E22.01948
G1 X63.966 Y80.934 E22.05009
G1 X64.596 Y80.262 E22.08073
G1 X65.281 Y79.648 E22.11132
G0 F6000 X65.669 Y79.849
G1 F1200 X66.721 Y79.117 E22.15395
G1 X67.364 Y78.728 E22.17894
G1 X104.373 Y57.142 E23.60395
G1 X104.981 Y56.799 E23.62716
G1 X105.787 Y56.391 E23.65721
G1 X106.625 Y56.055 E23.68724
G1 X107.49 Y55.795 E23.71728
G1 X108.374 Y55.612 E23.74731
G1 X109.272 Y55.509 E23.77737
G1 X110.174 Y55.485 E23.80738
G1 X111.076 Y55.541 E23.83744
G1 X111.969 Y55.676 E23.86748
G1 X112.846 Y55.89 E23.8975
G1 X113.701 Y56.181 E23.92754
G1 X114.527 Y56.546 E23.95758
G1 X114.968 Y56.778 E23.97415
G1 X115.925 Y57.315 E24.01065
G1 X152.56 Y78.684 E25.42127
G1 X153.267 Y79.11 E25.44872
G1 X154.019 Y79.611 E25.47878
G1 X154.723 Y80.177 E25.50882
G1 X155.374 Y80.802 E25.53884
G1 X155.968 Y81.483 E25.56889
G1 X156.498 Y82.214 E25.59893
G1 X156.963 Y82.988 E25.62896
G1 X157.357 Y83.801 E25.65901
G1 X157.677 Y84.645 E25.68903
G1 X157.922 Y85.515 E25.71909
G1 X158.088 Y86.402 E25.7491
G1 X158.188 Y87.659 E25.79104
G1 X158.2 Y88.405 E25.81586
G1 X158.199 Y131.574 E27.25167
G1 X158.189 Y132.302 E27.27588
G1 X158.137 Y133.204 E27.30593
G1 X158.005 Y134.097 E27.33596
G1 X157.794 Y134.975 E27.36599
G1 X157.507 Y135.832 E27.39605
G1 X157.145 Y136.659 E27.42608
G1 X156.712 Y137.451 E27.4561
G1 X156.209 Y138.202 E27.48616
G1 X155.643 Y138.905 E27.51618
G1 X155.017 Y139.556 E27.54622
G1 X154.335 Y140.148 E27.57626
G1 X153.279 Y140.883 E27.61905
G1 X152.636 Y141.272 E27.64404
G1 X115.766 Y162.778 E29.06371
G1 X115.028 Y163.196 E29.09192
G1 X114.223 Y163.605 E29.12195
G1 X113.385 Y163.942 E29.15199
G1 X112.521 Y164.203 E29.18201
G1 X111.636 Y164.386 E29.21207
G1 X110.739 Y164.491 E29.24211
G1 X109.837 Y164.516 E29.27212
G1 X108.935 Y164.46 E29.30218
G1 X108.042 Y164.326 E29.33221
G1 X107.165 Y164.113 E29.36223
G1 X106.309 Y163.823 E29.39229
G1 X105.483 Y163.458 E29.42233
G1 X105.038 Y163.224 E29.43905
G1 X104.075 Y162.685 E29.47575
G1 X67.44 Y141.316 E30.88638
G1 X66.733 Y140.89 E30.91383
G1 X65.981 Y140.389 E30.94388
G1 X65.277 Y139.823 E30.97393
G1 X64.626 Y139.198 E31.00394
G1 X64.032 Y138.517 E31.034
G1 X63.502 Y137.786 E31.06403
G1 X63.037 Y137.012 E31.09406
G1 X62.643 Y136.199 E31.12411
G1 X62.323 Y135.355 E31.15413
G1 X62.078 Y134.485 E31.18419
G1 X61.912 Y133.598 E31.21421
G1 X61.812 Y132.341 E31.25615
G1 X61.8 Y131.595 E31.28096
G1 X61.801 Y88.395 E32.7178
G1 X61.811 Y87.693 E32.74115
G1 X61.864 Y86.791 E32.7712
G1 X61.996 Y85.898 E32.80123
G1 X62.207 Y85.02 E32.83126
G1 X62.495 Y84.164 E32.8613
G1 X62.857 Y83.336 E32.89136
G1 X63.291 Y82.544 E32.9214
G1 X63.794 Y81.794 E32.95143
G1 X64.36 Y81.091 E32.98145
G1 X64.987 Y80.441 E33.01149
G1 X65.669 Y79.849 E33.04152
G1 F1500 E26.54152
;MESH:Certification-Base2mm.stl
G0 F6000 X71.873 Y87.138
G0 X110 Y153.637
;TYPE:WALL-INNER
G1 F1500 E33.04152
G1 F1200 X147.4 Y131.821 E34.48161
G1 X147.4 Y88.179 E35.93315
G1 X110 Y66.363 E37.37324
G1 X72.6 Y88.179 E38.81333
G1 X72.6 Y131.821 E40.26487
G1 X110 Y153.637 E41.70496
G0 F6000 X110 Y154.1
;TYPE:WALL-OUTER
G1 F1200 X147.8 Y132.051 E43.16045
G1 X147.8 Y87.949 E44.62729
G1 X110 Y65.9 E46.08277
G1 X72.2 Y87.949 E47.53826
G1 X72.2 Y132.051 E49.0051
G1 X110 Y154.1 E50.46059
G0 F6000 X110 Y153.218
;TYPE:SKIN
G1 F1200 X147.04 Y131.613 E51.8868
G1 X147.04 Y88.387 E53.3245
G1 X110 Y66.782 E54.75071
G1 X72.96 Y88.387 E56.17692
G1 X72.96 Y131.613 E57.61463
G1 X110 Y153.218 E59.04084
G1 F1500 E52.54084
G0 F6000 X109.868 Y153.443
G0 X72.896 Y131.877
G1 F1500 E59.04084
G0 F6000 X73.16 Y131.425
G1 F1200 X73.332 Y131.598 E59.04895
G0 F6000 X73.16 Y130.86
G1 F1200 X74.69 Y132.39 E59.12092
G0 F6000 X74.457 Y132.788
G0 X75.815 Y133.579
G0 X76.047 Y133.182
G1 F1200 X73.16 Y130.294 E59.25674
G0 F6000 X73.16 Y129.728
G1 F1200 X77.404 Y133.973 E59.45638
G0 F6000 X77.172 Y134.371
G0 X78.529 Y135.163
G0 X78.762 Y134.765
G1 F1200 X73.16 Y129.162 E59.71991
G0 F6000 X73.16 Y128.597
G1 F1200 X80.12 Y135.557 E60.04729
G0 F6000 X79.887 Y135.955
G0 X81.244 Y136.746
G0 X81.477 Y136.348
G1 F1200 X73.16 Y128.031 E60.43849
G0 F6000 X73.16 Y127.465
G1 F1200 X82.834 Y137.14 E60.89355
G0 F6000 X82.601 Y137.538
G0 X83.959 Y138.33
G0 X84.192 Y137.932
G1 F1200 X73.16 Y126.9 E61.41246
G0 F6000 X73.16 Y126.334
G1 F1200 X85.549 Y138.723 E61.9952
G0 F6000 X85.316 Y139.121
G0 X86.674 Y139.913
G0 X86.906 Y139.515
G1 F1200 X73.16 Y125.768 E62.6418
G0 F6000 X73.16 Y125.203
G1 F1200 X88.264 Y140.307 E63.35224
G0 F6000 X88.031 Y140.705
G0 X89.388 Y141.496
G0 X89.621 Y141.098
G1 F1200 X73.16 Y124.637 E64.12652
G0 F6000 X73.16 Y124.071
G1 F1200 X90.979 Y141.89 E64.96467
G0 F6000 X90.746 Y142.288
G0 X92.103 Y143.08
G0 X92.336 Y142.682
G1 F1200 X73.16 Y123.506 E65.86665
G0 F6000 X73.16 Y122.94
G1 F1200 X93.693 Y143.474 E66.83248
G0 F6000 X93.461 Y143.871
G0 X94.819 Y144.664
G0 X95.051 Y144.266
G1 F1200 X73.16 Y122.374 E67.86219
G0 F6000 X73.16 Y121.809
G1 F1200 X96.409 Y145.058 E68.95575
G0 F6000 X96.176 Y145.456
G0 X97.532 Y146.247
G0 X97.765 Y145.849
G1 F1200 X73.16 Y121.243 E70.11312
G0 F6000 X73.16 Y120.677
G1 F1200 X99.123 Y146.641 E71.33436
G0 F6000 X98.89 Y147.039
G0 X100.248 Y147.831
G0 X100.481 Y147.433
G1 F1200 X73.16 Y120.111 E72.61948
G0 F6000 X73.16 Y119.546
G1 F1200 X101.838 Y148.224 E73.96841
G0 F6000 X101.605 Y148.623
G0 X102.962 Y149.414
G0 X103.195 Y149.016
G1 F1200 X73.16 Y118.98 E75.38119
G0 F6000 X73.16 Y118.414
G1 F1200 X104.553 Y149.808 E76.85784
G0 F6000 X104.32 Y150.206
G0 X105.677 Y150.998
G0 X105.91 Y150.599
G1 F1200 X73.16 Y117.849 E78.3983
G0 F6000 X73.16 Y117.283
G1 F1200 X107.268 Y151.391 E80.00263
G0 F6000 X107.035 Y151.79
G0 X108.392 Y152.582
G0 X108.625 Y152.183
G1 F1200 X73.16 Y116.717 E81.67082
G0 F6000 X73.16 Y116.152
G1 F1200 X109.983 Y152.975 E83.40286
G0 F6000 X110.352 Y152.778
G1 F1200 X73.16 Y115.586 E85.15226
G0 F6000 X73.16 Y115.02
G1 F1200 X110.71 Y152.571 E86.91852
G0 F6000 X111.067 Y152.362
G1 F1200 X73.16 Y114.455 E88.70155
G0 F6000 X73.16 Y113.889
G1 F1200 X111.424 Y152.153 E90.50137
G0 F6000 X111.782 Y151.945
G1 F1200 X73.16 Y113.323 E92.31803
G0 F6000 X73.16 Y112.758
G1 F1200 X112.139 Y151.737 E94.15149
G0 F6000 X112.496 Y151.528
G1 F1200 X73.16 Y112.192 E96.00173
G0 F6000 X73.16 Y111.626
G1 F1200 X112.853 Y151.32 E97.86879
G0 F6000 X113.211 Y151.112
G1 F1200 X73.16 Y111.061 E99.75267
G0 F6000 X73.16 Y110.495
G1 F1200 X113.568 Y150.903 E101.65334
G0 F6000 X113.925 Y150.695
G1 F1200 X73.16 Y109.929 E103.57082
G0 F6000 X73.16 Y109.363
G1 F1200 X114.283 Y150.487 E105.50514
G0 F6000 X114.64 Y150.278
G1 F1200 X73.16 Y108.798 E107.45624
G0 F6000 X73.16 Y108.232
G1 F1200 X114.997 Y150.069 E109.42412
G0 F6000 X115.354 Y149.861
G1 F1200 X73.16 Y107.666 E111.40882
G0 F6000 X73.16 Y107.101
G1 F1200 X115.712 Y149.653 E113.41033
G0 F6000 X116.069 Y149.444
G1 F1200 X73.16 Y106.535 E115.42864
G0 F6000 X73.16 Y105.969
G1 F1200 X116.426 Y149.236 E117.46377
G0 F6000 X116.783 Y149.027
G1 F1200 X73.16 Y105.404 E119.51566
G0 F6000 X73.16 Y104.838
G1 F1200 X117.141 Y148.819 E121.58439
G0 F6000 X117.498 Y148.611
G1 F1200 X73.16 Y104.272 E123.66994
G0 F6000 X73.16 Y103.707
G1 F1200 X117.855 Y148.402 E125.77225
G0 F6000 X118.213 Y148.194
G1 F1200 X73.16 Y103.141 E127.89141
G0 F6000 X73.16 Y102.575
G1 F1200 X118.57 Y147.986 E130.02738
G0 F6000 X118.927 Y147.777
G1 F1200 X73.16 Y102.01 E132.18012
G0 F6000 X73.16 Y101.444
G1 F1200 X119.284 Y147.568 E134.34965
G0 F6000 X119.642 Y147.361
G1 F1200 X73.16 Y100.878 E136.53604
G0 F6000 X73.16 Y100.312
G1 F1200 X119.999 Y147.152 E138.73923
G0 F6000 X120.356 Y146.943
G1 F1200 X73.16 Y99.747 E140.95919
G0 F6000 X73.16 Y99.181
G1 F1200 X120.714 Y146.735 E143.19598
G0 F6000 X121.071 Y146.527
G1 F1200 X73.16 Y98.615 E145.44959
G0 F6000 X73.16 Y98.05
G1 F1200 X121.428 Y146.318 E147.71997
G0 F6000 X121.785 Y146.11
G1 F1200 X73.16 Y97.484 E150.00716
G0 F6000 X73.16 Y96.918
G1 F1200 X122.143 Y145.902 E152.3112
G0 F6000 X122.5 Y145.693
G1 F1200 X73.16 Y96.353 E154.632
G0 F6000 X73.16 Y95.787
G1 F1200 X122.857 Y145.485 E156.96962
G0 F6000 X123.214 Y145.276
G1 F1200 X73.16 Y95.221 E159.32403
G0 F6000 X73.16 Y94.656
G1 F1200 X123.572 Y145.068 E161.69525
G0 F6000 X123.929 Y144.86
G1 F1200 X73.16 Y94.09 E164.08329
G0 F6000 X73.16 Y93.524
G1 F1200 X124.286 Y144.651 E166.48813
G0 F6000 X124.644 Y144.443
G1 F1200 X73.16 Y92.959 E168.90978
G0 F6000 X73.16 Y92.393
G1 F1200 X125.001 Y144.234 E171.34822
G0 F6000 X125.358 Y144.026
G1 F1200 X73.16 Y91.827 E173.80348
G0 F6000 X73.16 Y91.262
G1 F1200 X125.715 Y143.817 E176.2755
G0 F6000 X126.073 Y143.609
G1 F1200 X73.16 Y90.696 E178.76437
G0 F6000 X73.16 Y90.13
G1 F1200 X126.43 Y143.401 E181.27005
G0 F6000 X126.787 Y143.192
G1 F1200 X73.16 Y89.564 E183.79252
G0 F6000 X73.16 Y88.999
G1 F1200 X127.145 Y142.984 E186.33181
G0 F6000 X127.502 Y142.776
G1 F1200 X73.203 Y88.476 E188.88589
G0 F6000 X73.56 Y88.268
G1 F1200 X127.859 Y142.567 E191.43995
G0 F6000 X128.216 Y142.358
G1 F1200 X73.918 Y88.06 E193.99396
G0 F6000 X74.275 Y87.851
G1 F1200 X128.574 Y142.151 E196.54805
G0 F6000 X128.931 Y141.942
G1 F1200 X74.632 Y87.643 E199.1021
G0 F6000 X74.99 Y87.435
G1 F1200 X129.288 Y141.733 E201.65612
G0 F6000 X129.645 Y141.525
G1 F1200 X75.347 Y87.226 E204.21015
G0 F6000 X75.704 Y87.017
G1 F1200 X130.003 Y141.317 E206.76423
G0 F6000 X130.36 Y141.108
G1 F1200 X76.061 Y86.809 E209.31829
G0 F6000 X76.419 Y86.601
G1 F1200 X130.717 Y140.9 E211.87233
G0 F6000 X131.075 Y140.692
G1 F1200 X76.776 Y86.392 E214.42641
G0 F6000 X77.133 Y86.184
G1 F1200 X131.432 Y140.483 E216.98047
G0 F6000 X131.789 Y140.275
G1 F1200 X77.49 Y85.975 E219.53455
G0 F6000 X77.848 Y85.767
G1 F1200 X132.146 Y140.066 E222.08858
G0 F6000 X132.504 Y139.858
G1 F1200 X78.205 Y85.559 E224.64264
G0 F6000 X78.562 Y85.35
G1 F1200 X132.861 Y139.65 E227.19672
G0 F6000 X133.218 Y139.441
G1 F1200 X78.92 Y85.142 E229.75076
