;FLAVOR:Marlin
;TIME:21227
;Filament used: 24.1546m
;Layer height: 0.28
;MINX:28.2
;MINY:25.7
;MINZ:0.28
;MAXX:191.8
;MAXY:194.369
;MAXZ:11.12
;POSTPROCESSED
;Generated with Cura_SteamEngine 5.2.2
M82 ;absolute extrusion mode
; Ender 3 Custom Start G-code
G92 E0 ; Reset Extruder
G28 ; Home all axes
M104 S175 ; Start heating up the nozzle most of the way
M190 S60 ; Start heating the bed, wait until target temperature reached
M109 S215 ; Finish heating the nozzle
G1 Z2.0 F3000 ; Move Z Axis up little to prevent scratching of Heat Bed
G1 X0.1 Y20 Z0.3 F5000.0 ; Move to start position
G1 X0.1 Y200.0 Z0.3 F1500.0 E15 ; Draw the first line
G1 X0.4 Y200.0 Z0.3 F5000.0 ; Move to side a little
G1 X0.4 Y20 Z0.3 F1500.0 E30 ; Draw the second line
G92 E0 ; Reset Extruder
G1 Z2.0 F3000 ; Move Z Axis up little to prevent scratching of Heat Bed
G1 X5 Y20 Z0.3 F5000.0 ; Move over to prevent blob squish
G92 E0
G92 E0
G1 F1500 E-6.5
;LAYER_COUNT:39
;LAYER:0
M107
G1 F300 Z0.48
;MESH:Base-Tri-Purple.stl
G0 F6000 X95.114 Y95.897 Z0.48
;TYPE:WALL-INNER
G1 F300 Z0.28
G1 F1500 E0
G1 F1200 X95.706 Y95.755 E0.02835
G1 X96.293 Y95.514 E0.0579
G1 X96.82 Y95.191 E0.08668
G1 X97.292 Y94.79 E0.11552
G1 X97.693 Y94.318 E0.14436
G1 X98.016 Y93.79 E0.17318
G1 X98.255 Y93.206 E0.20256
G1 X98.397 Y92.614 E0.23091
G1 X98.448 Y91.975 E0.26076
G1 X98.448 Y35.025 E2.91259
G1 X98.397 Y34.382 E2.94262
G1 X98.255 Y33.795 E2.97074
G1 X98.015 Y33.207 E3.00032
G1 X97.691 Y32.68 E3.02912
G1 X97.29 Y32.208 E3.05796
G1 X96.82 Y31.809 E3.08667
G1 X96.29 Y31.484 E3.11562
G1 X95.706 Y31.245 E3.145
G1 X95.114 Y31.103 E3.17335
G1 X94.475 Y31.052 E3.2032
G1 X37.525 Y31.052 E5.85503
G1 X36.886 Y31.103 E5.88488
G1 X36.294 Y31.245 E5.91323
G1 X35.707 Y31.485 E5.94276
G1 X35.18 Y31.809 E5.97156
G1 X34.708 Y32.21 E6.0004
G1 X34.307 Y32.682 E6.02924
G1 X33.984 Y33.21 E6.05806
G1 X33.745 Y33.794 E6.08744
G1 X33.603 Y34.386 E6.11579
G1 X33.552 Y35.025 E6.14564
G1 X33.552 Y35.187 E6.15318
G1 X33.552 Y91.975 E8.79747
G1 X33.603 Y92.614 E8.82732
G1 X33.745 Y93.206 E8.85567
G1 X33.984 Y93.79 E8.88505
G1 X34.307 Y94.318 E8.91387
G1 X34.708 Y94.79 E8.94271
G1 X35.18 Y95.191 E8.97155
G1 X35.707 Y95.514 E9.00033
G1 X36.294 Y95.755 E9.02988
G1 X36.886 Y95.897 E9.05823
G1 X37.525 Y95.948 E9.08808
G1 X94.475 Y95.947 E11.73991
G1 X95.114 Y95.897 E11.76975
G0 F6000 X95.177 Y96.293
;TYPE:WALL-OUTER
G1 F1200 X95.829 Y96.137 E11.80097
G1 X96.475 Y95.872 E11.83348
G1 X97.056 Y95.516 E11.86521
G1 X97.576 Y95.074 E11.89699
G1 X98.018 Y94.554 E11.92877
G1 X98.374 Y93.971 E11.96058
G1 X98.637 Y93.329 E11.99288
G1 X98.793 Y92.677 E12.0241
G1 X98.848 Y91.991 E12.05614
G1 X98.848 Y35.009 E14.70946
G1 X98.793 Y34.319 E14.7417
G1 X98.637 Y33.671 E14.77273
G1 X98.373 Y33.025 E14.80523
G1 X98.016 Y32.444 E14.83698
G1 X97.574 Y31.924 E14.86876
G1 X97.056 Y31.484 E14.90041
G1 X96.471 Y31.126 E14.93234
G1 X95.829 Y30.863 E14.96465
G1 X95.177 Y30.707 E14.99586
G1 X94.491 Y30.652 E15.02791
G1 X37.509 Y30.652 E17.68123
G1 X36.823 Y30.707 E17.71328
G1 X36.171 Y30.863 E17.74449
G1 X35.525 Y31.127 E17.77699
G1 X34.944 Y31.484 E17.80874
G1 X34.424 Y31.926 E17.84052
G1 X33.982 Y32.446 E17.8723
G1 X33.626 Y33.029 E17.90411
G1 X33.363 Y33.671 E17.93641
G1 X33.207 Y34.323 E17.96763
G1 X33.152 Y35.009 E17.99967
G1 X33.152 Y35.187 E18.00796
G1 X33.152 Y91.991 E20.65299
G1 X33.207 Y92.677 E20.68504
G1 X33.363 Y93.329 E20.71626
G1 X33.626 Y93.971 E20.74856
G1 X33.982 Y94.554 E20.78037
G1 X34.424 Y95.074 E20.81215
G1 X34.944 Y95.516 E20.84393
G1 X35.525 Y95.872 E20.87566
G1 X36.171 Y96.137 E20.90817
G1 X36.823 Y96.293 E20.93939
G1 X37.509 Y96.348 E20.97143
G1 X94.491 Y96.347 E23.62475
G1 X95.177 Y96.293 E23.65679
G0 F6000 X95.054 Y95.54
;TYPE:SKIN
G1 F1200 X95.58 Y95.413 E23.68199
G1 X96.132 Y95.191 E23.70969
G1 X96.609 Y94.898 E23.73576
G1 X97.038 Y94.534 E23.76196
G1 X97.401 Y94.107 E23.78806
G1 X97.694 Y93.626 E23.81428
G1 X97.912 Y93.08 E23.84166
G1 X98.04 Y92.554 E23.86686
G1 X98.087 Y91.96 E23.89461
G1 X98.088 Y35.04 E26.54504
G1 X98.04 Y34.439 E26.57312
G1 X97.914 Y33.92 E26.59799
G1 X97.692 Y33.368 E26.62569
G1 X97.398 Y32.891 E26.65178
G1 X97.034 Y32.462 E26.67798
G1 X96.609 Y32.101 E26.70394
G1 X96.124 Y31.805 E26.7304
G1 X95.58 Y31.587 E26.75769
G1 X95.054 Y31.46 E26.78289
G1 X94.46 Y31.412 E26.81064
G1 X37.54 Y31.412 E29.46107
G1 X36.946 Y31.46 E29.48882
G1 X36.419 Y31.587 E29.51406
G1 X35.868 Y31.808 E29.54171
G1 X35.391 Y32.102 E29.5678
G1 X34.962 Y32.466 E29.59399
G1 X34.598 Y32.894 E29.62016
G1 X34.305 Y33.375 E29.64638
G1 X34.087 Y33.92 E29.67371
G1 X33.96 Y34.446 E29.69891
G1 X33.912 Y35.04 E29.72666
G1 X33.912 Y91.96 E32.37709
G1 X33.96 Y92.554 E32.40484
G1 X34.088 Y93.08 E32.43005
G1 X34.305 Y93.625 E32.45737
G1 X34.597 Y94.106 E32.48357
G1 X34.962 Y94.533 E32.50972
G1 X35.391 Y94.898 E32.53595
G1 X35.868 Y95.191 E32.56202
G1 X36.42 Y95.413 E32.58972
G1 X36.946 Y95.54 E32.61492
G1 X37.54 Y95.588 E32.64267
G1 X94.46 Y95.586 E35.2931
G1 X95.054 Y95.54 E35.32084
G1 F1500 E28.82084
G1 F300 Z0.48
G0 F6000 X34.339 Y93.171 Z0.48
G1 F300 Z0.28
G1 F1500 E35.32084
G1 F1200 X36.329 Y95.16 E35.45186
G0 F6000 X37.084 Y95.349
G1 F1200 X34.149 Y92.414 E35.64513
G0 F6000 X34.111 Y91.811
G1 F1200 X37.686 Y95.386 E35.88055
G0 F6000 X38.252 Y95.386
G1 F1200 X34.111 Y91.245 E36.15324
G0 F6000 X34.111 Y90.68
G1 F1200 X38.818 Y95.386 E36.46317
G0 F6000 X39.383 Y95.386
G1 F1200 X34.111 Y90.114 E36.81034
G0 F6000 X34.111 Y89.548
G1 F1200 X39.949 Y95.386 E37.19479
G0 F6000 X40.515 Y95.386
G1 F1200 X34.111 Y88.983 E37.61647
G0 F6000 X34.111 Y88.417
G1 F1200 X41.08 Y95.386 E38.07539
G0 F6000 X41.646 Y95.386
G1 F1200 X34.111 Y87.851 E38.57158
G0 F6000 X34.111 Y87.285
G1 F1200 X42.212 Y95.386 E39.10505
G0 F6000 X42.777 Y95.386
G1 F1200 X34.111 Y86.72 E39.67572
G0 F6000 X34.111 Y86.154
G1 F1200 X43.343 Y95.386 E40.28366
G0 F6000 X43.909 Y95.386
G1 F1200 X34.111 Y85.588 E40.92888
G0 F6000 X34.111 Y85.023
G1 F1200 X44.474 Y95.386 E41.6113
G0 F6000 X45.04 Y95.386
G1 F1200 X34.111 Y84.457 E42.33099
G0 F6000 X34.111 Y83.891
G1 F1200 X45.606 Y95.386 E43.08796
G0 F6000 X46.171 Y95.386
G1 F1200 X34.111 Y83.326 E43.88213
G0 F6000 X34.111 Y82.76
G1 F1200 X46.737 Y95.386 E44.71357
G0 F6000 X47.303 Y95.386
G1 F1200 X34.111 Y82.194 E45.58229
G0 F6000 X34.111 Y81.629
G1 F1200 X47.869 Y95.386 E46.48824
G0 F6000 X48.434 Y95.386
G1 F1200 X34.111 Y81.063 E47.43143
G0 F6000 X34.111 Y80.497
G1 F1200 X49 Y95.386 E48.4119
G0 F6000 X49.566 Y95.386
G1 F1200 X34.111 Y79.932 E49.42961
G0 F6000 X34.111 Y79.366
G1 F1200 X50.131 Y95.386 E50.48455
G0 F6000 X50.697 Y95.386
G1 F1200 X34.111 Y78.8 E51.57677
G0 F6000 X34.111 Y78.235
G1 F1200 X51.263 Y95.386 E52.70622
G0 F6000 X51.828 Y95.386
G1 F1200 X34.111 Y77.669 E53.87292
G0 F6000 X34.111 Y77.103
G1 F1200 X52.394 Y95.386 E55.07688
G0 F6000 X52.96 Y95.386
G1 F1200 X34.111 Y76.537 E56.31812
G0 F6000 X34.111 Y75.972
G1 F1200 X53.525 Y95.386 E57.59657
G0 F6000 X54.091 Y95.386
G1 F1200 X34.111 Y75.406 E58.91229
G0 F6000 X34.111 Y74.84
G1 F1200 X54.657 Y95.386 E60.26527
G0 F6000 X55.222 Y95.386
G1 F1200 X34.111 Y74.275 E61.65547
G0 F6000 X34.111 Y73.709
G1 F1200 X55.788 Y95.386 E63.08294
G0 F6000 X56.354 Y95.386
G1 F1200 X34.111 Y73.143 E64.54768
G0 F6000 X34.111 Y72.578
G1 F1200 X56.919 Y95.385 E66.04959
G0 F6000 X57.484 Y95.385
G1 F1200 X34.111 Y72.012 E67.58874
G0 F6000 X34.111 Y71.446
G1 F1200 X58.05 Y95.385 E69.16517
G0 F6000 X58.616 Y95.385
G1 F1200 X34.111 Y70.881 E70.77883
G0 F6000 X34.111 Y70.315
G1 F1200 X59.182 Y95.385 E72.42976
G0 F6000 X59.747 Y95.385
G1 F1200 X34.111 Y69.749 E74.11794
G0 F6000 X34.111 Y69.184
G1 F1200 X60.313 Y95.385 E75.84335
G0 F6000 X60.879 Y95.385
G1 F1200 X34.111 Y68.618 E77.60604
G0 F6000 X34.111 Y68.052
G1 F1200 X61.444 Y95.385 E79.40596
G0 F6000 X62.01 Y95.385
G1 F1200 X34.111 Y67.486 E81.24316
G0 F6000 X34.111 Y66.921
G1 F1200 X62.576 Y95.385 E83.11759
G0 F6000 X63.141 Y95.385
G1 F1200 X34.111 Y66.355 E85.02927
G0 F6000 X34.111 Y65.789
G1 F1200 X63.707 Y95.385 E86.97822
G0 F6000 X64.273 Y95.385
G1 F1200 X34.111 Y65.224 E88.9644
G0 F6000 X34.111 Y64.658
G1 F1200 X64.838 Y95.385 E90.98783
G0 F6000 X65.404 Y95.385
G1 F1200 X34.111 Y64.092 E93.04853
G0 F6000 X34.111 Y63.527
G1 F1200 X65.97 Y95.385 E95.14646
G0 F6000 X66.535 Y95.385
G1 F1200 X34.111 Y62.961 E97.28164
G0 F6000 X34.111 Y62.395
G1 F1200 X67.101 Y95.385 E99.45409
G0 F6000 X67.667 Y95.385
G1 F1200 X34.111 Y61.83 E101.66377
G0 F6000 X34.111 Y61.264
G1 F1200 X68.232 Y95.385 E103.9107
G0 F6000 X68.798 Y95.385
G1 F1200 X34.111 Y60.698 E106.1949
G0 F6000 X34.111 Y60.133
G1 F1200 X69.364 Y95.385 E108.51634
G0 F6000 X69.93 Y95.385
G1 F1200 X34.111 Y59.567 E110.87504
G0 F6000 X34.111 Y59.001
G1 F1200 X70.495 Y95.385 E113.27099
G0 F6000 X71.061 Y95.385
G1 F1200 X34.111 Y58.436 E115.70418
G0 F6000 X34.111 Y57.87
G1 F1200 X71.627 Y95.385 E118.17464
G0 F6000 X72.192 Y95.385
G1 F1200 X34.111 Y57.304 E120.68234
G0 F6000 X34.111 Y56.738
G1 F1200 X72.758 Y95.385 E123.22731
G0 F6000 X73.324 Y95.385
G1 F1200 X34.111 Y56.173 E125.80952
G0 F6000 X34.111 Y55.607
G1 F1200 X73.889 Y95.385 E128.42897
G0 F6000 X74.455 Y95.385
G1 F1200 X34.111 Y55.041 E131.08569
G0 F6000 X34.111 Y54.476
G1 F1200 X75.021 Y95.385 E133.77965
G0 F6000 X75.586 Y95.385
G1 F1200 X34.111 Y53.91 E136.51085
G0 F6000 X34.111 Y53.344
G1 F1200 X76.151 Y95.385 E139.27929
G0 F6000 X76.717 Y95.385
G1 F1200 X34.111 Y52.779 E142.08497
G0 F6000 X34.111 Y52.213
G1 F1200 X77.283 Y95.385 E144.92792
G0 F6000 X77.848 Y95.385
G1 F1200 X34.111 Y51.647 E147.80811
G0 F6000 X34.111 Y51.082
G1 F1200 X78.414 Y95.385 E150.72553
G0 F6000 X78.98 Y95.385
G1 F1200 X34.111 Y50.516 E153.68023
G0 F6000 X34.111 Y49.95
G1 F1200 X79.545 Y95.385 E156.67217
G0 F6000 X80.111 Y95.385
G1 F1200 X34.111 Y49.385 E159.70135
G0 F6000 X34.111 Y48.819
G1 F1200 X80.677 Y95.385 E162.7678
G0 F6000 X81.243 Y95.385
G1 F1200 X34.111 Y48.253 E165.87153
G0 F6000 X34.111 Y47.687
G1 F1200 X81.808 Y95.385 E169.01249
G0 F6000 X82.374 Y95.385
G1 F1200 X34.111 Y47.122 E172.19069
G0 F6000 X34.111 Y46.556
G1 F1200 X82.94 Y95.385 E175.40616
G0 F6000 X83.505 Y95.385
G1 F1200 X34.111 Y45.99 E178.65887
G0 F6000 X34.111 Y45.425
G1 F1200 X84.071 Y95.385 E181.94883
G0 F6000 X84.637 Y95.385
G1 F1200 X34.111 Y44.859 E185.27605
G0 F6000 X34.111 Y44.293
G1 F1200 X85.202 Y95.385 E188.64051
G0 F6000 X85.768 Y95.385
G1 F1200 X34.111 Y43.728 E192.04221
G0 F6000 X34.111 Y43.162
G1 F1200 X86.334 Y95.385 E195.48119
G0 F6000 X86.899 Y95.385
G1 F1200 X34.111 Y42.596 E198.9574
G0 F6000 X34.111 Y42.031
G1 F1200 X87.465 Y95.385 E202.47085
G0 F6000 X88.031 Y95.385
G1 F1200 X34.111 Y41.465 E206.02158
G0 F6000 X34.111 Y40.899
G1 F1200 X88.596 Y95.385 E209.60954
G0 F6000 X89.162 Y95.385
G1 F1200 X34.111 Y40.334 E213.23474
G0 F6000 X34.111 Y39.768
G1 F1200 X89.728 Y95.385 E216.89722
G0 F6000 X90.294 Y95.385
G1 F1200 X34.111 Y39.202 E220.59696
G0 F6000 X34.111 Y38.637
G1 F1200 X90.859 Y95.385 E224.33391
G0 F6000 X91.425 Y95.385
G1 F1200 X34.111 Y38.071 E228.10814
G0 F6000 X34.111 Y37.505
G1 F1200 X91.991 Y95.385 E231.91964
G0 F6000 X92.556 Y95.385
G1 F1200 X34.111 Y36.939 E235.76837
G0 F6000 X34.111 Y36.374
G1 F1200 X93.122 Y95.385 E239.65435
G0 F6000 X93.688 Y95.385
G1 F1200 X34.111 Y35.808 E243.57759
G0 F6000 X34.111 Y35.242
G1 F1200 X94.253 Y95.385 E247.53808
G0 F6000 X94.792 Y95.358
G1 F1200 X34.139 Y34.704 E251.53222
G0 F6000 X34.219 Y34.219
G1 F1200 X95.279 Y95.279 E255.55312
G0 F6000 X95.71 Y95.144
G1 F1200 X34.354 Y33.788 E259.59352
G0 F6000 X34.525 Y33.394
G1 F1200 X96.104 Y94.972 E263.64857
G0 F6000 X96.454 Y94.757
G1 F1200 X34.74 Y33.043 E267.71254
G0 F6000 X34.996 Y32.733
G1 F1200 X96.764 Y94.501 E271.78007
G0 F6000 X97.044 Y94.216
G1 F1200 X35.283 Y32.455 E275.84714
G0 F6000 X35.601 Y32.207
G1 F1200 X97.292 Y93.898 E279.9096
G0 F6000 X97.507 Y93.548
G1 F1200 X35.951 Y31.991 E283.9632
G0 F6000 X36.353 Y31.828
G1 F1200 X97.67 Y93.145 E288.00103
G0 F6000 X97.796 Y92.705
G1 F1200 X36.793 Y31.702 E292.01818
G0 F6000 X37.289 Y31.633
G1 F1200 X97.866 Y92.209 E296.00724
G0 F6000 X97.886 Y91.664
G1 F1200 X37.834 Y31.611 E299.9618
G0 F6000 X38.4 Y31.611
G1 F1200 X97.886 Y91.098 E303.87909
G0 F6000 X97.886 Y90.533
G1 F1200 X38.965 Y31.611 E307.75917
G0 F6000 X39.531 Y31.611
G1 F1200 X97.886 Y89.967 E311.60198
G0 F6000 X97.886 Y89.401
G1 F1200 X40.097 Y31.611 E315.40752
G0 F6000 X40.662 Y31.611
G1 F1200 X97.886 Y88.835 E319.17582
G0 F6000 X97.886 Y88.27
G1 F1200 X41.228 Y31.611 E322.90688
G0 F6000 X41.794 Y31.611
G1 F1200 X97.886 Y87.704 E326.60066
G0 F6000 X97.886 Y87.138
G1 F1200 X42.359 Y31.611 E330.25721
G0 F6000 X42.925 Y31.611
G1 F1200 X97.886 Y86.573 E333.87652
G0 F6000 X97.886 Y86.007
G1 F1200 X43.491 Y31.611 E337.45856
G0 F6000 X44.056 Y31.611
G1 F1200 X97.886 Y85.441 E341.00335
G0 F6000 X97.886 Y84.876
G1 F1200 X44.622 Y31.611 E344.51091
G0 F6000 X45.188 Y31.611
G1 F1200 X97.886 Y84.31 E347.9812
G0 F6000 X97.886 Y83.744
G1 F1200 X45.754 Y31.611 E351.41421
G0 F6000 X46.319 Y31.611
G1 F1200 X97.886 Y83.179 E354.81002
G0 F6000 X97.886 Y82.613
G1 F1200 X46.885 Y31.611 E358.16855
G0 F6000 X47.451 Y31.611
G1 F1200 X97.886 Y82.047 E361.48982
G0 F6000 X97.886 Y81.482
G1 F1200 X48.016 Y31.611 E364.77388
G0 F6000 X48.582 Y31.611
G1 F1200 X97.886 Y80.916 E368.02066
G0 F6000 X97.886 Y80.35
G1 F1200 X49.148 Y31.611 E371.23018
G0 F6000 X49.713 Y31.611
G1 F1200 X97.886 Y79.784 E374.40245
G0 F6000 X97.886 Y79.219
G1 F1200 X50.279 Y31.611 E377.53748
G0 F6000 X50.845 Y31.611
G1 F1200 X97.886 Y78.653 E380.63525
G0 F6000 X97.886 Y78.087
G1 F1200 X51.41 Y31.611 E383.69577
G0 F6000 X51.976 Y31.611
G1 F1200 X97.886 Y77.522 E386.71906
G0 F6000 X97.886 Y76.956
G1 F1200 X52.542 Y31.611 E389.70507
G0 F6000 X53.107 Y31.611
G1 F1200 X97.886 Y76.39 E392.65384
G0 F6000 X97.886 Y75.825
G1 F1200 X53.673 Y31.611 E395.56538
G0 F6000 X54.239 Y31.611
G1 F1200 X97.886 Y75.259 E398.43964
G0 F6000 X97.886 Y74.693
G1 F1200 X54.805 Y31.611 E401.27663
G0 F6000 X55.37 Y31.611
G1 F1200 X97.886 Y74.128 E404.07641
G0 F6000 X97.886 Y73.562
G1 F1200 X55.936 Y31.611 E406.83893
G0 F6000 X56.502 Y31.611
G1 F1200 X97.886 Y72.996 E409.56417
G0 F6000 X97.886 Y72.431
G1 F1200 X57.067 Y31.611 E412.2522
G0 F6000 X57.633 Y31.611
G1 F1200 X97.886 Y71.865 E414.90296
G0 F6000 X97.886 Y71.299
G1 F1200 X58.199 Y31.611 E417.51645
G0 F6000 X58.764 Y31.611
G1 F1200 X97.886 Y70.734 E420.09274
G0 F6000 X97.886 Y70.168
G1 F1200 X59.33 Y31.611 E422.63175
G0 F6000 X59.896 Y31.611
G1 F1200 X97.886 Y69.602 E425.13349
G0 F6000 X97.886 Y69.036
G1 F1200 X60.461 Y31.611 E427.59799
G0 F6000 X61.027 Y31.611
G1 F1200 X97.886 Y68.471 E430.02525
G0 F6000 X97.886 Y67.905
G1 F1200 X61.593 Y31.611 E432.41524
G0 F6000 X62.158 Y31.611
G1 F1200 X97.886 Y67.339 E434.76799
G0 F6000 X97.886 Y66.774
G1 F1200 X62.724 Y31.611 E437.0835
G0 F6000 X63.29 Y31.611
G1 F1200 X97.886 Y66.208 E439.36174
G0 F6000 X97.886 Y65.642
G1 F1200 X63.855 Y31.611 E441.60273
G0 F6000 X64.421 Y31.611
G1 F1200 X97.886 Y65.077 E443.80649
G0 F6000 X97.886 Y64.511
G1 F1200 X64.987 Y31.611 E445.97298
G0 F6000 X65.553 Y31.611
G1 F1200 X97.886 Y63.945 E448.1022
G0 F6000 X97.886 Y63.38
G1 F1200 X66.118 Y31.611 E450.19421
G0 F6000 X66.684 Y31.611
G1 F1200 X97.886 Y62.814 E452.24895
G0 F6000 X97.886 Y62.248
G1 F1200 X67.25 Y31.611 E454.26641
G0 F6000 X67.815 Y31.611
G1 F1200 X97.886 Y61.683 E456.24667
G0 F6000 X97.886 Y61.117
G1 F1200 X68.381 Y31.611 E458.18966
G0 F6000 X68.947 Y31.611
G1 F1200 X97.886 Y60.551 E460.09538
G0 F6000 X97.886 Y59.985
G1 F1200 X69.512 Y31.611 E461.96385
G0 F6000 X70.078 Y31.611
G1 F1200 X97.886 Y59.42 E463.79509
G0 F6000 X97.886 Y58.854
G1 F1200 X70.644 Y31.611 E465.58905
G0 F6000 X71.209 Y31.611
G1 F1200 X97.886 Y58.288 E467.34578
G0 F6000 X97.886 Y57.723
G1 F1200 X71.775 Y31.611 E469.06527
G0 F6000 X72.341 Y31.611
G1 F1200 X97.886 Y57.157 E470.74748
G0 F6000 X97.886 Y56.591
G1 F1200 X72.906 Y31.611 E472.39246
G0 F6000 X73.472 Y31.611
G1 F1200 X97.886 Y56.026 E474.00019
G0 F6000 X97.886 Y55.46
G1 F1200 X74.038 Y31.611 E475.57066
G0 F6000 X74.604 Y31.611
G1 F1200 X97.886 Y54.894 E477.10385
G0 F6000 X97.886 Y54.329
