;FLAVOR:Marlin
;TIME:11619
;Filament used: 5.86736m
;Layer height: 0.12
;MINX:64.2
;MINY:57.869
;MINZ:0.12
;MAXX:155.8
;MAXY:162.131
;MAXZ:8.4
;Generated with Cura_SteamEngine 5.2.2
M82 ;absolute extrusion mode
; Ender 3 Custom Start G-code
G92 E0 ; Reset Extruder
G28 ; Home all axes
M104 S175 ; Start heating up the nozzle most of the way
M190 S60 ; Start heating the bed, wait until target temperature reached
M109 S215 ; Finish heating the nozzle
G1 Z2.0 F3000 ; Move Z Axis up little to prevent scratching of Heat Bed
G1 X0.1 Y20 Z0.3 F5000.0 ; Move to start position
G1 X0.1 Y200.0 Z0.3 F1500.0 E15 ; Draw the first line
G1 X0.4 Y200.0 Z0.3 F5000.0 ; Move to side a little
G1 X0.4 Y20 Z0.3 F1500.0 E30 ; Draw the second line
G92 E0 ; Reset Extruder
G1 Z2.0 F3000 ; Move Z Axis up little to prevent scratching of Heat Bed
G1 X5 Y20 Z0.3 F5000.0 ; Move over to prevent blob squish
G92 E0
G92 E0
G1 F1500 E-6.5
;LAYER_COUNT:70
;LAYER:0
M107
G0 F6000 X67.222 Y81.667 Z0.12
;TYPE:SKIRT
G1 F1500 E0
G1 F1200 X68.07 Y81.095 E0.02041
G1 X106.07 Y58.929 E0.89833
G1 X106.771 Y58.567 E0.91407
G1 X107.506 Y58.277 E0.92984
G1 X108.266 Y58.062 E0.9456
G1 X109.044 Y57.926 E0.96136
G1 X109.831 Y57.869 E0.97711
G1 X110.621 Y57.892 E0.99288
G1 X111.404 Y57.994 E1.00864
G1 X112.172 Y58.176 E1.02439
G1 X112.919 Y58.434 E1.04016
G1 X113.93 Y58.929 E1.06263
G1 X151.93 Y81.095 E1.94054
G1 X152.591 Y81.527 E1.9563
G1 X153.205 Y82.024 E1.97206
G1 X153.766 Y82.58 E1.98783
G1 X154.268 Y83.19 E2.00359
G1 X154.705 Y83.847 E2.01934
G1 X155.073 Y84.546 E2.0351
G1 X155.37 Y85.278 E2.05087
G1 X155.59 Y86.036 E2.06662
G1 X155.733 Y86.813 E2.08239
G1 X155.8 Y87.833 E2.10278
G1 X155.8 Y132.167 E2.98752
G1 X155.76 Y132.956 E3.00328
G1 X155.641 Y133.736 E3.01903
G1 X155.443 Y134.501 E3.0348
G1 X155.169 Y135.241 E3.05055
G1 X154.821 Y135.95 E3.06631
G1 X154.403 Y136.621 E3.08208
G1 X153.92 Y137.245 E3.09783
G1 X153.377 Y137.818 E3.11358
G1 X152.778 Y138.333 E3.12935
G1 X151.93 Y138.905 E3.14976
G1 X113.93 Y161.071 E4.02768
G1 X113.229 Y161.433 E4.04342
G1 X112.494 Y161.723 E4.05919
G1 X111.734 Y161.938 E4.07495
G1 X110.956 Y162.074 E4.09071
G1 X110.169 Y162.131 E4.10646
G1 X109.379 Y162.108 E4.12223
G1 X108.596 Y162.006 E4.13799
G1 X107.828 Y161.824 E4.15374
G1 X107.081 Y161.566 E4.16951
G1 X106.07 Y161.071 E4.19197
G1 X68.07 Y138.905 E5.06989
G1 X67.409 Y138.473 E5.08565
G1 X66.795 Y137.976 E5.10141
G1 X66.234 Y137.42 E5.11718
G1 X65.732 Y136.81 E5.13294
G1 X65.295 Y136.153 E5.14869
G1 X64.927 Y135.454 E5.16445
G1 X64.63 Y134.722 E5.18022
G1 X64.41 Y133.964 E5.19597
G1 X64.267 Y133.187 E5.21173
G1 X64.2 Y132.167 E5.23213
G1 X64.2 Y87.833 E6.11687
G1 X64.24 Y87.044 E6.13263
G1 X64.359 Y86.264 E6.14838
G1 X64.557 Y85.499 E6.16415
G1 X64.831 Y84.759 E6.17989
G1 X65.179 Y84.05 E6.19565
G1 X65.597 Y83.379 E6.21143
G1 X66.08 Y82.755 E6.22718
G1 X66.623 Y82.182 E6.24293
G1 X67.222 Y81.667 E6.2587
G0 F6000 X67.611 Y81.875
G1 F1200 X68.271 Y81.441 E6.27446
G1 X106.271 Y59.275 E7.15238
G1 X106.955 Y58.922 E7.16774
G1 X107.672 Y58.643 E7.18309
G1 X108.413 Y58.439 E7.19843
G1 X109.172 Y58.313 E7.21378
G1 X109.94 Y58.267 E7.22914
G1 X110.708 Y58.301 E7.24448
G1 X111.469 Y58.414 E7.25983
G1 X112.214 Y58.606 E7.27518
G1 X112.935 Y58.874 E7.29053
G1 X113.729 Y59.275 E7.30828
G1 X151.729 Y81.441 E8.1862
G1 X152.372 Y81.863 E8.20155
G1 X152.968 Y82.349 E8.2169
G1 X153.51 Y82.894 E8.23223
G1 X153.993 Y83.493 E8.24759
G1 X154.412 Y84.138 E8.26294
G1 X154.76 Y84.824 E8.27829
G1 X155.036 Y85.542 E8.29364
G1 X155.236 Y86.284 E8.30898
G1 X155.358 Y87.044 E8.32434
G1 X155.4 Y87.833 E8.3401
G1 X155.4 Y132.167 E9.22484
G1 X155.36 Y132.935 E9.24018
G1 X155.241 Y133.695 E9.25554
G1 X155.043 Y134.438 E9.27088
G1 X154.769 Y135.157 E9.28624
G1 X154.422 Y135.843 E9.30158
G1 X154.006 Y136.49 E9.31693
G1 X153.525 Y137.09 E9.33227
G1 X152.984 Y137.637 E9.34763
G1 X152.389 Y138.125 E9.36298
G1 X151.729 Y138.559 E9.37875
G1 X113.729 Y160.725 E10.25666
G1 X113.045 Y161.078 E10.27202
G1 X112.328 Y161.357 E10.28738
G1 X111.587 Y161.561 E10.30271
G1 X110.828 Y161.687 E10.31807
G1 X110.06 Y161.733 E10.33342
G1 X109.292 Y161.699 E10.34876
G1 X108.531 Y161.586 E10.36412
G1 X107.786 Y161.394 E10.37947
G1 X107.065 Y161.126 E10.39482
G1 X106.271 Y160.725 E10.41257
G1 X68.271 Y138.559 E11.29049
G1 X67.628 Y138.137 E11.30584
G1 X67.032 Y137.651 E11.32118
G1 X66.49 Y137.106 E11.33652
G1 X66.007 Y136.507 E11.35188
G1 X65.588 Y135.862 E11.36723
G1 X65.24 Y135.176 E11.38258
G1 X64.964 Y134.458 E11.39793
G1 X64.764 Y133.716 E11.41326
G1 X64.642 Y132.956 E11.42862
G1 X64.6 Y132.167 E11.44439
G1 X64.6 Y87.833 E12.32912
G1 X64.64 Y87.065 E12.34447
G1 X64.759 Y86.305 E12.35982
G1 X64.957 Y85.562 E12.37517
G1 X65.231 Y84.843 E12.39052
G1 X65.578 Y84.157 E12.40586
G1 X65.994 Y83.51 E12.42121
G1 X66.475 Y82.91 E12.43656
G1 X67.016 Y82.363 E12.45191
G1 X67.611 Y81.875 E12.46727
G0 F6000 X67.998 Y82.09
G1 F1200 X68.473 Y81.787 E12.47851
G1 X106.473 Y59.621 E13.35643
G1 X107.138 Y59.279 E13.37135
G1 X107.836 Y59.01 E13.38628
G1 X108.559 Y58.817 E13.40121
G1 X109.298 Y58.702 E13.41614
G1 X110.046 Y58.667 E13.43108
G1 X110.792 Y58.712 E13.446
G1 X111.53 Y58.836 E13.46093
G1 X112.25 Y59.039 E13.47586
G1 X112.945 Y59.317 E13.4908
G1 X113.527 Y59.621 E13.5039
G1 X151.527 Y81.787 E14.38182
G1 X152.152 Y82.197 E14.39673
G1 X152.73 Y82.673 E14.41168
G1 X153.253 Y83.207 E14.42659
G1 X153.717 Y83.794 E14.44152
G1 X154.116 Y84.427 E14.45646
G1 X154.444 Y85.099 E14.47138
G1 X154.699 Y85.802 E14.4863
G1 X154.877 Y86.529 E14.50124
G1 X154.977 Y87.27 E14.51616
G1 X155 Y87.833 E14.52741
G1 X155 Y132.167 E15.41214
G1 X154.96 Y132.914 E15.42707
G1 X154.841 Y133.652 E15.44199
G1 X154.643 Y134.374 E15.45693
G1 X154.37 Y135.07 E15.47185
G1 X154.023 Y135.733 E15.48678
G1 X153.608 Y136.356 E15.50172
G1 X153.129 Y136.93 E15.51664
G1 X152.592 Y137.451 E15.53157
G1 X152.002 Y137.91 E15.54649
G1 X151.527 Y138.213 E15.55773
G1 X113.527 Y160.379 E16.43564
G1 X112.862 Y160.721 E16.45057
G1 X112.164 Y160.99 E16.4655
G1 X111.441 Y161.183 E16.48043
G1 X110.702 Y161.298 E16.49535
G1 X109.954 Y161.333 E16.5103
G1 X109.208 Y161.288 E16.52521
G1 X108.47 Y161.164 E16.54015
G1 X107.75 Y160.961 E16.55507
G1 X107.055 Y160.683 E16.57001
G1 X106.473 Y160.379 E16.58312
G1 X68.473 Y138.213 E17.46103
G1 X67.848 Y137.803 E17.47595
G1 X67.27 Y137.327 E17.49089
G1 X66.747 Y136.793 E17.50581
G1 X66.283 Y136.206 E17.52074
G1 X65.884 Y135.573 E17.53567
G1 X65.556 Y134.901 E17.55059
G1 X65.301 Y134.198 E17.56552
G1 X65.123 Y133.471 E17.58045
G1 X65.023 Y132.73 E17.59538
G1 X65 Y132.167 E17.60662
G1 X65 Y87.833 E18.49135
G1 X65.04 Y87.086 E18.50628
G1 X65.159 Y86.348 E18.5212
G1 X65.357 Y85.626 E18.53614
G1 X65.63 Y84.93 E18.55106
G1 X65.977 Y84.267 E18.56599
G1 X66.392 Y83.644 E18.58093
G1 X66.871 Y83.07 E18.59585
G1 X67.408 Y82.549 E18.61078
G1 X67.998 Y82.09 E18.6257
G0 F6000 X68.675 Y82.132
G1 F1200 X106.675 Y59.966 E19.50362
G1 X107.321 Y59.635 E19.5181
G1 X108 Y59.377 E19.5326
G1 X108.703 Y59.196 E19.54708
G1 X109.422 Y59.092 E19.56158
G1 X110.148 Y59.069 E19.57608
G1 X110.873 Y59.125 E19.59059
G1 X111.586 Y59.26 E19.60507
G1 X112.281 Y59.474 E19.61958
G1 X112.947 Y59.762 E19.63406
G1 X113.325 Y59.966 E19.64263
G1 X151.325 Y82.132 E20.52055
G1 X151.932 Y82.532 E20.53506
G1 X152.491 Y82.996 E20.54955
G1 X152.995 Y83.519 E20.56405
G1 X153.439 Y84.094 E20.57855
G1 X153.817 Y84.714 E20.59304
G1 X154.124 Y85.372 E20.60753
G1 X154.357 Y86.06 E20.62202
G1 X154.514 Y86.769 E20.63651
G1 X154.6 Y87.833 E20.65782
G1 X154.6 Y132.167 E21.54255
G1 X154.56 Y132.892 E21.55704
G1 X154.441 Y133.609 E21.57154
G1 X154.243 Y134.308 E21.58604
G1 X153.97 Y134.981 E21.60054
G1 X153.625 Y135.62 E21.61503
G1 X153.211 Y136.217 E21.62953
G1 X152.735 Y136.765 E21.64401
G1 X152.201 Y137.258 E21.65851
G1 X151.325 Y137.868 E21.67982
G1 X113.325 Y160.034 E22.55773
G1 X112.679 Y160.365 E22.57222
G1 X112 Y160.623 E22.58671
G1 X111.297 Y160.804 E22.6012
G1 X110.578 Y160.908 E22.6157
G1 X109.852 Y160.931 E22.63019
G1 X109.127 Y160.875 E22.6447
G1 X108.414 Y160.74 E22.65919
G1 X107.719 Y160.526 E22.6737
G1 X107.053 Y160.238 E22.68818
G1 X106.675 Y160.034 E22.69675
G1 X68.675 Y137.868 E23.57467
G1 X68.068 Y137.468 E23.58917
G1 X67.509 Y137.004 E23.60367
G1 X67.005 Y136.481 E23.61817
G1 X66.561 Y135.906 E23.63266
G1 X66.183 Y135.286 E23.64715
G1 X65.876 Y134.628 E23.66164
G1 X65.643 Y133.94 E23.67614
G1 X65.486 Y133.231 E23.69063
G1 X65.4 Y132.167 E23.71193
G1 X65.4 Y87.833 E24.59667
G1 X65.44 Y87.108 E24.61116
G1 X65.559 Y86.391 E24.62566
G1 X65.757 Y85.692 E24.64016
G1 X66.03 Y85.019 E24.65465
G1 X66.375 Y84.38 E24.66914
G1 X66.789 Y83.783 E24.68364
G1 X67.265 Y83.235 E24.69813
G1 X67.799 Y82.742 E24.71263
G1 X68.675 Y82.132 E24.73393
G0 F6000 X68.876 Y82.478
G1 F1200 X106.876 Y60.312 E25.61185
G1 X107.503 Y59.992 E25.6259
G1 X108.163 Y59.745 E25.63996
G1 X108.846 Y59.575 E25.65401
G1 X109.544 Y59.484 E25.66805
G1 X110.248 Y59.472 E25.68211
G1 X110.948 Y59.54 E25.69614
G1 X111.637 Y59.687 E25.7102
G1 X112.304 Y59.911 E25.72424
G1 X113.124 Y60.312 E25.74246
G1 X151.124 Y82.478 E26.62037
G1 X151.711 Y82.866 E26.63441
G1 X152.25 Y83.319 E26.64847
G1 X152.734 Y83.83 E26.66251
G1 X153.158 Y84.392 E26.67656
G1 X153.514 Y84.999 E26.6906
G1 X153.8 Y85.643 E26.70466
G1 X154.011 Y86.314 E26.7187
G1 X154.145 Y87.005 E26.73275
G1 X154.2 Y87.833 E26.74931
G1 X154.2 Y132.167 E27.63404
G1 X154.16 Y132.87 E27.64809
G1 X154.041 Y133.564 E27.66214
G1 X153.843 Y134.239 E27.67618
G1 X153.571 Y134.888 E27.69023
G1 X153.226 Y135.502 E27.70428
G1 X152.815 Y136.073 E27.71832
G1 X152.341 Y136.594 E27.73238
G1 X151.811 Y137.058 E27.74643
G1 X151.124 Y137.522 E27.76298
G1 X113.124 Y159.688 E28.64089
G1 X112.497 Y160.008 E28.65494
G1 X111.837 Y160.255 E28.669
G1 X111.154 Y160.425 E28.68305
G1 X110.456 Y160.516 E28.6971
G1 X109.752 Y160.528 E28.71115
G1 X109.052 Y160.46 E28.72518
G1 X108.363 Y160.313 E28.73924
G1 X107.696 Y160.089 E28.75328
G1 X106.876 Y159.688 E28.7715
G1 X68.876 Y137.522 E29.64942
G1 X68.289 Y137.134 E29.66346
G1 X67.75 Y136.681 E29.67751
G1 X67.266 Y136.17 E29.69155
G1 X66.842 Y135.608 E29.7056
G1 X66.486 Y135.001 E29.71965
G1 X66.2 Y134.357 E29.73371
G1 X65.989 Y133.686 E29.74775
G1 X65.855 Y132.995 E29.76179
G1 X65.8 Y132.167 E29.77835
G1 X65.8 Y87.833 E30.66309
G1 X65.84 Y87.13 E30.67714
G1 X65.959 Y86.436 E30.69119
G1 X66.157 Y85.761 E30.70523
G1 X66.429 Y85.112 E30.71927
G1 X66.774 Y84.498 E30.73332
G1 X67.185 Y83.927 E30.74736
G1 X67.659 Y83.406 E30.76142
G1 X68.189 Y82.942 E30.77548
G1 X68.876 Y82.478 E30.79202
G0 F6000 X69.078 Y82.823
G1 F1200 X107.078 Y60.657 E31.66994
G1 X107.685 Y60.349 E31.68352
G1 X108.324 Y60.114 E31.69711
G1 X108.986 Y59.956 E31.71069
G1 X109.663 Y59.877 E31.72429
G1 X110.343 Y59.877 E31.73786
G1 X111.02 Y59.957 E31.75147
G1 X111.682 Y60.116 E31.76505
G1 X112.321 Y60.351 E31.77864
G1 X112.922 Y60.657 E31.7921
G1 X150.922 Y82.823 E32.67001
G1 X151.489 Y83.2 E32.6836
G1 X152.008 Y83.641 E32.69719
G1 X152.472 Y84.14 E32.71079
G1 X152.874 Y84.689 E32.72437
G1 X153.209 Y85.282 E32.73796
G1 X153.472 Y85.91 E32.75155
G1 X153.66 Y86.564 E32.76513
G1 X153.769 Y87.236 E32.77872
G1 X153.8 Y87.833 E32.79064
G1 X153.8 Y132.167 E33.67538
G1 X153.76 Y132.847 E33.68897
G1 X153.641 Y133.517 E33.70255
G1 X153.444 Y134.169 E33.71614
G1 X153.172 Y134.793 E33.72973
G1 X152.828 Y135.381 E33.74332
G1 X152.418 Y135.925 E33.75692
G1 X151.947 Y136.416 E33.77049
G1 X151.422 Y136.85 E33.78409
G1 X150.922 Y137.177 E33.79601
G1 X112.922 Y159.343 E34.67393
G1 X112.315 Y159.651 E34.68751
G1 X111.676 Y159.886 E34.7011
G1 X111.014 Y160.044 E34.71468
G1 X110.337 Y160.123 E34.72828
G1 X109.657 Y160.123 E34.74185
G1 X108.98 Y160.043 E34.75546
G1 X108.318 Y159.884 E34.76904
G1 X107.679 Y159.649 E34.78263
G1 X107.078 Y159.343 E34.79609
G1 X69.078 Y137.177 E35.674
G1 X68.511 Y136.8 E35.68759
G1 X67.992 Y136.359 E35.70118
G1 X67.528 Y135.86 E35.71478
G1 X67.126 Y135.311 E35.72836
G1 X66.791 Y134.718 E35.74195
G1 X66.528 Y134.09 E35.75554
G1 X66.34 Y133.436 E35.76912
G1 X66.231 Y132.764 E35.7827
G1 X66.2 Y132.167 E35.79463
G1 X66.2 Y87.833 E36.67937
G1 X66.24 Y87.153 E36.69296
G1 X66.359 Y86.483 E36.70654
G1 X66.556 Y85.831 E36.72013
G1 X66.828 Y85.207 E36.73372
G1 X67.172 Y84.619 E36.74731
G1 X67.582 Y84.075 E36.76091
G1 X68.053 Y83.584 E36.77448
G1 X68.578 Y83.15 E36.78808
G1 X69.078 Y82.823 E36.8
G0 F6000 X69.279 Y83.169
G1 F1200 X107.279 Y61.003 E37.67792
G1 X107.866 Y60.707 E37.69103
G1 X108.484 Y60.484 E37.70415
G1 X109.124 Y60.338 E37.71725
G1 X109.778 Y60.272 E37.73036
G1 X110.435 Y60.285 E37.74348
G1 X111.085 Y60.377 E37.75658
G1 X111.72 Y60.548 E37.7697
G1 X112.328 Y60.795 E37.7828
G1 X112.721 Y61.003 E37.79167
G1 X150.721 Y83.169 E38.66959
G1 X151.267 Y83.533 E38.68268
G1 X151.765 Y83.962 E38.6958
G1 X152.207 Y84.448 E38.70891
G1 X152.587 Y84.984 E38.72202
G1 X152.899 Y85.562 E38.73513
G1 X153.139 Y86.174 E38.74825
G1 X153.302 Y86.81 E38.76135
G1 X153.387 Y87.461 E38.77445
G1 X153.4 Y87.833 E38.78188
G1 X153.4 Y132.167 E39.66661
G1 X153.36 Y132.823 E39.67973
G1 X153.241 Y133.469 E39.69284
G1 X153.044 Y134.096 E39.70595
G1 X152.772 Y134.694 E39.71906
G1 X152.43 Y135.255 E39.73217
G1 X152.022 Y135.77 E39.74529
G1 X151.555 Y136.232 E39.7584
G1 X151.035 Y136.633 E39.7715
G1 X150.721 Y136.831 E39.77891
G1 X112.721 Y158.997 E40.65682
G1 X112.134 Y159.293 E40.66994
G1 X111.516 Y159.516 E40.68305
G1 X110.876 Y159.662 E40.69615
G1 X110.222 Y159.728 E40.70927
G1 X109.565 Y159.715 E40.72239
G1 X108.915 Y159.623 E40.73549
G1 X108.28 Y159.452 E40.74861
G1 X107.672 Y159.205 E40.76171
G1 X107.279 Y158.997 E40.77058
G1 X69.279 Y136.831 E41.6485
G1 X68.733 Y136.467 E41.66159
G1 X68.235 Y136.038 E41.67471
G1 X67.793 Y135.552 E41.68782
G1 X67.413 Y135.016 E41.70093
G1 X67.101 Y134.438 E41.71404
G1 X66.861 Y133.826 E41.72716
G1 X66.698 Y133.19 E41.74026
G1 X66.613 Y132.539 E41.75336
G1 X66.6 Y132.167 E41.76079
G1 X66.6 Y87.833 E42.64552
G1 X66.64 Y87.177 E42.65864
G1 X66.759 Y86.531 E42.67174
G1 X66.956 Y85.904 E42.68486
G1 X67.228 Y85.306 E42.69797
G1 X67.57 Y84.745 E42.71108
G1 X67.978 Y84.23 E42.72419
G1 X68.445 Y83.768 E42.7373
G1 X68.965 Y83.367 E42.75041
G1 X69.279 Y83.169 E42.75782
G0 F6000 X69.481 Y83.514
G1 F1200 X107.481 Y61.348 E43.63573
G1 X108.046 Y61.065 E43.64834
G1 X108.642 Y60.855 E43.66095
G1 X109.26 Y60.722 E43.67357
G1 X109.89 Y60.668 E43.68619
G1 X110.522 Y60.694 E43.69881
G1 X111.145 Y60.8 E43.71142
G1 X111.75 Y60.983 E43.72403
G1 X112.519 Y61.348 E43.74102
G1 X150.519 Y83.514 E44.61894
G1 X151.044 Y83.866 E44.63155
G1 X151.52 Y84.282 E44.64417
G1 X151.94 Y84.755 E44.65679
G1 X152.297 Y85.277 E44.66941
G1 X152.585 Y85.839 E44.68201
G1 X152.8 Y86.434 E44.69464
G1 X152.938 Y87.05 E44.70724
G1 X153 Y87.833 E44.72291
G1 X153 Y132.167 E45.60764
G1 X152.96 Y132.798 E45.62026
G1 X152.841 Y133.419 E45.63288
G1 X152.644 Y134.019 E45.64548
G1 X152.373 Y134.591 E45.65811
G1 X152.033 Y135.123 E45.67071
G1 X151.627 Y135.608 E45.68333
G1 X151.164 Y136.038 E45.69594
G1 X150.519 Y136.486 E45.71162
G1 X112.519 Y158.652 E46.58953
G1 X111.954 Y158.935 E46.60214
G1 X111.358 Y159.145 E46.61475
G1 X110.74 Y159.278 E46.62737
G1 X110.11 Y159.332 E46.63999
G1 X109.478 Y159.306 E46.65261
G1 X108.855 Y159.2 E46.66522
G1 X108.25 Y159.017 E46.67783
G1 X107.481 Y158.652 E46.69482
G1 X69.481 Y136.486 E47.57274
G1 X68.956 Y136.134 E47.58535
G1 X68.48 Y135.718 E47.59797
G1 X68.06 Y135.245 E47.61059
G1 X67.703 Y134.723 E47.62321
G1 X67.415 Y134.161 E47.63581
G1 X67.2 Y133.566 E47.64844
G1 X67.062 Y132.95 E47.66104
G1 X67 Y132.167 E47.67671
G1 X67 Y87.833 E48.56144
G1 X67.04 Y87.202 E48.57406
G1 X67.159 Y86.581 E48.58668
G1 X67.356 Y85.981 E48.59928
G1 X67.627 Y85.409 E48.61191
G1 X67.967 Y84.877 E48.62451
G1 X68.373 Y84.392 E48.63713
G1 X68.836 Y83.962 E48.64974
G1 X69.481 Y83.514 E48.66542
G0 F6000 X69.682 Y83.86
G1 F1200 X107.682 Y61.694 E49.54333
G1 X108.225 Y61.423 E49.55544
G1 X108.798 Y61.227 E49.56753
G1 X109.393 Y61.107 E49.57964
G1 X109.998 Y61.067 E49.59174
G1 X110.603 Y61.107 E49.60384
