;FLAVOR:Marlin
;TIME:11745
;Filament used: 9.99054m
;Layer height: 0.2
;MINX:23
;MINY:10.349
;MINZ:0.2
;MAXX:197
;MAXY:209.651
;MAXZ:4
;Generated with Cura_SteamEngine 5.2.2
M82 ;absolute extrusion mode
; Ender 3 Custom Start G-code
G92 E0 ; Reset Extruder
G28 ; Home all axes
M104 S175 ; Start heating up the nozzle most of the way
M190 S60 ; Start heating the bed, wait until target temperature reached
M109 S200 ; Finish heating the nozzle
G1 Z2.0 F3000 ; Move Z Axis up little to prevent scratching of Heat Bed
G1 X0.1 Y20 Z0.3 F5000.0 ; Move to start position
G1 X0.1 Y200.0 Z0.3 F1500.0 E15 ; Draw the first line
G1 X0.4 Y200.0 Z0.3 F5000.0 ; Move to side a little
G1 X0.4 Y20 Z0.3 F1500.0 E30 ; Draw the second line
G92 E0 ; Reset Extruder
G1 Z2.0 F3000 ; Move Z Axis up little to prevent scratching of Heat Bed
G1 X5 Y20 Z0.3 F5000.0 ; Move over to prevent blob squish
G92 E0
G92 E0
G1 F1500 E-6.5
;LAYER_COUNT:20
;LAYER:0
M107
G0 F6000 X28.988 Y55.855 Z0.2
;TYPE:SKIRT
G1 F1500 E0
G1 F1200 X103.967 Y12.119 E2.88707
G1 X104.573 Y11.776 E2.91023
G1 X105.408 Y11.349 E2.94142
G1 X106.276 Y10.995 E2.9726
G1 X107.172 Y10.716 E3.00381
G1 X108.088 Y10.515 E3.035
G1 X109.018 Y10.392 E3.0662
G1 X109.954 Y10.349 E3.09737
G1 X110.892 Y10.386 E3.12859
G1 X111.822 Y10.502 E3.15976
G1 X112.739 Y10.698 E3.19095
G1 X113.637 Y10.971 E3.22217
G1 X114.508 Y11.319 E3.25336
G1 X115.349 Y11.742 E3.28467
G1 X116.357 Y12.306 E3.32309
G1 X191.1 Y55.908 E6.20113
G1 X191.669 Y56.251 E6.22323
G1 X192.451 Y56.769 E6.25443
G1 X193.186 Y57.352 E6.28563
G1 X193.868 Y57.995 E6.3168
G1 X194.494 Y58.694 E6.34801
G1 X195.057 Y59.444 E6.3792
G1 X195.555 Y60.239 E6.41041
G1 X195.983 Y61.073 E6.44158
G1 X196.338 Y61.941 E6.47278
G1 X196.618 Y62.836 E6.50397
G1 X196.821 Y63.752 E6.53517
G1 X196.945 Y64.682 E6.56638
G1 X196.988 Y65.478 E6.59289
G1 X197 Y66.24 E6.61824
G1 X196.999 Y153.76 E9.52917
G1 X196.989 Y154.481 E9.55315
G1 X196.936 Y155.417 E9.58433
G1 X196.803 Y156.345 E9.61551
G1 X196.592 Y157.259 E9.64671
G1 X196.304 Y158.152 E9.67792
G1 X195.941 Y159.016 E9.70909
G1 X195.505 Y159.847 E9.7403
G1 X195.001 Y160.637 E9.77147
G1 X194.43 Y161.382 E9.80269
G1 X193.799 Y162.075 E9.83386
G1 X193.11 Y162.712 E9.86507
G1 X192.37 Y163.288 E9.89626
G1 X191.681 Y163.741 E9.92368
G1 X191.012 Y164.145 E9.94968
G1 X116.028 Y207.885 E12.83695
G1 X115.417 Y208.23 E12.86029
G1 X114.582 Y208.655 E12.89145
G1 X113.713 Y209.009 E12.92266
G1 X112.817 Y209.286 E12.95386
G1 X111.901 Y209.487 E12.98505
G1 X110.971 Y209.609 E13.01624
G1 X110.034 Y209.651 E13.04744
G1 X109.097 Y209.613 E13.07863
G1 X108.167 Y209.496 E13.10981
G1 X107.25 Y209.299 E13.141
G1 X106.353 Y209.026 E13.17219
G1 X105.482 Y208.676 E13.20341
G1 X104.651 Y208.258 E13.23435
G1 X103.643 Y207.694 E13.27276
G1 X28.912 Y164.099 E16.15034
G1 X28.343 Y163.757 E16.17242
G1 X27.561 Y163.24 E16.2036
G1 X26.825 Y162.658 E16.23481
G1 X26.142 Y162.016 E16.26599
G1 X25.515 Y161.318 E16.29719
G1 X24.951 Y160.569 E16.32838
G1 X24.452 Y159.774 E16.3596
G1 X24.023 Y158.941 E16.39076
G1 X23.667 Y158.073 E16.42197
G1 X23.385 Y157.178 E16.45318
G1 X23.181 Y156.263 E16.48436
G1 X23.056 Y155.334 E16.51553
G1 X23.012 Y154.522 E16.54258
G1 X23 Y153.76 E16.56793
G1 X23.001 Y66.217 E19.47962
G1 X23.011 Y65.515 E19.50297
G1 X23.064 Y64.579 E19.53415
G1 X23.197 Y63.651 E19.56533
G1 X23.409 Y62.737 E19.59654
G1 X23.697 Y61.844 E19.62775
G1 X24.061 Y60.98 E19.65893
G1 X24.497 Y60.149 E19.69014
G1 X25.002 Y59.359 E19.72133
G1 X25.572 Y58.615 E19.7525
G1 X26.204 Y57.922 E19.7837
G1 X26.893 Y57.285 E19.81491
G1 X27.633 Y56.709 E19.84609
G1 X28.319 Y56.259 E19.87338
G1 X28.988 Y55.855 E19.89938
G0 F6000 X29.19 Y56.201
G1 F1200 X104.164 Y12.467 E22.78626
G1 X104.77 Y12.124 E22.80942
G1 X105.59 Y11.706 E22.84004
G1 X106.443 Y11.36 E22.87065
G1 X107.323 Y11.09 E22.90127
G1 X108.224 Y10.897 E22.93192
G1 X109.137 Y10.783 E22.96252
G1 X110.057 Y10.749 E22.99314
G1 X110.977 Y10.795 E23.02378
G1 X111.889 Y10.92 E23.05439
G1 X112.786 Y11.124 E23.08499
G1 X113.663 Y11.405 E23.11562
G1 X114.512 Y11.762 E23.14625
G1 X115.154 Y12.091 E23.17024
G1 X115.977 Y12.55 E23.20159
G1 X190.893 Y56.251 E26.08626
G1 X191.462 Y56.594 E26.10835
G1 X192.23 Y57.103 E26.139
G1 X192.95 Y57.677 E26.16962
G1 X193.617 Y58.311 E26.20023
G1 X194.227 Y59 E26.23084
G1 X194.775 Y59.74 E26.26147
G1 X195.256 Y60.525 E26.29209
G1 X195.668 Y61.348 E26.3227
G1 X196.007 Y62.204 E26.35332
G1 X196.27 Y63.087 E26.38396
G1 X196.455 Y63.988 E26.41456
G1 X196.562 Y64.903 E26.4452
G1 X196.588 Y65.485 E26.46457
G1 X196.6 Y66.24 E26.48969
G1 X196.599 Y153.754 E29.40042
G1 X196.589 Y154.475 E29.4244
G1 X196.536 Y155.394 E29.45501
G1 X196.404 Y156.305 E29.48563
G1 X196.193 Y157.201 E29.51625
G1 X195.905 Y158.076 E29.54689
G1 X195.543 Y158.922 E29.57749
G1 X195.108 Y159.734 E29.60813
G1 X194.605 Y160.505 E29.63875
G1 X194.036 Y161.229 E29.66938
G1 X193.407 Y161.901 E29.69999
G1 X192.722 Y162.516 E29.73061
G1 X191.986 Y163.069 E29.76123
G1 X191.474 Y163.399 E29.78149
G1 X190.81 Y163.799 E29.80727
G1 X115.832 Y207.536 E32.69432
G1 X115.221 Y207.881 E32.71766
G1 X114.4 Y208.299 E32.7483
G1 X113.547 Y208.643 E32.77889
G1 X112.666 Y208.913 E32.80954
G1 X111.766 Y209.104 E32.84014
G1 X110.852 Y209.217 E32.87077
G1 X109.932 Y209.251 E32.90139
G1 X109.012 Y209.204 E32.93203
G1 X108.101 Y209.078 E32.96262
G1 X107.203 Y208.873 E32.99326
G1 X106.327 Y208.591 E33.02387
G1 X105.478 Y208.234 E33.0545
G1 X104.846 Y207.909 E33.07814
G1 X104.023 Y207.45 E33.10948
G1 X29.118 Y163.756 E35.99371
G1 X28.549 Y163.414 E36.01579
G1 X27.782 Y162.906 E36.04639
G1 X27.061 Y162.333 E36.07702
G1 X26.392 Y161.7 E36.10766
G1 X25.782 Y161.011 E36.13826
G1 X25.233 Y160.272 E36.16888
G1 X24.75 Y159.488 E36.19951
G1 X24.337 Y158.665 E36.23014
G1 X23.998 Y157.809 E36.26076
G1 X23.733 Y156.928 E36.29136
G1 X23.547 Y156.026 E36.32199
G1 X23.439 Y155.112 E36.3526
G1 X23.412 Y154.515 E36.37248
G1 X23.4 Y153.76 E36.39759
G1 X23.401 Y66.223 E39.30908
G1 X23.411 Y65.521 E39.33244
G1 X23.464 Y64.602 E39.36305
G1 X23.597 Y63.691 E39.39367
G1 X23.808 Y62.795 E39.42429
G1 X24.096 Y61.92 E39.45493
G1 X24.459 Y61.074 E39.48555
G1 X24.894 Y60.263 E39.51616
G1 X25.398 Y59.492 E39.54679
G1 X25.966 Y58.768 E39.5774
G1 X26.596 Y58.096 E39.60804
G1 X27.281 Y57.482 E39.63863
G1 X28.017 Y56.929 E39.66925
G1 X28.526 Y56.601 E39.68939
G1 X29.19 Y56.201 E39.71517
G0 F6000 X29.392 Y56.546
G1 F1200 X104.361 Y12.815 E42.60187
G1 X104.967 Y12.472 E42.62503
G1 X105.772 Y12.063 E42.65506
G1 X106.61 Y11.726 E42.6851
G1 X107.474 Y11.464 E42.71513
G1 X108.358 Y11.281 E42.74516
G1 X109.255 Y11.176 E42.77519
G1 X110.158 Y11.15 E42.80524
G1 X111.059 Y11.205 E42.83526
G1 X111.952 Y11.339 E42.8653
G1 X112.83 Y11.552 E42.89535
G1 X113.686 Y11.842 E42.92541
G1 X114.512 Y12.206 E42.95543
G1 X114.959 Y12.441 E42.97223
G1 X115.954 Y12.997 E43.01014
G1 X190.687 Y56.593 E45.88779
G1 X191.256 Y56.936 E45.90989
G1 X192.008 Y57.436 E45.93992
G1 X192.713 Y58.001 E45.96997
G1 X193.365 Y58.626 E46.00001
G1 X193.959 Y59.306 E46.03004
G1 X194.491 Y60.036 E46.06009
G1 X194.956 Y60.81 E46.09012
G1 X195.351 Y61.622 E46.12015
G1 X195.673 Y62.466 E46.1502
G1 X195.919 Y63.335 E46.18023
G1 X196.086 Y64.222 E46.21025
G1 X196.188 Y65.492 E46.25263
G1 X196.2 Y66.24 E46.27751
G1 X196.199 Y153.748 E49.18804
G1 X196.189 Y154.469 E49.21202
G1 X196.137 Y155.371 E49.24207
G1 X196.004 Y156.264 E49.2721
G1 X195.794 Y157.143 E49.30216
G1 X195.507 Y157.999 E49.33219
G1 X195.145 Y158.826 E49.36222
G1 X194.711 Y159.618 E49.39225
G1 X194.209 Y160.369 E49.4223
G1 X193.642 Y161.072 E49.45234
G1 X193.016 Y161.723 E49.48238
G1 X192.334 Y162.315 E49.51241
G1 X191.267 Y163.057 E49.55564
G1 X190.746 Y163.372 E49.57589
G1 X115.635 Y207.188 E52.46809
G1 X115.024 Y207.533 E52.49143
G1 X114.219 Y207.942 E52.52146
G1 X113.381 Y208.278 E52.55149
G1 X112.516 Y208.538 E52.58153
G1 X111.631 Y208.721 E52.61159
G1 X110.734 Y208.825 E52.64162
G1 X109.832 Y208.849 E52.67163
G1 X108.93 Y208.794 E52.70169
G1 X108.037 Y208.659 E52.73173
G1 X107.16 Y208.445 E52.76175
G1 X106.305 Y208.155 E52.79178
G1 X105.479 Y207.79 E52.82182
G1 X105.041 Y207.559 E52.83829
G1 X104.046 Y207.003 E52.8762
G1 X29.324 Y163.413 E55.75343
G1 X28.755 Y163.071 E55.77551
G1 X28.003 Y162.572 E55.80553
G1 X27.297 Y162.009 E55.83556
G1 X26.644 Y161.385 E55.8656
G1 X26.049 Y160.706 E55.89563
G1 X25.516 Y159.976 E55.92569
G1 X25.05 Y159.203 E55.95571
G1 X24.654 Y158.391 E55.98576
G1 X24.331 Y157.548 E56.01579
G1 X24.084 Y156.679 E56.04584
G1 X23.915 Y155.792 E56.07587
G1 X23.812 Y154.508 E56.11871
G1 X23.8 Y153.76 E56.14359
G1 X23.801 Y66.229 E59.05489
G1 X23.811 Y65.527 E59.07824
G1 X23.864 Y64.625 E59.10829
G1 X23.996 Y63.732 E59.13831
G1 X24.207 Y62.854 E59.16835
G1 X24.495 Y61.998 E59.19839
G1 X24.857 Y61.17 E59.22844
G1 X25.291 Y60.378 E59.25848
G1 X25.794 Y59.628 E59.28852
G1 X26.36 Y58.925 E59.31853
G1 X26.987 Y58.275 E59.34857
G1 X27.669 Y57.683 E59.37861
G1 X28.733 Y56.943 E59.42172
G1 X29.392 Y56.546 E59.4473
G1 F1500 E52.9473
;MESH:Base2mm.stl
G0 F6000 X34.061 Y64.862
G0 X110 Y197.97
;TYPE:WALL-INNER
G1 F1500 E59.4473
G1 F1200 X185.4 Y153.987 E62.3506
G1 X185.4 Y66.013 E65.27663
G1 X110 Y22.03 E68.17993
G1 X34.6 Y66.013 E71.08323
G1 X34.6 Y153.987 E74.00926
G1 X110 Y197.97 E76.91256
G0 F6000 X110 Y198.433
;TYPE:WALL-OUTER
G1 F1200 X185.8 Y154.217 E79.83126
G1 X185.8 Y65.783 E82.77258
G1 X110 Y21.567 E85.69128
G1 X34.2 Y65.783 E88.60998
G1 X34.2 Y154.217 E91.5513
G1 X110 Y198.433 E94.47
G0 F6000 X110 Y197.55
;TYPE:SKIN
G1 F1200 X185.04 Y153.779 E97.3594
G1 X185.04 Y66.221 E100.27159
G1 X110 Y22.45 E103.161
G1 X34.96 Y66.221 E106.0504
G1 X34.96 Y109.323 E107.48398
G1 X34.96 Y153.779 E108.96259
G1 X110 Y197.55 E111.852
G1 F1500 E105.352
G0 F6000 X109.868 Y197.776
G0 X34.807 Y153.991
G1 F1500 E111.852
G0 F6000 X35.16 Y153.388
G1 F1200 X35.818 Y154.046 E111.88295
G0 F6000 X35.585 Y154.445
G0 X34.766 Y153.891
G0 X34.7 Y152.822
G0 X35.16 Y152.822
G1 F1200 X37.176 Y154.838 E111.97778
G0 F6000 X36.943 Y155.237
G0 X38.3 Y156.028
G0 X38.533 Y155.629
G1 F1200 X35.16 Y152.257 E112.13641
G0 F6000 X35.16 Y151.691
G1 F1200 X39.89 Y156.421 E112.35889
G0 F6000 X39.657 Y156.82
G0 X41.015 Y157.612
G0 X41.248 Y157.213
G1 F1200 X35.16 Y151.125 E112.64525
G0 F6000 X35.16 Y150.56
G1 F1200 X42.606 Y158.005 E112.99547
G0 F6000 X42.373 Y158.404
G0 X43.73 Y159.196
G0 X43.963 Y158.797
G1 F1200 X35.16 Y149.994 E113.40953
G0 F6000 X35.16 Y149.428
G1 F1200 X45.321 Y159.589 E113.88748
G0 F6000 X45.088 Y159.988
G0 X46.445 Y160.779
G0 X46.678 Y160.381
G1 F1200 X35.16 Y148.862 E114.42927
G0 F6000 X35.16 Y148.297
G1 F1200 X48.036 Y161.173 E115.03492
G0 F6000 X47.803 Y161.571
G0 X49.161 Y162.364
G0 X49.394 Y161.965
G1 F1200 X35.16 Y147.731 E115.70444
G0 F6000 X35.16 Y147.165
G1 F1200 X50.751 Y162.756 E116.43779
G0 F6000 X50.518 Y163.155
G0 X51.875 Y163.947
G0 X52.108 Y163.548
G1 F1200 X35.16 Y146.6 E117.23498
G0 F6000 X35.16 Y146.034
G1 F1200 X53.466 Y164.34 E118.09603
G0 F6000 X53.233 Y164.739
G0 X54.591 Y165.531
G0 X54.824 Y165.132
G1 F1200 X35.16 Y145.468 E119.02097
G0 F6000 X35.16 Y144.903
G1 F1200 X56.181 Y165.924 E120.00973
G0 F6000 X55.948 Y166.322
G0 X57.306 Y167.114
G0 X57.539 Y166.716
G1 F1200 X35.16 Y144.337 E121.06237
G0 F6000 X35.16 Y143.771
G1 F1200 X58.897 Y167.508 E122.17889
G0 F6000 X58.664 Y167.907
G0 X60.021 Y168.698
G0 X60.254 Y168.3
G1 F1200 X35.16 Y143.206 E123.35923
G0 F6000 X35.16 Y142.64
G1 F1200 X61.612 Y169.092 E124.60345
G0 F6000 X61.379 Y169.49
G0 X62.736 Y170.282
G0 X62.969 Y169.884
G1 F1200 X35.16 Y142.074 E125.91153
G0 F6000 X35.16 Y141.509
G1 F1200 X64.326 Y170.675 E127.28341
G0 F6000 X64.093 Y171.073
G0 X65.451 Y171.866
G0 X65.684 Y171.467
G1 F1200 X35.16 Y140.943 E128.71916
G0 F6000 X35.16 Y140.377
G1 F1200 X67.042 Y172.259 E130.21879
G0 F6000 X66.809 Y172.658
G0 X68.166 Y173.449
G0 X68.399 Y173.051
G1 F1200 X35.16 Y139.811 E131.78228
G0 F6000 X35.16 Y139.246
G1 F1200 X69.757 Y173.843 E133.40961
G0 F6000 X69.524 Y174.241
G0 X70.882 Y175.033
G0 X71.115 Y174.635
G1 F1200 X35.16 Y138.68 E135.10083
G0 F6000 X35.16 Y138.114
G1 F1200 X72.472 Y175.427 E136.85589
G0 F6000 X72.239 Y175.825
G0 X73.597 Y176.617
G0 X73.83 Y176.219
G1 F1200 X35.16 Y137.549 E138.67481
G0 F6000 X35.16 Y136.983
G1 F1200 X75.188 Y177.011 E140.55761
G0 F6000 X74.955 Y177.409
G0 X76.312 Y178.201
G0 X76.545 Y177.802
G1 F1200 X35.16 Y136.417 E142.50423
G0 F6000 X35.16 Y135.852
G1 F1200 X77.902 Y178.594 E144.51468
G0 F6000 X77.669 Y178.993
G0 X79.027 Y179.785
G0 X79.26 Y179.386
G1 F1200 X35.16 Y135.286 E146.58901
G0 F6000 X35.16 Y134.72
G1 F1200 X80.617 Y180.178 E148.72719
G0 F6000 X80.384 Y180.576
G0 X81.742 Y181.369
G0 X81.975 Y180.97
G1 F1200 X35.16 Y134.155 E150.92923
G0 F6000 X35.16 Y133.589
G1 F1200 X83.333 Y181.762 E153.19514
G0 F6000 X83.1 Y182.161
G0 X84.457 Y182.952
G0 X84.69 Y182.554
G1 F1200 X35.16 Y133.023 E155.5249
G0 F6000 X35.16 Y132.458
G1 F1200 X86.048 Y183.346 E157.91851
G0 F6000 X85.815 Y183.745
G0 X87.173 Y184.537
G0 X87.406 Y184.138
G1 F1200 X35.16 Y131.892 E160.37601
G0 F6000 X35.16 Y131.326
G1 F1200 X88.763 Y184.93 E162.89735
G0 F6000 X88.53 Y185.328
G0 X89.887 Y186.12
G0 X90.12 Y185.721
G1 F1200 X35.16 Y130.761 E165.4825
G0 F6000 X35.16 Y130.195
G1 F1200 X91.478 Y186.513 E168.13153
G0 F6000 X91.245 Y186.912
G0 X92.603 Y187.704
G0 X92.836 Y187.305
G1 F1200 X35.16 Y129.629 E170.84443
G0 F6000 X35.16 Y129.063
G1 F1200 X94.193 Y188.097 E173.62118
G0 F6000 X93.96 Y188.496
G0 X95.318 Y189.288
G0 X95.551 Y188.889
G1 F1200 X35.16 Y128.498 E176.46179
G0 F6000 X35.16 Y127.932
G1 F1200 X96.908 Y189.681 E179.36625
G0 F6000 X96.675 Y190.08
G0 X98.033 Y190.872
G0 X98.266 Y190.473
G1 F1200 X35.16 Y127.366 E182.33459
G0 F6000 X35.16 Y126.801
G1 F1200 X99.624 Y191.265 E185.36678
G0 F6000 X99.391 Y191.664
G0 X100.748 Y192.456
G0 X100.981 Y192.057
G1 F1200 X35.16 Y126.235 E188.46282
G0 F6000 X35.16 Y125.669
G1 F1200 X102.338 Y192.848 E191.62269
G0 F6000 X102.105 Y193.247
G0 X103.462 Y194.039
G0 X103.696 Y193.64
G1 F1200 X35.16 Y125.104 E194.84641
G0 F6000 X35.16 Y124.538
G1 F1200 X105.054 Y194.432 E198.13401
G0 F6000 X104.82 Y194.831
G0 X106.178 Y195.623
G0 X106.411 Y195.224
G1 F1200 X35.16 Y123.972 E201.48546
G0 F6000 X35.16 Y123.407
G1 F1200 X107.769 Y196.016 E204.90077
G0 F6000 X107.535 Y196.415
G0 X108.893 Y197.207
G0 X109.127 Y196.808
G1 F1200 X35.16 Y122.841 E208.37995
G0 F6000 X35.16 Y122.275
G1 F1200 X110.126 Y197.242 E211.90614
G0 F6000 X110.484 Y197.033
G1 F1200 X35.16 Y121.71 E215.44913
G0 F6000 X35.16 Y121.144
G1 F1200 X110.841 Y196.826 E219.00896
G0 F6000 X111.198 Y196.617
G1 F1200 X35.16 Y120.578 E222.58557
G0 F6000 X35.16 Y120.012
G1 F1200 X111.555 Y196.408 E226.17898
G0 F6000 X111.913 Y196.2
G1 F1200 X35.16 Y119.447 E229.78921
G0 F6000 X35.16 Y118.881
G1 F1200 X112.27 Y195.992 E233.41625
G0 F6000 X112.627 Y195.783
G1 F1200 X35.16 Y118.315 E237.06008
G0 F6000 X35.16 Y117.75
G1 F1200 X112.985 Y195.575 E240.72073
G0 F6000 X113.342 Y195.367
G1 F1200 X35.16 Y117.184 E244.3982
G0 F6000 X35.16 Y116.618
G1 F1200 X113.699 Y195.158 E248.09246
G0 F6000 X114.057 Y194.95
G1 F1200 X35.16 Y116.053 E251.80353
G0 F6000 X35.16 Y115.487
G1 F1200 X114.414 Y194.741 E255.53139
G0 F6000 X114.771 Y194.533
G1 F1200 X35.16 Y114.921 E259.27608
G0 F6000 X35.16 Y114.356
G1 F1200 X115.129 Y194.324 E263.03755
G0 F6000 X115.486 Y194.116
G1 F1200 X35.16 Y113.79 E266.81584
G0 F6000 X35.16 Y113.224
G1 F1200 X115.843 Y193.908 E270.61094
G0 F6000 X116.2 Y193.699
G1 F1200 X35.16 Y112.659 E274.42281
G0 F6000 X35.16 Y112.093
G1 F1200 X116.558 Y193.491 E278.25153
G0 F6000 X116.915 Y193.282
G1 F1200 X35.16 Y111.527 E282.09703
G0 F6000 X35.16 Y110.962
G1 F1200 X117.272 Y193.074 E285.95933
G0 F6000 X117.63 Y192.866
G1 F1200 X35.16 Y110.396 E289.83846
G0 F6000 X35.16 Y109.83
G1 F1200 X117.987 Y192.657 E293.73439
G0 F6000 X118.344 Y192.449
G1 F1200 X35.16 Y109.264 E297.64714
G0 F6000 X35.16 Y108.699
G1 F1200 X118.702 Y192.241 E301.5767
G0 F6000 X119.059 Y192.032
G1 F1200 X35.16 Y108.133 E305.52305
G0 F6000 X35.16 Y107.567
G1 F1200 X119.416 Y191.823 E309.48619
G0 F6000 X119.773 Y191.616
