;FLAVOR:Marlin
;TIME:13694
;Filament used: 7.27585m
;Layer height: 0.12
;MINX:56.335
;MINY:50.009
;MINZ:0.144
;MAXX:163.665
;MAXY:168.926
;MAXZ:9.114
;Generated with Cura_SteamEngine 5.2.2
M82 ;absolute extrusion mode
; Ender 3 Custom Start G-code
G92 E0 ; Reset Extruder
G28 ; Home all axes
M104 S175 ; Start heating up the nozzle most of the way
M190 S60 ; Start heating the bed, wait until target temperature reached
M109 S215 ; Finish heating the nozzle
G1 Z2.0 F3000 ; Move Z Axis up little to prevent scratching of Heat Bed
G1 X0.1 Y20 Z0.3 F5000.0 ; Move to start position
G1 X0.1 Y200.0 Z0.3 F1500.0 E15 ; Draw the first line
G1 X0.4 Y200.0 Z0.3 F5000.0 ; Move to side a little
G1 X0.4 Y20 Z0.3 F1500.0 E30 ; Draw the second line
G92 E0 ; Reset Extruder
G1 Z2.0 F3000 ; Move Z Axis up little to prevent scratching of Heat Bed
G1 X5 Y20 Z0.3 F5000.0 ; Move over to prevent blob squish
G92 E0
G92 E0
G1 F1500 E-6.5
;LAYER_COUNT:70
;LAYER:-6
M107
G0 F9000 X61.804 Y77.387 Z0.144
;TYPE:SUPPORT-INTERFACE
G1 F1500 E0
G1 F1125 X61.177 Y78.038 E0.04329
G1 X60.445 Y78.909 E0.09778
G1 X59.819 Y79.785 E0.14935
G1 X59.23 Y80.764 E0.20407
G1 X58.783 Y81.631 E0.25079
G1 X58.397 Y82.539 E0.29804
G1 X58.022 Y83.624 E0.35302
G1 X57.736 Y84.736 E0.40802
G1 X57.557 Y85.701 E0.45502
G1 X57.448 Y86.693 E0.50282
G1 X57.4 Y87.84 E0.5578
G1 X57.403 Y132.209 E2.68284
G1 X57.464 Y133.527 E2.74603
G1 X57.602 Y134.581 E2.79694
G1 X57.82 Y135.634 E2.84845
G1 X58.144 Y136.757 E2.90443
G1 X58.439 Y137.566 E2.94567
G1 X58.876 Y138.556 E2.9975
G1 X59.419 Y139.574 E3.05276
G1 X60.043 Y140.54 E3.10784
G1 X60.674 Y141.376 E3.158
G1 X61.38 Y142.183 E3.20936
G1 X62.084 Y142.883 E3.2569
G1 X62.896 Y143.58 E3.30816
G1 X63.816 Y144.252 E3.36272
G1 X64.625 Y144.764 E3.40858
G1 X102.722 Y166.984 E5.52089
G1 X104.023 Y167.652 E5.59094
G1 X105.015 Y168.056 E5.64224
G1 X105.963 Y168.362 E5.68995
G1 X107.065 Y168.635 E5.74432
G1 X108.11 Y168.809 E5.79506
G1 X109.256 Y168.911 E5.85017
G1 X110.321 Y168.926 E5.90118
G1 X111.311 Y168.873 E5.94866
G1 X112.363 Y168.739 E5.99945
G1 X113.404 Y168.527 E6.05034
G1 X114.432 Y168.244 E6.1014
G1 X115.448 Y167.877 E6.15314
G1 X116.412 Y167.448 E6.20368
G1 X117.401 Y166.918 E6.25742
G1 X155.289 Y144.818 E8.35819
G1 X156.508 Y144.029 E8.42774
G1 X157.41 Y143.325 E8.48254
G1 X158.196 Y142.611 E8.5334
G1 X158.823 Y141.962 E8.57662
G1 X159.553 Y141.093 E8.63097
G1 X160.191 Y140.201 E8.6835
G1 X160.77 Y139.237 E8.73736
G1 X161.222 Y138.357 E8.78474
G1 X161.64 Y137.372 E8.83599
G1 X161.98 Y136.368 E8.88676
G1 X162.264 Y135.264 E8.94135
G1 X162.442 Y134.296 E8.98849
G1 X162.563 Y133.16 E9.04321
G1 X162.6 Y132.159 E9.09118
G1 X162.598 Y87.791 E11.21617
G1 X162.536 Y86.472 E11.27941
G1 X162.398 Y85.414 E11.33051
G1 X162.182 Y84.365 E11.38181
G1 X161.888 Y83.326 E11.43353
G1 X161.527 Y82.342 E11.48373
G1 X161.059 Y81.311 E11.53795
G1 X160.585 Y80.434 E11.5857
G1 X160.01 Y79.533 E11.63689
G1 X159.382 Y78.688 E11.68732
G1 X158.618 Y77.815 E11.74288
G1 X157.917 Y77.118 E11.79022
G1 X157.109 Y76.423 E11.84127
G1 X156.26 Y75.795 E11.89185
G1 X155.377 Y75.236 E11.9419
G1 X117.278 Y53.016 E14.0543
G1 X115.966 Y52.343 E14.12492
G1 X114.97 Y51.939 E14.1764
G1 X114.05 Y51.644 E14.22267
G1 X112.927 Y51.364 E14.2781
G1 X111.89 Y51.191 E14.32846
G1 X110.743 Y51.089 E14.38361
G1 X109.679 Y51.074 E14.43457
G1 X108.769 Y51.123 E14.47822
G1 X107.643 Y51.26 E14.53255
G1 X106.577 Y51.475 E14.58463
G1 X105.573 Y51.754 E14.63454
G1 X104.549 Y52.123 E14.68667
G1 X103.587 Y52.552 E14.73712
G1 X102.687 Y53.034 E14.78602
G1 X64.722 Y75.175 E16.89096
G1 X63.502 Y75.963 E16.96052
G1 X62.646 Y76.623 E17.01229
G1 X61.804 Y77.387 E17.06675
G1 F1500 E10.56675
G0 F9000 X88.773 Y99.491
G1 F1500 E17.06675
G1 F1125 X88.916 Y98.843 E17.09853
G1 X89.145 Y98.201 E17.13118
G1 X89.455 Y97.589 E17.16403
G1 X89.844 Y97.012 E17.19736
G1 X90.286 Y96.512 E17.22932
G1 X90.796 Y96.063 E17.26187
G1 X91.349 Y95.685 E17.29395
G1 X107.276 Y86.315 E18.17898
G1 X108.134 Y85.911 E18.22441
G1 X108.774 Y85.72 E18.25639
G1 X109.45 Y85.606 E18.28923
G1 X110.124 Y85.58 E18.32153
G1 X110.829 Y85.642 E18.35543
G1 X111.494 Y85.788 E18.38804
G1 X112.15 Y86.026 E18.42146
G1 X112.718 Y86.313 E18.45194
G1 X128.654 Y95.688 E19.33747
G1 X129.3 Y96.138 E19.37517
G1 X129.802 Y96.602 E19.40792
G1 X130.241 Y97.125 E19.44062
G1 X130.621 Y97.72 E19.47443
G1 X130.909 Y98.332 E19.50683
G1 X131.122 Y98.981 E19.53954
G1 X131.246 Y99.628 E19.57109
G1 X131.291 Y100.301 E19.6034
G1 X131.29 Y119.704 E20.5327
G1 X131.23 Y120.489 E20.5704
G1 X131.084 Y121.157 E20.60315
G1 X130.855 Y121.799 E20.6358
G1 X130.545 Y122.411 E20.66866
G1 X130.156 Y122.988 E20.70199
G1 X129.714 Y123.488 E20.73395
G1 X129.204 Y123.937 E20.76649
G1 X128.651 Y124.315 E20.79857
G1 X112.724 Y133.685 E21.68361
G1 X111.867 Y134.089 E21.72899
G1 X111.209 Y134.284 E21.76186
G1 X110.55 Y134.394 E21.79386
G1 X109.877 Y134.42 E21.82611
G1 X109.171 Y134.358 E21.86006
G1 X108.506 Y134.212 E21.89266
G1 X107.85 Y133.974 E21.92609
G1 X107.282 Y133.687 E21.95657
G1 X91.346 Y124.312 E22.84209
G1 X90.7 Y123.862 E22.8798
G1 X90.196 Y123.396 E22.91268
G1 X89.759 Y122.875 E22.94525
G1 X89.386 Y122.293 E22.97835
G1 X89.096 Y121.681 E23.01079
G1 X88.877 Y121.016 E23.04432
G1 X88.753 Y120.361 E23.07625
G1 X88.709 Y119.699 E23.10803
G1 X88.709 Y100.327 E24.03584
G1 X88.773 Y99.491 E24.076
G0 F9000 X88.359 Y99.673
G1 F1125 X64.488 Y75.802 E25.69286
G0 F9000 X63.157 Y76.733
G1 F1125 X88.309 Y101.885 E27.39648
G0 F9000 X88.309 Y104.148
G1 F1125 X61.96 Y77.8 E29.18115
G0 F9000 X60.893 Y78.995
G1 F1125 X88.309 Y106.411 E31.03812
G0 F9000 X88.309 Y108.673
G1 F1125 X59.96 Y80.325 E32.95826
G0 F9000 X59.153 Y81.781
G1 F1125 X88.309 Y110.937 E34.93309
G0 F9000 X88.309 Y113.2
G1 F1125 X58.518 Y83.408 E36.95096
G0 F9000 X58.054 Y85.207
G1 F1125 X88.309 Y115.462 E39.00023
G0 F9000 X88.309 Y117.725
G1 F1125 X57.825 Y87.24 E41.06504
G0 F9000 X57.799 Y89.477
G1 F1125 X88.328 Y120.007 E43.1329
G1 F1500 E36.6329
G0 F9000 X89.81 Y120.22
G0 X96.342 Y126.016
G0 X95.6 Y127.278
G1 F1500 E43.1329
G1 F1125 X128.374 Y160.052 E45.35279
G0 F9000 X129.803 Y159.219
G1 F1125 X101.097 Y130.513 E47.29713
G1 F1500 E40.79713
G0 F9000 X101.839 Y129.25
G0 X107.337 Y132.485
G0 X106.595 Y133.748
G1 F1500 E47.29713
G1 F1125 X131.232 Y158.385 E48.96588
G0 F9000 X132.662 Y157.552
G1 F1125 X109.925 Y134.815 E50.50593
G0 F9000 X111.874 Y134.502
G1 F1125 X134.091 Y156.718 E52.01072
G0 F9000 X135.52 Y155.885
G1 F1125 X113.391 Y133.756 E53.50959
G0 F9000 X114.816 Y132.918
G1 F1125 X136.949 Y155.051 E55.00873
G0 F9000 X138.378 Y154.217
G1 F1125 X116.24 Y132.079 E56.5082
G0 F9000 X117.665 Y131.241
G1 F1125 X139.807 Y153.384 E58.00799
G0 F9000 X141.236 Y152.55
G1 F1125 X119.09 Y130.403 E59.50804
G0 F9000 X120.514 Y129.565
G1 F1125 X142.665 Y151.716 E61.0084
G0 F9000 X144.094 Y150.883
G1 F1125 X121.939 Y128.727 E62.50906
G0 F9000 X123.363 Y127.889
G1 F1125 X145.523 Y150.049 E64.01003
G0 F9000 X146.953 Y149.215
G1 F1125 X124.788 Y127.05 E65.51133
G0 F9000 X126.212 Y126.212
G1 F1125 X148.382 Y148.382 E67.01298
G0 F9000 X149.811 Y147.549
G1 F1125 X127.637 Y125.374 E68.51493
G0 F9000 X129.051 Y124.525
G1 F1125 X151.24 Y146.715 E70.01789
G0 F9000 X152.67 Y145.881
G1 F1125 X130.259 Y123.471 E71.53583
G0 F9000 X131.15 Y122.099
G1 F1125 X154.099 Y145.048 E73.09024
G0 F9000 X155.51 Y144.196
G1 F1125 X131.642 Y120.328 E74.70689
G0 F9000 X131.69 Y118.113
G1 F1125 X156.838 Y143.261 E76.41025
G0 F9000 X158.038 Y142.199
G1 F1125 X131.69 Y115.85 E78.19491
G0 F9000 X131.69 Y113.588
G1 F1125 X159.106 Y141.004 E80.05189
G0 F9000 X160.039 Y139.674
G1 F1125 X131.69 Y111.325 E81.97206
G0 F9000 X131.689 Y109.062
G1 F1125 X160.844 Y138.217 E83.94682
G0 F9000 X161.481 Y136.591
G1 F1125 X131.689 Y106.799 E85.96472
G0 F9000 X131.689 Y104.536
G1 F1125 X161.943 Y134.79 E88.01392
G0 F9000 X162.177 Y132.761
G1 F1125 X131.689 Y102.273 E90.07897
G0 F9000 X131.668 Y99.99
G1 F1125 X162.199 Y130.521 E92.14693
G0 F9000 X162.199 Y128.258
G1 F1125 X93.055 Y59.114 E96.83028
G0 F9000 X91.626 Y59.947
G1 F1125 X124.399 Y92.72 E99.0501
G1 F1500 E92.5501
G0 F9000 X123.657 Y93.983
G0 X118.159 Y90.748
G0 X118.901 Y89.485
G1 F1500 E99.0501
G1 F1125 X90.197 Y60.781 E100.99431
G0 F9000 X88.768 Y61.615
G1 F1125 X113.403 Y86.25 E102.66292
G0 F9000 X110.071 Y85.181
G1 F1125 X87.338 Y62.448 E104.2027
G0 F9000 X85.909 Y63.281
G1 F1125 X108.124 Y85.496 E105.70739
G0 F9000 X106.607 Y86.242
G1 F1125 X84.48 Y64.115 E107.20612
G0 F9000 X83.051 Y64.949
G1 F1125 X105.182 Y87.08 E108.70512
G0 F9000 X103.758 Y87.919
G1 F1125 X81.621 Y65.782 E110.20453
G0 F9000 X80.192 Y66.615
G1 F1125 X102.333 Y88.757 E111.70425
G0 F9000 X100.909 Y89.595
G1 F1125 X78.763 Y67.449 E113.20427
G0 F9000 X77.334 Y68.283
G1 F1125 X99.484 Y90.434 E114.70459
G0 F9000 X98.06 Y91.271
G1 F1125 X75.905 Y69.116 E116.20522
G0 F9000 X74.475 Y69.949
G1 F1125 X96.635 Y92.109 E117.70619
G0 F9000 X95.211 Y92.948
G1 F1125 X73.046 Y70.783 E119.20749
G0 F9000 X71.617 Y71.617
G1 F1125 X93.786 Y93.786 E120.70907
G0 F9000 X92.361 Y94.624
G1 F1125 X70.188 Y72.45 E122.21095
G0 F9000 X68.758 Y73.283
G1 F1125 X90.948 Y95.473 E123.71395
G0 F9000 X89.739 Y96.527
G1 F1125 X67.329 Y74.117 E125.23185
G0 F9000 X65.9 Y74.951
G1 F1125 X88.848 Y97.899 E126.78619
G1 F1500 E120.28619
G0 F9000 X57.8 Y98.529
G1 F1500 E126.78619
G1 F1125 X122.658 Y163.387 E131.17923
G0 F9000 X121.229 Y164.221
G1 F1125 X57.8 Y100.792 E135.47548
G0 F9000 X57.8 Y103.055
G1 F1125 X119.8 Y165.054 E139.6749
G0 F9000 X118.371 Y165.888
G1 F1125 X57.8 Y105.317 E143.77757
G0 F9000 X57.801 Y107.581
G1 F1125 X116.933 Y166.713 E147.78277
G0 F9000 X115.411 Y167.454
G1 F1125 X57.801 Y109.844 E151.68488
G0 F9000 X57.801 Y112.106
G1 F1125 X113.718 Y168.024 E155.47235
G0 F9000 X111.833 Y168.401
G1 F1125 X57.801 Y114.369 E159.13211
G0 F9000 X57.801 Y116.633
G1 F1125 X109.684 Y168.515 E162.64627
G0 F9000 X107.148 Y168.242
G1 F1125 X57.801 Y118.895 E165.9887
G0 F9000 X57.801 Y121.158
G1 F1125 X103.656 Y167.013 E169.09461
G1 F1500 E162.59461
G0 F9000 X102.218 Y167.922
G0 X97.611 Y165.242
G0 X98.352 Y163.971
G1 F1500 E169.09461
G1 F1125 X57.802 Y123.421 E171.84119
G0 F9000 X57.802 Y125.684
G1 F1125 X92.922 Y160.804 E174.21998
G1 F1500 E167.71998
G0 F9000 X92.182 Y162.074
G0 X86.752 Y158.907
G0 X87.492 Y157.637
G1 F1500 E174.21998
G1 F1125 X57.802 Y127.947 E176.23098
G0 F9000 X57.802 Y130.21
G1 F1125 X82.062 Y154.47 E177.87418
G1 F1500 E171.37418
G0 F9000 X81.322 Y155.74
G0 X75.892 Y152.572
G0 X76.632 Y151.303
G1 F1500 E177.87418
G1 F1125 X57.815 Y132.486 E179.14872
G0 F9000 X58.105 Y135.039
G1 F1125 X71.202 Y148.136 E180.03582
G1 F1500 E173.53582
G0 F9000 X70.462 Y149.405
G0 X65.032 Y146.237
G0 X65.772 Y144.968
G1 F1500 E180.03582
G1 F1125 X59.295 Y138.491 E180.47453
G1 F1500 E173.97453
G0 F9000 X57.914 Y139.013
G0 X57.135 Y137.096
G0 X56.761 Y135.783
G0 X56.417 Y133.726
G0 X56.372 Y132.8
G0 X56.335 Y96.266
G0 X57.799 Y96.266
G1 F1500 E180.47453
G1 F1125 X124.087 Y162.553 E184.96439
G0 F9000 X125.516 Y161.72
G1 F1125 X57.799 Y94.003 E189.55108
G0 F9000 X57.799 Y91.74
G1 F1125 X126.945 Y160.886 E194.23456
G1 F1500 E187.73456
G0 F9000 X127.684 Y162.152
G0 X155.958 Y145.656
G0 X157.202 Y144.84
G0 X158.802 Y143.507
G0 X159.725 Y142.55
G0 X160.996 Y140.906
G0 X161.705 Y139.747
G0 X162.587 Y137.867
G0 X163.027 Y136.577
G0 X163.479 Y134.55
G0 X163.626 Y133.225
G0 X163.665 Y125.995
G0 X162.199 Y125.995
G1 F1500 E194.23456
G1 F1125 X94.485 Y58.281 E198.82104
G0 F9000 X95.914 Y57.447
G1 F1125 X162.199 Y123.733 E203.31077
G0 F9000 X162.199 Y121.47
G1 F1125 X97.343 Y56.613 E207.70371
G0 F9000 X98.772 Y55.78
G1 F1125 X162.199 Y119.207 E211.99982
G0 F9000 X162.198 Y116.944
G1 F1125 X100.201 Y54.946 E216.19911
G0 F9000 X101.631 Y54.113
G1 F1125 X162.198 Y114.681 E220.30154
G0 F9000 X162.198 Y112.418
G1 F1125 X103.065 Y53.285 E224.30681
G0 F9000 X104.586 Y52.543
G1 F1125 X162.198 Y110.155 E228.20905
G0 F9000 X162.198 Y107.893
G1 F1125 X106.278 Y51.973 E231.99669
G0 F9000 X108.167 Y51.598
G1 F1125 X162.198 Y105.63 E235.65642
G0 F9000 X162.198 Y103.367
G1 F1125 X110.315 Y51.483 E239.17065
G0 F9000 X112.852 Y51.758
G1 F1125 X162.198 Y101.104 E242.51301
G0 F9000 X162.198 Y98.841
G1 F1125 X116.343 Y52.987 E245.61888
G1 F1500 E239.11888
G0 F9000 X117.783 Y52.078
G0 X122.386 Y54.757
G0 X121.646 Y56.026
G1 F1500 E245.61888
G1 F1125 X162.198 Y96.578 E248.3656
G0 F9000 X162.198 Y94.316
G1 F1125 X127.075 Y59.193 E250.74459
G1 F1500 E244.24459
G0 F9000 X127.815 Y57.924
G0 X133.243 Y61.09
G0 X132.504 Y62.359
G1 F1500 E250.74459
G1 F1125 X162.198 Y92.053 E252.75586
G0 F9000 X162.198 Y89.79
G1 F1125 X137.933 Y65.526 E254.39937
G1 F1500 E247.89937
G0 F9000 X138.672 Y64.257
G0 X144.102 Y67.424
G0 X143.363 Y68.692
G1 F1500 E254.39937
G1 F1125 X162.184 Y87.513 E255.67418
G0 F9000 X161.895 Y84.962
G1 F1125 X148.792 Y71.859 E256.56169
G1 F1500 E250.06169
G0 F9000 X149.531 Y70.591
G0 X154.961 Y73.758
G0 X154.222 Y75.026
M104 S215
G1 F1500 E256.56169
G1 F1125 X160.711 Y81.515 E257.00121
G1 F1500 E250.50121
G0 F300 X160.711 Y81.515 Z0.324
G0 F9000 X127.96 Y125.184
;TIME_ELAPSED:318.140217
;LAYER:-5
;TYPE:SUPPORT
G1 F1500 E257.00121
G1 F1125 X92.551 Y160.593 E259.99916
G1 X93.444 Y161.114 E260.06106
G1 X162.197 Y92.36 E265.88218
G1 X162.197 Y93.775 E265.96689
G1 X94.337 Y161.635 E271.71236
G1 X95.231 Y162.155 E271.77428
G1 X162.197 Y95.189 E277.44405
G1 X162.197 Y96.603 E277.52871
G1 X96.124 Y162.676 E283.12287
G1 X97.017 Y163.198 E283.1848
G1 X162.197 Y98.017 E288.7034
G1 X162.197 Y99.431 E288.78806
G1 X97.91 Y163.719 E294.23105
G1 X98.803 Y164.24 E294.29295
G1 X162.197 Y100.846 E299.6603
G1 X162.197 Y102.26 E299.74495
G1 X99.697 Y164.76 E305.03661
G1 X100.59 Y165.281 E305.0985
G1 X162.198 Y103.673 E310.31463
G1 X162.198 Y105.088 E310.39935
G1 X101.483 Y165.803 E315.53987
G1 X102.376 Y166.324 E315.60177
G1 X162.198 Y106.502 E320.66669
G1 X162.198 Y107.916 E320.75134
G1 X103.291 Y166.823 E325.73879
G1 X104.225 Y167.303 E325.80166
G1 X162.198 Y109.33 E330.71003
G1 X162.198 Y110.744 E330.79468
G1 X105.237 Y167.705 E335.61737
G1 X106.306 Y168.05 E335.68462
G1 X162.198 Y112.159 E340.41676
G1 X162.198 Y113.573 E340.50141
G1 X107.473 Y168.298 E345.13478
G1 X108.077 Y168.399 E345.17145
G1 X108.722 Y168.463 E345.21025
G1 X162.198 Y114.987 E349.73787
G1 X162.198 Y116.401 E349.82253
G1 X110.078 Y168.521 E354.23535
G1 X110.324 Y168.526 E354.25008
G1 X111.196 Y168.478 E354.30236
G1 X111.582 Y168.431 E354.32564
G1 X162.198 Y117.815 E358.61112
G1 X162.198 Y119.229 E358.69577
G1 X113.283 Y168.145 E362.83728
G1 X114.313 Y167.862 E362.90123
G1 X115.367 Y167.475 E362.96845
G1 X162.198 Y120.643 E366.9335
G1 X162.198 Y122.057 E367.01816
G1 X118.37 Y165.886 E370.72896
G1 X121.764 Y163.906 E370.9642
G1 X162.198 Y123.472 E374.38761
G1 X162.198 Y124.886 E374.47226
G1 X125.158 Y161.926 E377.60831
G1 X128.552 Y159.946 E377.84355
G1 X162.198 Y126.3 E380.69224
G1 X162.198 Y127.714 E380.77689
G1 X131.946 Y157.966 E383.33822
G1 X135.34 Y155.987 E383.57344
G1 X162.198 Y129.129 E385.84741
G1 X162.198 Y130.543 E385.93206
G1 X138.735 Y154.007 E387.91863
G1 X142.129 Y152.027 E388.15388
G1 X162.206 Y131.949 E389.85377
G1 X162.162 Y133.129 E389.92446
G1 X162.129 Y133.44 E389.94318
G1 X145.523 Y150.047 E391.3492
G1 X148.917 Y148.067 E391.58444
G1 X161.897 Y135.087 E392.68341
G1 X161.604 Y136.23 E392.75405
G1 X161.313 Y137.085 E392.80812
G1 X152.311 Y146.087 E393.57029
G1 X155.183 Y144.412 E393.76934
G1 X155.813 Y144 E393.81441
G1 X159.89 Y139.922 E394.15963
G1 X159.845 Y139.997 E394.16487
G1 X159.183 Y140.911 E394.23243
G1 X158.518 Y141.702 E394.2943
G1 X157.921 Y142.32 E394.34574
G1 X157.141 Y143.03 E394.40889
G1 X156.341 Y143.654 E394.46963
G1 F1500 E387.96963
G0 F9000 X89.113 Y97.377
G1 F1500 E394.46963
G1 F1125 X89.523 Y96.77 E394.51348
G1 X90.01 Y96.22 E394.55746
G1 X90.559 Y95.737 E394.60124
G1 X91.146 Y95.34 E394.64367
G1 X91.606 Y95.069 E394.67563
G1 X127.333 Y59.342 E397.70051
G1 X128.226 Y59.863 E397.76241
G1 X95.041 Y93.048 E400.57206
G1 X98.476 Y91.027 E400.81066
G1 X129.12 Y60.384 E403.40514
G1 X130.013 Y60.905 E403.46704
