;FLAVOR:Marlin
;TIME:4622
;Filament used: 3.59081m
;Layer height: 0.2
;MINX:67.2
;MINY:60.9
;MINZ:0.2
;MAXX:152.8
;MAXY:159.1
;MAXZ:2
;Generated with Cura_SteamEngine 5.2.2
M82 ;absolute extrusion mode
; Ender 3 Custom Start G-code
G92 E0 ; Reset Extruder
G28 ; Home all axes
M104 S175 ; Start heating up the nozzle most of the way
M190 S60 ; Start heating the bed, wait until target temperature reached
M109 S215 ; Finish heating the nozzle
G1 Z2.0 F3000 ; Move Z Axis up little to prevent scratching of Heat Bed
G1 X0.1 Y20 Z0.3 F5000.0 ; Move to start position
G1 X0.1 Y200.0 Z0.3 F1500.0 E15 ; Draw the first line
G1 X0.4 Y200.0 Z0.3 F5000.0 ; Move to side a little
G1 X0.4 Y20 Z0.3 F1500.0 E30 ; Draw the second line
G92 E0 ; Reset Extruder
G1 Z2.0 F3000 ; Move Z Axis up little to prevent scratching of Heat Bed
G1 X5 Y20 Z0.3 F5000.0 ; Move over to prevent blob squish
G92 E0
G92 E0
G1 F1500 E-6.5
;LAYER_COUNT:10
;LAYER:0
M107
G0 F6000 X107.583 Y64.301 Z0.2
;TYPE:SKIRT
G1 F1500 E0
G1 F1200 X107.858 Y63.909 E0.01593
G1 X108.209 Y63.558 E0.03244
G1 X108.601 Y63.283 E0.04836
G1 X109.042 Y63.079 E0.06452
G1 X109.518 Y62.95 E0.08093
G1 X110 Y62.908 E0.09702
G1 X110.482 Y62.95 E0.11311
G1 X110.958 Y63.079 E0.12951
G1 X111.399 Y63.283 E0.14567
G1 X111.791 Y63.558 E0.1616
G1 X112.142 Y63.909 E0.17811
G1 X112.417 Y64.301 E0.19404
G1 X112.445 Y64.362 E0.19627
G1 X111.108 Y63.582 E0.24775
G1 X110.728 Y63.406 E0.26168
G1 X110.321 Y63.306 E0.27562
G1 X109.903 Y63.284 E0.28954
G1 X109.488 Y63.342 E0.30348
G1 X109.041 Y63.495 E0.31919
G1 X107.555 Y64.362 E0.37642
G1 X107.583 Y64.301 E0.37865
G0 F6000 X107.237 Y64.099
G1 F1200 X107.552 Y63.649 E0.39692
G1 X107.949 Y63.252 E0.41559
G1 X108.399 Y62.937 E0.43386
G1 X108.906 Y62.701 E0.45246
G1 X109.452 Y62.554 E0.47127
G1 X110 Y62.506 E0.48956
G1 X110.548 Y62.554 E0.50786
G1 X111.094 Y62.701 E0.52667
G1 X111.601 Y62.937 E0.54527
G1 X112.051 Y63.252 E0.56354
G1 X112.448 Y63.649 E0.58221
G1 X112.763 Y64.099 E0.60048
G1 X112.999 Y64.606 E0.61908
G1 X113.172 Y65.248 E0.6412
G1 X110.907 Y63.927 E0.72841
G1 X110.561 Y63.772 E0.74102
G1 X110.191 Y63.692 E0.75361
G1 X109.812 Y63.692 E0.76621
G1 X109.441 Y63.771 E0.77883
G1 X109.093 Y63.927 E0.79151
G1 X106.828 Y65.248 E0.87872
G1 X107.001 Y64.606 E0.90084
G1 X107.237 Y64.099 E0.91944
G0 F6000 X106.889 Y63.898
G1 F1200 X107.246 Y63.389 E0.94012
G1 X107.689 Y62.946 E0.96095
G1 X108.198 Y62.589 E0.98163
G1 X108.768 Y62.324 E1.00254
G1 X109.381 Y62.159 E1.02365
G1 X110 Y62.105 E1.04432
G1 X110.619 Y62.159 E1.06499
G1 X111.232 Y62.324 E1.0861
G1 X111.802 Y62.589 E1.10701
G1 X112.311 Y62.946 E1.12769
G1 X112.754 Y63.389 E1.14852
G1 X113.111 Y63.898 E1.1692
G1 X113.376 Y64.468 E1.19011
G1 X113.541 Y65.081 E1.21122
G1 X113.595 Y65.7 E1.23189
G1 X113.573 Y65.946 E1.2401
G1 X110.705 Y64.273 E1.35054
G1 X110.399 Y64.14 E1.36163
G1 X110.069 Y64.084 E1.37277
G1 X109.736 Y64.107 E1.38387
G1 X109.295 Y64.273 E1.39954
G1 X106.427 Y65.946 E1.50997
G1 X106.405 Y65.7 E1.51819
G1 X106.459 Y65.081 E1.53886
G1 X106.624 Y64.468 E1.55997
G1 X106.889 Y63.898 E1.58088
G0 F6000 X106.539 Y63.7
G1 F1200 X106.94 Y63.129 E1.60408
G1 X107.429 Y62.64 E1.62708
G1 X108 Y62.239 E1.65029
G1 X108.627 Y61.948 E1.67328
G1 X109.315 Y61.763 E1.69698
G1 X110 Y61.703 E1.71985
G1 X110.685 Y61.763 E1.74272
G1 X111.373 Y61.948 E1.76641
G1 X112 Y62.239 E1.78941
G1 X112.571 Y62.64 E1.81261
G1 X113.06 Y63.129 E1.83561
G1 X113.461 Y63.7 E1.85882
G1 X113.752 Y64.327 E1.88181
G1 X113.937 Y65.015 E1.90551
G1 X113.997 Y65.7 E1.92838
G1 X113.937 Y66.385 E1.95125
G1 X113.882 Y66.588 E1.95824
G1 X110.504 Y64.618 E2.08831
G1 X110.243 Y64.512 E2.09768
G1 X109.962 Y64.483 E2.10707
G1 X109.623 Y64.544 E2.11853
G1 X106.118 Y66.588 E2.25348
G1 X106.063 Y66.385 E2.26047
G1 X106.003 Y65.7 E2.28334
G1 X106.063 Y65.015 E2.30621
G1 X106.248 Y64.327 E2.32991
G1 X106.539 Y63.7 E2.3529
G0 F6000 X106.193 Y63.497
G1 F1200 X106.63 Y62.873 E2.37824
G1 X107.173 Y62.33 E2.40378
G1 X107.797 Y61.893 E2.42912
G1 X108.493 Y61.569 E2.45465
G1 X109.238 Y61.369 E2.48031
G1 X110 Y61.302 E2.50575
G1 X110.762 Y61.369 E2.53119
G1 X111.507 Y61.569 E2.55685
G1 X112.203 Y61.893 E2.58238
G1 X112.827 Y62.33 E2.60772
G1 X113.37 Y62.873 E2.63326
G1 X113.807 Y63.497 E2.6586
G1 X114.131 Y64.193 E2.68413
G1 X114.331 Y64.938 E2.70979
G1 X114.398 Y65.7 E2.73523
G1 X114.331 Y66.462 E2.76067
G1 X114.133 Y67.199 E2.78606
G1 X110.302 Y64.964 E2.93357
G1 X110.097 Y64.89 E2.94082
G1 X109.879 Y64.894 E2.94807
G1 X109.698 Y64.964 E2.95453
G1 X105.867 Y67.199 E3.10205
G1 X105.669 Y66.462 E3.12743
G1 X105.602 Y65.7 E3.15287
G1 X105.669 Y64.938 E3.17831
G1 X105.869 Y64.193 E3.20397
G1 X106.193 Y63.497 E3.2295
G0 F6000 X105.842 Y63.302
G1 F1200 X106.327 Y62.61 E3.25761
G1 X106.91 Y62.027 E3.28503
G1 X107.602 Y61.542 E3.31314
G1 X108.353 Y61.193 E3.34068
G1 X109.172 Y60.972 E3.3689
G1 X110 Y60.9 E3.39654
G1 X110.828 Y60.972 E3.42418
G1 X111.647 Y61.193 E3.4524
G1 X112.398 Y61.542 E3.47994
G1 X113.09 Y62.027 E3.50805
G1 X113.673 Y62.61 E3.53547
G1 X114.158 Y63.302 E3.56358
G1 X114.507 Y64.053 E3.59112
G1 X114.728 Y64.872 E3.61933
G1 X114.8 Y65.7 E3.64698
G1 X114.728 Y66.528 E3.67462
G1 X114.507 Y67.347 E3.70284
G1 X114.313 Y67.766 E3.71819
G1 X110.101 Y65.309 E3.88038
G1 X109.953 Y65.277 E3.88541
G1 X105.687 Y67.766 E4.04969
G1 X105.493 Y67.347 E4.06504
G1 X105.272 Y66.528 E4.09326
G1 X105.2 Y65.7 E4.1209
G1 X105.272 Y64.872 E4.14854
G1 X105.493 Y64.053 E4.17676
G1 X105.842 Y63.302 E4.2043
G1 F1500 E-2.2957
G0 F6000 X75.974 Y84.673
G1 F1500 E4.2043
G1 F1200 X76.185 Y84.975 E4.21656
G1 X71.739 Y87.568 E4.38774
G1 X71.64 Y87.68 E4.39271
G1 X71.64 Y92.569 E4.55532
G1 X71.172 Y92.528 E4.57095
G1 X70.353 Y92.307 E4.59916
G1 X69.602 Y91.958 E4.62671
G1 X68.91 Y91.473 E4.65481
G1 X68.327 Y90.89 E4.68224
G1 X67.842 Y90.198 E4.71034
G1 X67.493 Y89.447 E4.73789
G1 X67.272 Y88.628 E4.7661
G1 X67.2 Y87.8 E4.79374
G1 X67.272 Y86.972 E4.82139
G1 X67.493 Y86.153 E4.8496
G1 X67.842 Y85.402 E4.87714
G1 X68.327 Y84.71 E4.90525
G1 X68.91 Y84.127 E4.93267
G1 X69.602 Y83.642 E4.96078
G1 X70.354 Y83.292 E4.98837
G1 X71.171 Y83.073 E5.0165
G1 X71.481 Y83.034 E5.02689
G1 X72.3 Y82.963 E5.05423
G1 X73.135 Y83.036 E5.08211
G1 X73.941 Y83.251 E5.10986
G1 X74.698 Y83.605 E5.13765
G1 X75.392 Y84.091 E5.16583
G1 X75.974 Y84.673 E5.19321
G0 F6000 X75.593 Y84.858
G1 F1200 X71.538 Y87.223 E5.34934
G1 X71.372 Y87.365 E5.35661
G1 X71.269 Y87.557 E5.36385
G1 X71.24 Y87.741 E5.37005
G1 X71.24 Y92.131 E5.51606
G1 X70.493 Y91.931 E5.54178
G1 X69.797 Y91.607 E5.56731
G1 X69.173 Y91.17 E5.59265
G1 X68.63 Y90.627 E5.61819
G1 X68.193 Y90.003 E5.64353
G1 X67.869 Y89.307 E5.66906
G1 X67.669 Y88.562 E5.69472
G1 X67.602 Y87.8 E5.72016
G1 X67.669 Y87.038 E5.74561
G1 X67.869 Y86.293 E5.77126
G1 X68.193 Y85.597 E5.7968
G1 X68.631 Y84.972 E5.82218
G1 X69.173 Y84.43 E5.84767
G1 X69.797 Y83.993 E5.87301
G1 X70.49 Y83.67 E5.89844
G1 X71.241 Y83.469 E5.9243
G1 X71.555 Y83.43 E5.93482
G1 X72.3 Y83.365 E5.9597
G1 X73.065 Y83.432 E5.98524
G1 X73.804 Y83.629 E6.01067
G1 X74.499 Y83.954 E6.03619
G1 X75.133 Y84.398 E6.06194
G1 X75.593 Y84.858 E6.08357
G0 F6000 X74.958 Y84.764
G1 F1200 X71.336 Y86.877 E6.22304
G1 X71.115 Y87.052 E6.23242
G1 X70.951 Y87.282 E6.24181
G1 X70.84 Y87.604 E6.25314
G1 X70.84 Y91.609 E6.38635
G1 X70.627 Y91.552 E6.39368
G1 X70 Y91.261 E6.41667
G1 X69.429 Y90.86 E6.43988
G1 X68.94 Y90.371 E6.46288
G1 X68.539 Y89.8 E6.48609
G1 X68.248 Y89.173 E6.50908
G1 X68.063 Y88.485 E6.53278
G1 X68.003 Y87.8 E6.55565
G1 X68.063 Y87.115 E6.57852
G1 X68.248 Y86.427 E6.60221
G1 X68.539 Y85.8 E6.6252
G1 X68.94 Y85.229 E6.64841
G1 X69.429 Y84.74 E6.67141
G1 X69.999 Y84.34 E6.69457
G1 X70.632 Y84.046 E6.71778
G1 X71.31 Y83.864 E6.74113
G1 X71.595 Y83.827 E6.75069
G1 X72.3 Y83.766 E6.77423
G1 X72.996 Y83.827 E6.79747
G1 X73.667 Y84.006 E6.82056
G1 X74.297 Y84.3 E6.84369
G1 X74.958 Y84.764 E6.87055
G0 F6000 X74.218 Y84.734
G1 F1200 X71.135 Y86.532 E6.98925
G1 X70.868 Y86.733 E7.00037
G1 X70.657 Y86.992 E7.01148
G1 X70.513 Y87.294 E7.02261
G1 X70.44 Y87.741 E7.03767
G1 X70.44 Y91.023 E7.14683
G1 X70.198 Y90.911 E7.1557
G1 X69.689 Y90.554 E7.17638
G1 X69.246 Y90.111 E7.19722
G1 X68.889 Y89.602 E7.2179
G1 X68.624 Y89.032 E7.2388
G1 X68.459 Y88.419 E7.25992
G1 X68.405 Y87.8 E7.28058
G1 X68.459 Y87.181 E7.30125
G1 X68.624 Y86.568 E7.32236
G1 X68.889 Y85.998 E7.34327
G1 X69.246 Y85.489 E7.36395
G1 X69.689 Y85.046 E7.38479
G1 X70.203 Y84.686 E7.40566
G1 X70.766 Y84.424 E7.42631
G1 X71.376 Y84.261 E7.44731
G1 X71.626 Y84.227 E7.4557
G1 X72.299 Y84.168 E7.47817
G1 X72.927 Y84.223 E7.49914
G1 X73.535 Y84.386 E7.52008
G1 X74.093 Y84.646 E7.54055
G1 X74.218 Y84.734 E7.54564
G0 F6000 X73.381 Y84.758
G1 F1200 X70.933 Y86.186 E7.6399
G1 X70.628 Y86.41 E7.65248
G1 X70.376 Y86.694 E7.66511
G1 X70.189 Y87.024 E7.67773
G1 X70.076 Y87.385 E7.69031
G1 X70.04 Y87.741 E7.70221
G1 X70.04 Y90.312 E7.78772
G1 X69.949 Y90.248 E7.79142
G1 X69.552 Y89.851 E7.8101
G1 X69.237 Y89.401 E7.82837
G1 X69.001 Y88.894 E7.84697
G1 X68.854 Y88.348 E7.86577
G1 X68.806 Y87.8 E7.88407
G1 X68.854 Y87.252 E7.90236
G1 X69.001 Y86.706 E7.92117
G1 X69.237 Y86.199 E7.93977
G1 X69.552 Y85.749 E7.95804
G1 X69.949 Y85.352 E7.97672
G1 X70.402 Y85.035 E7.9951
G1 X70.902 Y84.802 E8.01345
G1 X71.52 Y84.637 E8.03473
G1 X72.299 Y84.569 E8.06073
G1 X72.857 Y84.618 E8.07937
G1 X73.381 Y84.758 E8.0974
G0 F6000 X72.21 Y84.979
G1 F1200 X70.732 Y85.841 E8.15431
G1 X70.391 Y86.085 E8.16826
G1 X70.104 Y86.39 E8.18219
G1 X69.879 Y86.744 E8.19614
G1 X69.725 Y87.134 E8.21009
G1 X69.64 Y87.741 E8.23047
G1 X69.64 Y89.28 E8.28166
G1 X69.583 Y89.199 E8.28495
G1 X69.379 Y88.758 E8.30111
G1 X69.25 Y88.282 E8.31752
G1 X69.208 Y87.8 E8.33361
G1 X69.25 Y87.318 E8.3497
G1 X69.379 Y86.842 E8.3661
G1 X69.583 Y86.401 E8.38227
G1 X69.858 Y86.009 E8.39819
G1 X70.209 Y85.658 E8.4147
G1 X70.599 Y85.384 E8.43055
G1 X71.044 Y85.177 E8.44688
G1 X71.582 Y85.033 E8.4654
G1 X72.21 Y84.979 E8.48637
G1 F1500 E1.98637
G0 F6000 X71.341 Y87.455
G0 X71.335 Y127.431
G0 X71.64 Y127.431
G1 F1500 E8.48637
G1 F1200 X71.64 Y132.259 E8.64695
G1 X71.687 Y132.401 E8.65192
G1 X75.953 Y134.89 E8.81619
G1 X75.673 Y135.29 E8.83243
G1 X75.09 Y135.873 E8.85986
G1 X74.398 Y136.358 E8.88796
G1 X73.647 Y136.707 E8.91551
G1 X72.828 Y136.928 E8.94372
G1 X72 Y137 E8.97136
G1 X71.172 Y136.928 E8.99901
G1 X70.353 Y136.707 E9.02722
G1 X69.602 Y136.358 E9.05476
G1 X68.91 Y135.873 E9.08287
G1 X68.327 Y135.29 E9.11029
G1 X67.842 Y134.598 E9.1384
G1 X67.493 Y133.847 E9.16594
G1 X67.272 Y133.028 E9.19416
G1 X67.2 Y132.2 E9.2218
G1 X67.272 Y131.372 E9.24944
G1 X67.493 Y130.553 E9.27766
G1 X67.842 Y129.802 E9.3052
G1 X68.327 Y129.11 E9.33331
G1 X68.91 Y128.527 E9.36073
G1 X69.602 Y128.042 E9.38884
G1 X70.353 Y127.693 E9.41638
G1 X71.172 Y127.472 E9.4446
G1 X71.64 Y127.431 E9.46022
G0 F6000 X71.24 Y127.869
G1 F1200 X71.24 Y132.259 E9.60623
G1 X71.28 Y132.474 E9.61351
G1 X71.393 Y132.66 E9.62074
G1 X71.538 Y132.777 E9.62694
G1 X75.377 Y135.017 E9.77477
G1 X74.827 Y135.57 E9.80071
G1 X74.203 Y136.007 E9.82605
G1 X73.507 Y136.331 E9.85159
G1 X72.762 Y136.531 E9.87724
G1 X72 Y136.598 E9.90268
G1 X71.238 Y136.531 E9.92813
G1 X70.493 Y136.331 E9.95378
G1 X69.797 Y136.007 E9.97932
G1 X69.173 Y135.57 E10.00466
G1 X68.63 Y135.027 E10.0302
G1 X68.193 Y134.403 E10.05553
G1 X67.869 Y133.707 E10.08107
G1 X67.669 Y132.962 E10.10672
G1 X67.602 Y132.2 E10.13217
G1 X67.669 Y131.438 E10.15761
G1 X67.869 Y130.693 E10.18326
G1 X68.193 Y129.997 E10.2088
G1 X68.63 Y129.373 E10.23414
G1 X69.173 Y128.83 E10.25968
G1 X69.797 Y128.393 E10.28502
G1 X70.493 Y128.069 E10.31055
G1 X71.24 Y127.869 E10.33627
G0 F6000 X70.84 Y128.391
G1 F1200 X70.84 Y132.259 E10.46492
G1 X70.88 Y132.538 E10.4743
G1 X70.996 Y132.795 E10.48367
G1 X71.215 Y133.053 E10.49493
G1 X74.729 Y135.102 E10.63022
G1 X74.571 Y135.26 E10.63765
G1 X74 Y135.661 E10.66086
G1 X73.373 Y135.952 E10.68385
G1 X72.685 Y136.137 E10.70755
G1 X72 Y136.197 E10.73042
G1 X71.315 Y136.137 E10.75329
G1 X70.627 Y135.952 E10.77698
G1 X70 Y135.661 E10.79998
G1 X69.429 Y135.26 E10.82318
G1 X68.94 Y134.771 E10.84618
G1 X68.539 Y134.2 E10.86939
G1 X68.248 Y133.573 E10.89238
G1 X68.063 Y132.885 E10.91608
G1 X68.003 Y132.2 E10.93895
G1 X68.063 Y131.515 E10.96182
G1 X68.248 Y130.827 E10.98551
G1 X68.539 Y130.2 E11.0085
G1 X68.94 Y129.629 E11.03171
G1 X69.429 Y129.14 E11.05471
G1 X70 Y128.739 E11.07792
G1 X70.627 Y128.448 E11.10091
G1 X70.84 Y128.391 E11.10824
G0 F6000 X70.44 Y128.977
G1 F1200 X70.44 Y132.259 E11.2174
G1 X70.48 Y132.591 E11.22853
G1 X70.597 Y132.903 E11.23961
G1 X70.785 Y133.18 E11.25074
G1 X71.135 Y133.468 E11.26582
G1 X74.026 Y135.154 E11.37713
G1 X73.802 Y135.311 E11.38623
G1 X73.232 Y135.576 E11.40714
G1 X72.619 Y135.741 E11.42825
G1 X72 Y135.795 E11.44892
G1 X71.381 Y135.741 E11.46958
G1 X70.768 Y135.576 E11.4907
G1 X70.198 Y135.311 E11.5116
G1 X69.689 Y134.954 E11.53228
G1 X69.246 Y134.511 E11.55312
G1 X68.889 Y134.002 E11.5738
G1 X68.624 Y133.432 E11.5947
G1 X68.459 Y132.819 E11.61582
G1 X68.405 Y132.2 E11.63648
G1 X68.459 Y131.581 E11.65715
G1 X68.624 Y130.968 E11.67827
G1 X68.889 Y130.398 E11.69917
G1 X69.246 Y129.889 E11.71985
G1 X69.689 Y129.446 E11.74069
G1 X70.198 Y129.089 E11.76137
G1 X70.44 Y128.977 E11.77024
G0 F6000 X70.04 Y129.688
G1 F1200 X70.04 Y132.259 E11.85575
G1 X70.08 Y132.636 E11.86836
G1 X70.198 Y132.996 E11.88096
G1 X70.388 Y133.323 E11.89354
G1 X70.643 Y133.604 E11.90616
G1 X70.933 Y133.814 E11.91807
G1 X73.213 Y135.144 E12.00586
G1 X73.094 Y135.199 E12.01022
G1 X72.548 Y135.346 E12.02902
G1 X72 Y135.394 E12.04732
G1 X71.452 Y135.346 E12.06562
G1 X70.906 Y135.199 E12.08442
G1 X70.399 Y134.963 E12.10302
G1 X69.949 Y134.648 E12.12129
G1 X69.552 Y134.251 E12.13997
G1 X69.237 Y133.801 E12.15824
G1 X69.001 Y133.294 E12.17684
G1 X68.854 Y132.748 E12.19564
G1 X68.806 Y132.2 E12.21394
G1 X68.854 Y131.652 E12.23224
G1 X69.001 Y131.106 E12.25104
G1 X69.237 Y130.599 E12.26964
G1 X69.552 Y130.149 E12.28791
G1 X69.949 Y129.752 E12.30659
G1 X70.04 Y129.688 E12.31029
G0 F6000 X69.64 Y130.72
G1 F1200 X69.64 Y132.259 E12.36147
G1 X69.68 Y132.676 E12.37541
G1 X69.798 Y133.078 E12.38934
G1 X69.991 Y133.45 E12.40328
G1 X70.25 Y133.779 E12.41721
G1 X70.731 Y134.159 E12.4376
G1 X72.138 Y134.98 E12.49178
G1 X72 Y134.992 E12.49638
G1 X71.518 Y134.95 E12.51248
G1 X71.042 Y134.821 E12.52888
G1 X70.601 Y134.617 E12.54504
G1 X70.209 Y134.342 E12.56097
G1 X69.858 Y133.991 E12.57748
G1 X69.583 Y133.599 E12.5934
G1 X69.379 Y133.158 E12.60956
G1 X69.25 Y132.682 E12.62597
G1 X69.208 Y132.2 E12.64206
G1 X69.25 Y131.718 E12.65815
G1 X69.379 Y131.242 E12.67455
G1 X69.583 Y130.801 E12.69072
G1 X69.64 Y130.72 E12.69401
G1 F1500 E6.19401
G0 F6000 X71.341 Y132.545
G0 X105.534 Y152.498
G0 X105.687 Y152.234
G1 F1500 E12.69401
G1 F1200 X109.899 Y154.691 E12.85619
G1 X110.047 Y154.723 E12.86123
G1 X114.313 Y152.234 E13.0255
G1 X114.507 Y152.653 E13.04086
G1 X114.728 Y153.472 E13.06907
G1 X114.8 Y154.3 E13.09672
G1 X114.728 Y155.128 E13.12436
G1 X114.507 Y155.947 E13.15258
G1 X114.158 Y156.698 E13.18012
G1 X113.673 Y157.39 E13.20823
G1 X113.09 Y157.973 E13.23565
G1 X112.398 Y158.458 E13.26375
G1 X111.647 Y158.807 E13.2913
G1 X110.828 Y159.028 E13.31951
G1 X110 Y159.1 E13.34716
G1 X109.172 Y159.028 E13.3748
G1 X108.353 Y158.807 E13.40301
G1 X107.602 Y158.458 E13.43056
G1 X106.91 Y157.973 E13.45866
G1 X106.327 Y157.39 E13.48609
G1 X105.842 Y156.698 E13.51419
G1 X105.493 Y155.947 E13.54174
G1 X105.272 Y155.128 E13.56995
G1 X105.2 Y154.3 E13.59759
G1 X105.272 Y153.472 E13.62524
G1 X105.493 Y152.653 E13.65345
G1 X105.687 Y152.234 E13.66881
G0 F6000 X105.867 Y152.801
G1 F1200 X109.698 Y155.036 E13.81633
G1 X109.903 Y155.11 E13.82358
G1 X110.121 Y155.106 E13.83083
G1 X110.302 Y155.036 E13.83728
G1 X114.133 Y152.801 E13.9848
G1 X114.331 Y153.538 E14.01018
G1 X114.398 Y154.3 E14.03562
G1 X114.331 Y155.062 E14.06107
G1 X114.131 Y155.807 E14.08672
G1 X113.807 Y156.503 E14.11226
G1 X113.37 Y157.127 E14.13759
G1 X112.827 Y157.67 E14.16314
G1 X112.203 Y158.107 E14.18847
G1 X111.507 Y158.431 E14.21401
