;FLAVOR:Marlin
;TIME:14050
;Filament used: 11.7795m
;Layer height: 0.2
;MINX:35.5
;MINY:24.932
;MINZ:0.2
;MAXX:184.5
;MAXY:195.068
;MAXZ:3.4
;Generated with Cura_SteamEngine 5.2.2
M82 ;absolute extrusion mode
; Ender 3 Custom Start G-code
G92 E0 ; Reset Extruder
G28 ; Home all axes
M104 S175 ; Start heating up the nozzle most of the way
M190 S60 ; Start heating the bed, wait until target temperature reached
M109 S200 ; Finish heating the nozzle
G1 Z2.0 F3000 ; Move Z Axis up little to prevent scratching of Heat Bed
G1 X0.1 Y20 Z0.3 F5000.0 ; Move to start position
G1 X0.1 Y200.0 Z0.3 F1500.0 E15 ; Draw the first line
G1 X0.4 Y200.0 Z0.3 F5000.0 ; Move to side a little
G1 X0.4 Y20 Z0.3 F1500.0 E30 ; Draw the second line
G92 E0 ; Reset Extruder
G1 Z2.0 F3000 ; Move Z Axis up little to prevent scratching of Heat Bed
G1 X5 Y20 Z0.3 F5000.0 ; Move over to prevent blob squish
G92 E0
G92 E0
G1 F1500 E-6.5
;LAYER_COUNT:17
;LAYER:0
M107
G0 F6000 X40.836 Y63.54 Z0.2
;TYPE:SKIRT
G1 F1500 E0
G1 F1200 X41.404 Y63.198 E0.02205
G1 X104.016 Y26.673 E2.43297
G1 X104.597 Y26.346 E2.45515
G1 X105.433 Y25.921 E2.48634
G1 X106.302 Y25.569 E2.51752
G1 X107.198 Y25.293 E2.54871
G1 X108.115 Y25.093 E2.57992
G1 X109.045 Y24.973 E2.61111
G1 X109.982 Y24.932 E2.64231
G1 X110.919 Y24.971 E2.6735
G1 X111.849 Y25.09 E2.70468
G1 X112.766 Y25.288 E2.73588
G1 X113.663 Y25.563 E2.76709
G1 X114.533 Y25.913 E2.79828
G1 X115.356 Y26.329 E2.82895
G1 X116.371 Y26.898 E2.86765
G1 X178.538 Y63.164 E5.26145
G1 X179.154 Y63.534 E5.28535
G1 X179.937 Y64.051 E5.31656
G1 X180.672 Y64.633 E5.34774
G1 X181.356 Y65.275 E5.37894
G1 X181.982 Y65.973 E5.41012
G1 X182.547 Y66.722 E5.44133
G1 X183.046 Y67.516 E5.47252
G1 X183.475 Y68.35 E5.50371
G1 X183.832 Y69.217 E5.5349
G1 X184.114 Y70.111 E5.56608
G1 X184.318 Y71.027 E5.59729
G1 X184.444 Y71.956 E5.62847
G1 X184.488 Y72.771 E5.65562
G1 X184.5 Y73.533 E5.68097
G1 X184.499 Y146.491 E8.10756
G1 X184.489 Y147.193 E8.13091
G1 X184.436 Y148.129 E8.16209
G1 X184.303 Y149.057 E8.19327
G1 X184.091 Y149.971 E8.22448
G1 X183.803 Y150.864 E8.25569
G1 X183.439 Y151.728 E8.28687
G1 X183.003 Y152.559 E8.31808
G1 X182.498 Y153.349 E8.34927
G1 X181.928 Y154.093 E8.38044
G1 X181.296 Y154.786 E8.41164
G1 X180.607 Y155.423 E8.44284
G1 X179.867 Y155.999 E8.47403
G1 X179.164 Y156.46 E8.502
G1 X178.596 Y156.802 E8.52405
G1 X115.984 Y193.327 E10.93497
G1 X115.403 Y193.654 E10.95714
G1 X114.567 Y194.079 E10.98834
G1 X113.698 Y194.431 E11.01952
G1 X112.802 Y194.707 E11.0507
G1 X111.885 Y194.907 E11.08192
G1 X110.955 Y195.027 E11.11311
G1 X110.018 Y195.068 E11.1443
G1 X109.081 Y195.029 E11.17549
G1 X108.151 Y194.91 E11.20668
G1 X107.234 Y194.712 E11.23788
G1 X106.337 Y194.437 E11.26908
G1 X105.467 Y194.087 E11.30027
G1 X104.644 Y193.671 E11.33095
G1 X103.629 Y193.102 E11.36965
G1 X41.462 Y156.836 E13.76344
G1 X40.846 Y156.466 E13.78734
G1 X40.063 Y155.949 E13.81855
G1 X39.328 Y155.367 E13.84973
G1 X38.644 Y154.725 E13.88093
G1 X38.018 Y154.027 E13.91212
G1 X37.453 Y153.278 E13.94332
G1 X36.954 Y152.484 E13.97451
G1 X36.525 Y151.65 E14.00571
G1 X36.168 Y150.783 E14.03689
G1 X35.886 Y149.889 E14.06807
G1 X35.682 Y148.973 E14.09929
G1 X35.556 Y148.044 E14.13047
G1 X35.512 Y147.229 E14.15761
G1 X35.5 Y146.467 E14.18296
G1 X35.501 Y73.509 E16.60955
G1 X35.511 Y72.807 E16.6329
G1 X35.564 Y71.871 E16.66409
G1 X35.697 Y70.943 E16.69527
G1 X35.909 Y70.029 E16.72647
G1 X36.197 Y69.136 E16.75768
G1 X36.561 Y68.272 E16.78886
G1 X36.997 Y67.441 E16.82008
G1 X37.502 Y66.651 E16.85126
G1 X38.072 Y65.907 E16.88244
G1 X38.704 Y65.214 E16.91363
G1 X39.393 Y64.577 E16.94484
G1 X40.133 Y64.001 E16.97603
G1 X40.836 Y63.54 E17.00399
G0 F6000 X41.042 Y63.883
G1 F1200 X41.61 Y63.541 E17.02604
G1 X104.212 Y27.022 E19.43658
G1 X104.793 Y26.695 E19.45875
G1 X105.614 Y26.278 E19.48938
G1 X106.468 Y25.935 E19.51999
G1 X107.349 Y25.667 E19.55061
G1 X108.25 Y25.476 E19.58125
G1 X109.164 Y25.364 E19.61187
G1 X110.084 Y25.332 E19.64249
G1 X111.003 Y25.38 E19.6731
G1 X111.915 Y25.508 E19.70373
G1 X112.812 Y25.714 E19.73434
G1 X113.688 Y25.997 E19.76496
G1 X114.536 Y26.355 E19.79558
G1 X115.161 Y26.678 E19.81898
G1 X116.169 Y27.243 E19.85741
G1 X178.332 Y63.507 E22.25106
G1 X178.948 Y63.877 E22.27496
G1 X179.716 Y64.385 E22.30558
G1 X180.437 Y64.958 E22.33621
G1 X181.105 Y65.591 E22.36682
G1 X181.716 Y66.279 E22.39743
G1 X182.265 Y67.018 E22.42805
G1 X182.748 Y67.802 E22.45867
G1 X183.161 Y68.625 E22.4893
G1 X183.501 Y69.481 E22.51993
G1 X183.766 Y70.362 E22.55053
G1 X183.953 Y71.264 E22.58117
G1 X184.061 Y72.178 E22.61178
G1 X184.088 Y72.778 E22.63176
G1 X184.1 Y73.533 E22.65687
G1 X184.099 Y146.485 E25.08327
G1 X184.089 Y147.187 E25.10662
G1 X184.036 Y148.106 E25.13724
G1 X183.903 Y149.017 E25.16786
G1 X183.692 Y149.913 E25.19847
G1 X183.404 Y150.788 E25.22911
G1 X183.041 Y151.634 E25.25973
G1 X182.606 Y152.445 E25.29034
G1 X182.102 Y153.216 E25.32098
G1 X181.534 Y153.94 E25.35158
G1 X180.904 Y154.612 E25.38222
G1 X180.219 Y155.226 E25.41282
G1 X179.483 Y155.779 E25.44343
G1 X178.958 Y156.117 E25.4642
G1 X178.39 Y156.459 E25.48625
G1 X115.788 Y192.978 E27.89679
G1 X115.207 Y193.305 E27.91896
G1 X114.386 Y193.722 E27.94959
G1 X113.532 Y194.065 E27.9802
G1 X112.651 Y194.333 E28.01083
G1 X111.75 Y194.524 E28.04146
G1 X110.836 Y194.636 E28.07209
G1 X109.916 Y194.668 E28.1027
G1 X108.997 Y194.62 E28.13331
G1 X108.085 Y194.492 E28.16394
G1 X107.188 Y194.286 E28.19455
G1 X106.312 Y194.003 E28.22517
G1 X105.464 Y193.645 E28.25579
G1 X104.839 Y193.322 E28.27919
G1 X103.831 Y192.757 E28.31762
G1 X41.668 Y156.493 E30.71127
G1 X41.052 Y156.123 E30.73517
G1 X40.284 Y155.615 E30.76579
G1 X39.563 Y155.042 E30.79643
G1 X38.895 Y154.409 E30.82703
G1 X38.284 Y153.721 E30.85764
G1 X37.735 Y152.982 E30.88826
G1 X37.252 Y152.198 E30.91889
G1 X36.839 Y151.375 E30.94951
G1 X36.499 Y150.519 E30.98015
G1 X36.234 Y149.638 E31.01075
G1 X36.047 Y148.736 E31.04138
G1 X35.939 Y147.822 E31.072
G1 X35.912 Y147.222 E31.09197
G1 X35.9 Y146.467 E31.11709
G1 X35.901 Y73.515 E33.54348
G1 X35.911 Y72.813 E33.56683
G1 X35.964 Y71.894 E33.59745
G1 X36.097 Y70.983 E33.62807
G1 X36.308 Y70.087 E33.65868
G1 X36.596 Y69.212 E33.68932
G1 X36.959 Y68.366 E33.71994
G1 X37.394 Y67.555 E33.75055
G1 X37.898 Y66.784 E33.78119
G1 X38.466 Y66.06 E33.81179
G1 X39.096 Y65.388 E33.84243
G1 X39.781 Y64.774 E33.87303
G1 X40.517 Y64.221 E33.90365
G1 X41.042 Y63.883 E33.92441
G0 F6000 X41.249 Y64.226
G1 F1200 X41.938 Y63.812 E33.95115
G1 X104.408 Y27.37 E36.3566
G1 X104.989 Y27.043 E36.37877
G1 X105.795 Y26.635 E36.40882
G1 X106.634 Y26.301 E36.43886
G1 X107.499 Y26.041 E36.4689
G1 X108.383 Y25.86 E36.49891
G1 X109.281 Y25.757 E36.52897
G1 X110.184 Y25.734 E36.55902
G1 X111.085 Y25.791 E36.58904
G1 X111.978 Y25.927 E36.61909
G1 X112.855 Y26.142 E36.64912
G1 X113.709 Y26.434 E36.67914
G1 X114.535 Y26.8 E36.70919
G1 X114.966 Y27.027 E36.72539
G1 X115.968 Y27.589 E36.7636
G1 X178.126 Y63.85 E39.15705
G1 X178.742 Y64.22 E39.18095
G1 X179.495 Y64.719 E39.211
G1 X180.201 Y65.282 E39.24103
G1 X180.854 Y65.906 E39.27107
G1 X181.449 Y66.585 E39.3011
G1 X181.982 Y67.314 E39.33114
G1 X182.449 Y68.087 E39.36118
G1 X182.845 Y68.899 E39.39122
G1 X183.168 Y69.742 E39.42125
G1 X183.415 Y70.611 E39.4513
G1 X183.584 Y71.498 E39.48133
G1 X183.688 Y72.785 E39.52428
G1 X183.7 Y73.533 E39.54916
G1 X183.699 Y146.479 E41.97535
G1 X183.689 Y147.181 E41.9987
G1 X183.636 Y148.083 E42.02875
G1 X183.504 Y148.976 E42.05878
G1 X183.293 Y149.854 E42.08881
G1 X183.005 Y150.71 E42.11885
G1 X182.643 Y151.538 E42.14891
G1 X182.209 Y152.33 E42.17894
G1 X181.706 Y153.08 E42.20898
G1 X181.14 Y153.783 E42.239
G1 X180.513 Y154.433 E42.26904
G1 X179.831 Y155.025 E42.29907
G1 X178.751 Y155.774 E42.34279
G1 X178.062 Y156.188 E42.36952
G1 X115.592 Y192.63 E44.77497
G1 X115.011 Y192.957 E44.79715
G1 X114.205 Y193.365 E44.82719
G1 X113.366 Y193.699 E44.85723
G1 X112.501 Y193.959 E44.88727
G1 X111.617 Y194.14 E44.91728
G1 X110.719 Y194.243 E44.94735
G1 X109.816 Y194.266 E44.97739
G1 X108.915 Y194.209 E45.00742
G1 X108.022 Y194.073 E45.03746
G1 X107.145 Y193.858 E45.06749
G1 X106.291 Y193.566 E45.09751
G1 X105.465 Y193.2 E45.12756
G1 X105.034 Y192.973 E45.14376
G1 X104.032 Y192.411 E45.18197
G1 X41.874 Y156.15 E47.57543
G1 X41.258 Y155.78 E47.59933
G1 X40.505 Y155.281 E47.62937
G1 X39.799 Y154.718 E47.65941
G1 X39.146 Y154.094 E47.68945
G1 X38.551 Y153.415 E47.71948
G1 X38.018 Y152.686 E47.74951
G1 X37.551 Y151.913 E47.77955
G1 X37.155 Y151.101 E47.8096
G1 X36.832 Y150.258 E47.83962
G1 X36.585 Y149.389 E47.86967
G1 X36.416 Y148.502 E47.8997
G1 X36.312 Y147.215 E47.94265
G1 X36.3 Y146.467 E47.96753
G1 X36.301 Y73.521 E50.39372
G1 X36.311 Y72.819 E50.41708
G1 X36.364 Y71.917 E50.44713
G1 X36.496 Y71.024 E50.47715
G1 X36.707 Y70.146 E50.50719
G1 X36.995 Y69.29 E50.53722
G1 X37.357 Y68.462 E50.56728
G1 X37.791 Y67.67 E50.59732
G1 X38.294 Y66.92 E50.62735
G1 X38.86 Y66.217 E50.65737
G1 X39.487 Y65.567 E50.68741
G1 X40.169 Y64.975 E50.71745
G1 X41.249 Y64.226 E50.76116
G1 F1500 E44.26116
;MESH:Base2mm.stl
G0 F6000 X46.561 Y72.154
G0 X110 Y183.387
;TYPE:WALL-INNER
G1 F1500 E50.76116
G1 F1200 X172.9 Y146.695 E53.18316
G1 X172.9 Y73.305 E55.62412
G1 X110 Y36.613 E58.04611
G1 X47.1 Y73.305 E60.46811
G1 X47.1 Y146.695 E62.90907
G1 X110 Y183.387 E65.33106
G0 F6000 X110 Y183.85
;TYPE:WALL-OUTER
G1 F1200 X173.3 Y146.925 E67.76845
G1 X173.3 Y73.075 E70.22471
G1 X110 Y36.15 E72.6621
G1 X46.7 Y73.075 E75.09949
G1 X46.7 Y146.925 E77.55575
G1 X110 Y183.85 E79.99315
G0 F6000 X110 Y182.968
;TYPE:SKIN
G1 F1200 X172.54 Y146.487 E82.40126
G1 X172.54 Y73.513 E84.82839
G1 X110 Y37.032 E87.2365
G1 X47.46 Y73.513 E89.64462
G1 X47.46 Y146.487 E92.07174
G1 X110 Y182.968 E94.47986
G1 F1500 E87.97986
G0 F6000 X109.868 Y183.193
G0 X47.303 Y146.697
G1 F1500 E94.47986
G0 F6000 X47.659 Y146.088
G1 F1200 X48.335 Y146.764 E94.51165
G0 F6000 X48.102 Y147.163
G0 X47.266 Y146.599
G0 X47.2 Y145.523
G0 X47.659 Y145.523
G1 F1200 X49.693 Y147.556 E94.6073
G0 F6000 X49.46 Y147.955
G0 X50.817 Y148.746
G0 X51.05 Y148.348
G1 F1200 X47.659 Y144.957 E94.76681
G0 F6000 X47.659 Y144.391
G1 F1200 X52.408 Y149.14 E94.99018
G0 F6000 X52.175 Y149.539
G0 X53.533 Y150.331
G0 X53.766 Y149.932
G1 F1200 X47.659 Y143.826 E95.27741
G0 F6000 X47.659 Y143.26
G1 F1200 X55.123 Y150.724 E95.6285
G0 F6000 X54.89 Y151.122
G0 X56.248 Y151.914
G0 X56.481 Y151.516
G1 F1200 X47.659 Y142.694 E96.04346
G0 F6000 X47.659 Y142.129
G1 F1200 X57.839 Y152.308 E96.52227
G0 F6000 X57.606 Y152.706
G0 X58.963 Y153.498
G0 X59.196 Y153.1
G1 F1200 X47.659 Y141.563 E97.06494
G0 F6000 X47.659 Y140.997
G1 F1200 X60.554 Y153.892 E97.67148
G0 F6000 X60.321 Y154.29
G0 X61.679 Y155.082
G0 X61.912 Y154.684
G1 F1200 X47.659 Y140.432 E98.34187
G0 F6000 X47.659 Y139.866
G1 F1200 X63.269 Y155.476 E99.07612
G0 F6000 X63.036 Y155.874
G0 X64.394 Y156.666
G0 X64.627 Y156.268
G1 F1200 X47.659 Y139.3 E99.87424
G0 F6000 X47.659 Y138.735
G1 F1200 X65.985 Y157.06 E100.73622
G0 F6000 X65.752 Y157.458
G0 X67.109 Y158.25
G0 X67.342 Y157.852
G1 F1200 X47.659 Y138.169 E101.66204
G0 F6000 X47.659 Y137.603
G1 F1200 X68.699 Y158.643 E102.6517
G0 F6000 X68.466 Y159.041
G0 X69.824 Y159.833
G0 X70.057 Y159.435
G1 F1200 X47.659 Y137.038 E103.70521
G0 F6000 X47.659 Y136.472
G1 F1200 X71.414 Y160.227 E104.82257
G0 F6000 X71.181 Y160.625
G0 X72.539 Y161.417
G0 X72.772 Y161.019
G1 F1200 X47.659 Y135.906 E106.00381
G0 F6000 X47.659 Y135.34
G1 F1200 X74.13 Y161.811 E107.24893
G0 F6000 X73.897 Y162.209
G0 X75.254 Y163.001
G0 X75.487 Y162.603
G1 F1200 X47.659 Y134.775 E108.55787
G0 F6000 X47.659 Y134.209
G1 F1200 X76.845 Y163.395 E109.93069
G0 F6000 X76.612 Y163.793
G0 X77.97 Y164.585
G0 X78.203 Y164.187
G1 F1200 X47.659 Y133.643 E111.36739
G0 F6000 X47.659 Y133.078
G1 F1200 X79.56 Y164.979 E112.86791
G0 F6000 X79.327 Y165.377
G0 X80.685 Y166.169
G0 X80.918 Y165.771
G1 F1200 X47.659 Y132.512 E114.43231
G0 F6000 X47.659 Y131.946
G1 F1200 X82.276 Y166.563 E116.06059
G0 F6000 X82.043 Y166.961
G0 X83.4 Y167.753
G0 X83.633 Y167.355
G1 F1200 X47.659 Y131.381 E117.7527
G0 F6000 X47.659 Y130.815
G1 F1200 X84.991 Y168.147 E119.50868
G0 F6000 X84.758 Y168.545
G0 X86.116 Y169.337
G0 X86.349 Y168.939
G1 F1200 X47.659 Y130.249 E121.32854
G0 F6000 X47.659 Y129.684
G1 F1200 X87.706 Y169.731 E123.21223
G0 F6000 X87.473 Y170.129
G0 X88.831 Y170.921
G0 X89.064 Y170.523
G1 F1200 X47.659 Y129.118 E125.15979
G0 F6000 X47.659 Y128.552
G1 F1200 X90.421 Y171.315 E127.17121
G0 F6000 X90.188 Y171.713
G0 X91.546 Y172.505
G0 X91.779 Y172.106
G1 F1200 X47.659 Y127.987 E129.24645
G0 F6000 X47.659 Y127.421
G1 F1200 X93.137 Y172.898 E131.38558
G0 F6000 X92.904 Y173.297
G0 X94.261 Y174.088
G0 X94.494 Y173.69
G1 F1200 X47.659 Y126.855 E133.58855
G0 F6000 X47.659 Y126.289
G1 F1200 X95.852 Y174.482 E135.8554
G0 F6000 X95.619 Y174.881
G0 X96.977 Y175.673
G0 X97.21 Y175.274
G1 F1200 X47.659 Y125.724 E138.18611
G0 F6000 X47.659 Y125.158
G1 F1200 X98.567 Y176.066 E140.58066
G0 F6000 X98.334 Y176.464
G0 X99.692 Y177.257
G0 X99.925 Y176.858
G1 F1200 X47.659 Y124.592 E143.03909
G0 F6000 X47.659 Y124.027
G1 F1200 X101.283 Y177.65 E145.56138
G0 F6000 X101.05 Y178.049
G0 X102.407 Y178.84
G0 X102.64 Y178.442
G1 F1200 X47.659 Y123.461 E148.14752
G0 F6000 X47.659 Y122.895
G1 F1200 X103.998 Y179.234 E150.79753
G0 F6000 X103.765 Y179.633
G0 X105.123 Y180.425
G0 X105.356 Y180.026
G1 F1200 X47.659 Y122.33 E153.5114
G0 F6000 X47.659 Y121.764
G1 F1200 X106.713 Y180.818 E156.28912
G0 F6000 X106.48 Y181.216
G0 X107.838 Y182.009
G0 X108.071 Y181.61
G1 F1200 X47.659 Y121.198 E159.13071
G0 F6000 X47.659 Y120.633
G1 F1200 X109.429 Y182.402 E162.03616
G0 F6000 X110.206 Y182.614
G1 F1200 X47.659 Y120.067 E164.97818
G0 F6000 X47.659 Y119.501
G1 F1200 X110.563 Y182.405 E167.93699
G0 F6000 X110.921 Y182.197
G1 F1200 X47.659 Y118.936 E170.91262
G0 F6000 X47.659 Y118.37
G1 F1200 X111.278 Y181.988 E173.90504
G0 F6000 X111.635 Y181.78
G1 F1200 X47.659 Y117.804 E176.91427
G0 F6000 X47.659 Y117.239
G1 F1200 X111.992 Y181.572 E179.9403
G0 F6000 X112.35 Y181.363
G1 F1200 X47.659 Y116.673 E182.98314
G0 F6000 X47.659 Y116.107
G1 F1200 X112.707 Y181.155 E186.0428
G0 F6000 X113.064 Y180.947
G1 F1200 X47.659 Y115.541 E189.11927
G0 F6000 X47.659 Y114.976
G1 F1200 X113.422 Y180.738 E192.21254
G0 F6000 X113.779 Y180.53
G1 F1200 X47.659 Y114.41 E195.32262
G0 F6000 X47.659 Y113.844
G1 F1200 X114.136 Y180.322 E198.44952
G0 F6000 X114.494 Y180.113
G1 F1200 X47.659 Y113.279 E201.59321
G0 F6000 X47.659 Y112.713
G1 F1200 X114.851 Y179.904 E204.75369
G0 F6000 X115.208 Y179.696
G1 F1200 X47.659 Y112.147 E207.93099
G0 F6000 X47.659 Y111.582
G1 F1200 X115.565 Y179.488 E211.12508
G0 F6000 X115.923 Y179.279
G1 F1200 X47.659 Y111.016 E214.33599
G0 F6000 X47.659 Y110.45
G1 F1200 X116.28 Y179.071 E217.56371
G0 F6000 X116.637 Y178.862
G1 F1200 X47.659 Y109.885 E220.8082
G0 F6000 X47.659 Y109.319
G1 F1200 X116.995 Y178.654 E224.06953
G0 F6000 X117.352 Y178.446
G1 F1200 X47.659 Y108.753 E227.34767
G0 F6000 X47.659 Y108.188
G1 F1200 X117.709 Y178.237 E230.64258
G0 F6000 X118.066 Y178.028
G1 F1200 X47.659 Y107.622 E233.95429
G0 F6000 X47.659 Y107.056
G1 F1200 X118.424 Y177.821 E237.28286
G0 F6000 X118.781 Y177.612
G1 F1200 X47.659 Y106.49 E240.62822
G0 F6000 X47.659 Y105.925
G1 F1200 X119.138 Y177.403 E243.99035
G0 F6000 X119.496 Y177.196
G1 F1200 X47.659 Y105.359 E247.36934
G0 F6000 X47.659 Y104.793
G1 F1200 X119.853 Y176.987 E250.76513
G0 F6000 X120.21 Y176.778
G1 F1200 X47.659 Y104.228 E254.17768
G0 F6000 X47.659 Y103.662
G1 F1200 X120.567 Y176.57 E257.60705
G0 F6000 X120.925 Y176.362
G1 F1200 X47.659 Y103.096 E261.05326
G0 F6000 X47.659 Y102.531
G1 F1200 X121.282 Y176.153 E264.51623
G0 F6000 X121.639 Y175.945
G1 F1200 X47.659 Y101.965 E267.99603
G0 F6000 X47.659 Y101.399
G1 F1200 X121.996 Y175.736 E271.49261
G0 F6000 X122.354 Y175.528
G1 F1200 X47.659 Y100.834 E275.00601
G0 F6000 X47.659 Y100.268
G1 F1200 X122.711 Y175.32 E278.53623
G0 F6000 X123.068 Y175.111
G1 F1200 X47.659 Y99.702 E282.08323
G0 F6000 X47.659 Y99.137
G1 F1200 X123.426 Y174.903 E285.64706
