;FLAVOR:Marlin
;TIME:10640
;Filament used: 21.7447m
;Layer height: 0.28
;MINX:17.125
;MINY:1.646
;MINZ:0.28
;MAXX:202.875
;MAXY:218.354
;MAXZ:5.04
;Generated with Cura_SteamEngine 5.2.2
M82 ;absolute extrusion mode
; Ender 3 Custom Start G-code
G92 E0 ; Reset Extruder
G28 ; Home all axes
M104 S175 ; Start heating up the nozzle most of the way
M190 S50.0 ; Start heating the bed, wait until target temperature reached
M109 S200 ; Finish heating the nozzle
G1 Z2.0 F3000 ; Move Z Axis up little to prevent scratching of Heat Bed
G1 X0.1 Y20 Z0.3 F5000.0 ; Move to start position
G1 X0.1 Y200.0 Z0.3 F1500.0 E15 ; Draw the first line
G1 X0.4 Y200.0 Z0.3 F5000.0 ; Move to side a little
G1 X0.4 Y20 Z0.3 F1500.0 E30 ; Draw the second line
G92 E0 ; Reset Extruder
G1 Z2.0 F3000 ; Move Z Axis up little to prevent scratching of Heat Bed
G1 X5 Y20 Z0.3 F5000.0 ; Move over to prevent blob squish
G92 E0
G92 E0
G1 F1500 E-6
;LAYER_COUNT:18
;LAYER:0
M107
M204 S500
M205 X5 Y5
;MESH:Base2mm.stl
G0 F7500 X110 Y2.532 Z0.28
M205 X8 Y8
;TYPE:WALL-INNER
G1 F1500 E0
G1 X17.89 Y56.263 E6.72195
G1 X17.89 Y163.737 E13.49671
G1 X110 Y217.468 E20.21865
G1 X202.11 Y163.737 E26.9406
G1 X202.11 Y56.263 E33.71536
G1 X110 Y2.532 E40.43731
M205 X5 Y5
G0 F7500 X110 Y1.872
M205 X8 Y8
;TYPE:WALL-OUTER
G1 F1500 X17.32 Y55.936 E46.52451
G1 X17.32 Y164.064 E52.6589
G1 X110 Y218.128 E58.7461
G1 X202.68 Y164.064 E64.8333
G1 X202.68 Y55.936 E70.96769
G1 X110 Y1.872 E77.05489
M205 X5 Y5
G0 F7500 X109.828 Y1.972
G0 X110 Y2.613
G0 X110.152 Y2.853
G0 X110 Y3.112
M205 X8 Y8
;TYPE:SKIN
G1 F1500 X18.389 Y56.551 E83.07185
G1 X18.389 Y163.449 E89.13645
G1 X110 Y216.888 E95.1534
G1 X201.611 Y163.449 E101.17035
G1 X201.611 Y56.551 E107.23496
G1 X110 Y3.112 E113.25191
M205 X5 Y5
G1 F1500 E107.25191
G0 F7500 X110.152 Y2.853
G0 X201.844 Y56.416
G0 X201.91 Y56.861
G1 F1500 E113.25191
G0 F7500 X201.07 Y56.861
M205 X8 Y8
G1 F1500 X199.539 Y55.968 E113.35247
G1 X201.07 Y57.499 E113.4753
G1 X201.07 Y58.262 E113.51859
G1 X197.707 Y54.899 E113.78841
G1 X195.874 Y53.83 E113.90879
G1 X201.07 Y59.026 E114.32568
G1 X201.07 Y59.79 E114.36902
G1 X194.041 Y52.761 E114.93297
G1 X192.208 Y51.692 E115.05336
G1 X201.07 Y60.553 E115.76433
G1 X201.07 Y61.317 E115.80768
G1 X190.375 Y50.623 E116.66572
G1 X188.542 Y49.554 E116.7861
G1 X201.07 Y62.081 E117.79121
G1 X201.07 Y62.844 E117.8345
G1 X186.71 Y48.484 E118.98663
G1 X184.877 Y47.415 E119.10701
G1 X201.07 Y63.608 E120.40621
G1 X201.07 Y64.372 E120.44955
G1 X183.044 Y46.346 E121.89582
G1 X181.211 Y45.277 E122.0162
G1 X201.07 Y65.135 E123.60949
G1 X201.07 Y65.899 E123.65283
G1 X179.378 Y44.208 E125.39319
G1 X177.546 Y43.139 E125.51352
G1 X201.07 Y66.663 E127.4009
G1 X201.07 Y67.426 E127.44419
G1 X175.713 Y42.07 E129.47859
G1 X173.88 Y41 E129.59901
G1 X201.07 Y68.19 E131.78052
G1 X201.07 Y68.954 E131.82386
G1 X172.047 Y39.931 E134.15243
G1 X170.214 Y38.862 E134.27282
G1 X201.07 Y69.717 E136.74842
G1 X201.07 Y70.481 E136.79176
G1 X168.381 Y37.793 E139.41443
G1 X166.549 Y36.724 E139.53476
G1 X201.07 Y71.245 E142.30445
G1 X201.07 Y72.008 E142.34774
G1 X164.716 Y35.655 E145.26446
G1 X162.883 Y34.586 E145.38484
G1 X201.07 Y72.772 E148.44862
G1 X201.07 Y73.536 E148.49197
G1 X161.05 Y33.516 E151.70286
G1 X159.217 Y32.447 E151.82324
G1 X201.07 Y74.299 E155.18115
G1 X201.07 Y75.063 E155.2245
G1 X157.384 Y31.378 E158.72947
G1 X155.552 Y30.309 E158.84981
G1 X201.07 Y75.827 E162.50181
G1 X201.07 Y76.59 E162.5451
G1 X153.719 Y29.24 E166.34413
G1 X151.886 Y28.171 E166.46451
G1 X201.07 Y77.354 E170.41061
G1 X201.07 Y78.118 E170.45395
G1 X150.053 Y27.101 E174.54715
G1 X148.22 Y26.032 E174.66753
G1 X201.07 Y78.882 E178.9078
G1 X201.07 Y79.645 E178.95108
G1 X146.388 Y24.963 E183.33834
G1 X144.555 Y23.894 E183.45872
G1 X201.07 Y80.409 E187.99303
G1 X201.07 Y81.173 E188.03638
G1 X142.722 Y22.825 E192.71776
G1 X140.889 Y21.756 E192.83814
G1 X201.07 Y81.936 E197.66655
G1 X201.07 Y82.7 E197.70989
G1 X139.056 Y20.687 E202.68536
G1 X137.223 Y19.617 E202.80578
G1 X201.07 Y83.464 E207.92835
G1 X201.07 Y84.227 E207.97164
G1 X135.391 Y18.548 E213.2412
G1 X133.558 Y17.479 E213.36159
G1 X201.07 Y84.991 E218.77821
G1 X201.07 Y85.755 E218.82156
G1 X131.725 Y16.41 E224.38525
G1 X129.892 Y15.341 E224.50564
G1 X201.07 Y86.518 E230.21635
G1 X201.07 Y87.282 E230.2597
G1 X128.059 Y14.272 E236.11748
G1 X126.227 Y13.203 E236.23782
G1 X201.07 Y88.046 E242.24262
G1 X201.07 Y88.809 E242.28591
G1 X124.394 Y12.133 E248.43779
G1 X122.561 Y11.064 E248.55817
G1 X201.07 Y89.573 E254.85711
G1 X201.07 Y90.337 E254.90045
G1 X120.728 Y9.995 E261.34646
G1 X118.895 Y8.926 E261.46684
G1 X201.07 Y91.1 E268.05987
G1 X201.07 Y91.864 E268.10322
G1 X117.062 Y7.857 E274.84331
G1 X115.23 Y6.788 E274.96365
G1 X201.07 Y92.628 E281.85077
G1 X201.07 Y93.391 E281.89406
G1 X113.397 Y5.719 E288.9282
G1 X111.564 Y4.649 E289.04861
G1 X201.07 Y94.155 E296.22987
G1 X201.07 Y94.919 E296.27321
G1 X109.929 Y3.778 E303.58564
G1 X109.447 Y4.06 E303.61732
G1 X201.07 Y95.682 E310.96839
G1 X201.07 Y96.446 E311.01173
G1 X108.964 Y4.34 E318.40159
G1 X108.482 Y4.622 E318.43327
G1 X201.07 Y97.21 E325.86179
G1 X201.07 Y97.973 E325.90508
G1 X107.999 Y4.903 E333.37232
G1 X107.517 Y5.185 E333.404
G1 X201.07 Y98.737 E340.90991
G1 X201.07 Y99.501 E340.95326
G1 X107.035 Y5.466 E348.49788
G1 X106.553 Y5.748 E348.52956
G1 X201.07 Y100.264 E356.11282
G1 X201.07 Y101.028 E356.15616
G1 X106.07 Y6.029 E363.77817
G1 X105.588 Y6.31 E363.80982
G1 X201.07 Y101.792 E371.47054
G1 X201.07 Y102.555 E371.51383
G1 X105.106 Y6.592 E379.21318
G1 X104.623 Y6.873 E379.24488
G1 X201.07 Y103.319 E386.98298
G1 X201.07 Y104.083 E387.02632
G1 X104.141 Y7.154 E394.80314
G1 X103.659 Y7.435 E394.83479
G1 X201.07 Y104.846 E402.65028
G1 X201.07 Y105.61 E402.69362
G1 X103.176 Y7.717 E410.54782
G1 X102.694 Y7.998 E410.57947
G1 X201.07 Y106.374 E418.47238
G1 X201.07 Y107.137 E418.51567
G1 X102.212 Y8.28 E426.44721
G1 X101.73 Y8.561 E426.47887
G1 X201.07 Y107.901 E434.44912
G1 X201.07 Y108.665 E434.49246
G1 X101.247 Y8.843 E442.50143
G1 X100.765 Y9.124 E442.53308
G1 X201.07 Y109.429 E450.58076
G1 X201.07 Y110.192 E450.62405
G1 X100.282 Y9.405 E458.71044
G1 X99.8 Y9.686 E458.74209
G1 X201.07 Y110.956 E466.86719
G1 X201.07 Y111.72 E466.91054
G1 X99.318 Y9.968 E475.07431
G1 X98.835 Y10.249 E475.10601
G1 X201.07 Y112.483 E483.3085
G1 X201.07 Y113.247 E483.35184
G1 X98.353 Y10.53 E491.59304
G1 X97.871 Y10.812 E491.62472
G1 X201.07 Y114.011 E499.90459
G1 X201.07 Y114.774 E499.94788
G1 X97.389 Y11.093 E508.26642
G1 X96.906 Y11.375 E508.29815
G1 X201.07 Y115.538 E516.65541
G1 X201.07 Y116.302 E516.69875
G1 X96.424 Y11.656 E525.09471
G1 X95.941 Y11.937 E525.12642
G1 X201.07 Y117.065 E533.56109
G1 X201.07 Y117.829 E533.60444
G1 X95.459 Y12.218 E542.07783
G1 X94.977 Y12.5 E542.10951
G1 X201.07 Y118.593 E550.62157
G1 X201.07 Y119.356 E550.66486
G1 X94.494 Y12.781 E559.21563
G1 X94.012 Y13.063 E559.24731
G1 X201.07 Y120.12 E567.83676
G1 X201.07 Y120.884 E567.8801
G1 X93.53 Y13.344 E576.50826
G1 X93.048 Y13.625 E576.53991
G1 X201.07 Y121.647 E585.20674
G1 X201.07 Y122.411 E585.25008
G1 X92.565 Y13.907 E593.95563
G1 X92.083 Y14.188 E593.98728
G1 X201.07 Y123.175 E602.73153
G1 X201.07 Y123.938 E602.77482
G1 X91.6 Y14.469 E611.55778
G1 X91.118 Y14.75 E611.58944
G1 X201.07 Y124.702 E620.41111
G1 X201.07 Y125.466 E620.45446
G1 X90.636 Y15.032 E629.31481
G1 X90.153 Y15.313 E629.34651
G1 X201.07 Y126.229 E638.24557
G1 X201.07 Y126.993 E638.28891
G1 X89.671 Y15.595 E647.22664
G1 X89.189 Y15.876 E647.2583
G1 X201.07 Y127.757 E656.23474
G1 X201.07 Y128.52 E656.27803
G1 X88.707 Y16.158 E665.29311
G1 X88.225 Y16.439 E665.32476
G1 X201.07 Y129.284 E674.37855
G1 X201.07 Y130.048 E674.42189
G1 X87.742 Y16.72 E683.51443
G1 X87.259 Y17.001 E683.54613
G1 X201.07 Y130.811 E692.67739
G1 X201.07 Y131.575 E692.72073
G1 X86.777 Y17.283 E701.89065
G1 X86.295 Y17.564 E701.92231
G1 X201.07 Y132.339 E711.13094
G1 X201.07 Y133.102 E711.17423
G1 X85.813 Y17.845 E720.42154
G1 X85.33 Y18.127 E720.45327
G1 X201.07 Y133.866 E729.73929
G1 X201.07 Y134.63 E729.78263
G1 X84.848 Y18.408 E739.10736
G1 X84.366 Y18.69 E739.13905
G1 X201.07 Y135.393 E748.50241
G1 X201.07 Y136.157 E748.54575
G1 X83.884 Y18.971 E757.94783
G1 X83.401 Y19.253 E757.97956
G1 X201.07 Y136.921 E767.42035
G1 X201.07 Y137.685 E767.46369
G1 X82.918 Y19.533 E776.94327
G1 X82.436 Y19.815 E776.97495
G1 X201.07 Y138.448 E786.49316
G1 X201.07 Y139.212 E786.53651
G1 X81.954 Y20.096 E796.09343
G1 X81.472 Y20.378 E796.12511
G1 X201.07 Y139.976 E805.72071
G1 X201.07 Y140.739 E805.764
G1 X80.989 Y20.659 E815.3983
G1 X80.507 Y20.94 E815.42996
G1 X201.07 Y141.503 E825.10298
G1 X201.07 Y142.267 E825.14632
G1 X80.025 Y21.222 E834.85801
G1 X79.543 Y21.503 E834.88966
G1 X201.07 Y143.03 E844.64003
G1 X201.07 Y143.794 E844.68337
G1 X79.06 Y21.784 E854.47249
G1 X78.577 Y22.065 E854.50419
G1 X201.07 Y144.558 E864.33206
G1 X201.07 Y145.321 E864.37534
G1 X78.095 Y22.347 E874.24184
G1 X77.613 Y22.628 E874.27349
G1 X201.07 Y146.085 E884.17871
G1 X201.07 Y146.849 E884.22205
G1 X77.131 Y22.91 E894.16593
G1 X76.648 Y23.191 E894.19763
G1 X201.07 Y147.612 E904.18023
G1 X201.07 Y148.376 E904.22357
G1 X76.166 Y23.473 E914.24484
G1 X75.684 Y23.754 E914.27649
G1 X201.07 Y149.14 E924.33647
G1 X201.07 Y149.903 E924.37976
G1 X75.202 Y24.035 E934.47841
G1 X74.719 Y24.316 E934.51011
G1 X201.07 Y150.667 E944.64751
G1 X201.07 Y151.431 E944.69086
G1 X74.237 Y24.598 E954.86693
G1 X73.754 Y24.879 E954.89863
G1 X201.07 Y152.194 E965.11342
G1 X201.07 Y152.958 E965.15677
G1 X73.272 Y25.16 E975.41026
G1 X72.79 Y25.442 E975.44195
G1 X201.07 Y153.722 E985.73412
G1 X201.07 Y154.485 E985.7774
G1 X72.308 Y25.723 E996.10825
G1 X71.825 Y26.005 E996.13998
G1 X201.07 Y155.249 E1006.50953
G1 X201.07 Y156.013 E1006.55287
G1 X71.343 Y26.286 E1016.96114
G1 X70.861 Y26.568 E1016.99282
G1 X201.07 Y156.776 E1027.43972
G1 X201.07 Y157.54 E1027.48306
G1 X70.378 Y26.848 E1037.96875
G1 X69.896 Y27.13 E1038.00043
G1 X201.07 Y158.304 E1048.5248
G1 X201.07 Y159.067 E1048.56808
G1 X69.413 Y27.411 E1059.13116
G1 X68.931 Y27.693 E1059.16284
G1 X201.07 Y159.831 E1069.76459
G1 X201.07 Y160.595 E1069.80793
G1 X68.449 Y27.974 E1080.44839
G1 X67.967 Y28.255 E1080.48004
G1 X201.07 Y161.358 E1091.15917
G1 X201.07 Y162.122 E1091.20251
G1 X67.484 Y28.537 E1101.92036
G1 X67.002 Y28.818 E1101.95201
G1 X201.07 Y162.886 E1112.70856
G1 X201.07 Y163.139 E1112.72291
G1 X200.746 Y163.326 E1112.74414
G1 X66.52 Y29.1 E1123.51337
G1 X66.037 Y29.38 E1123.54504
G1 X200.264 Y163.608 E1134.31439
G1 X199.782 Y163.889 E1134.34605
G1 X65.555 Y29.662 E1145.11536
G1 X65.072 Y29.943 E1145.14706
G1 X199.3 Y164.171 E1155.91645
G1 X198.817 Y164.452 E1155.94815
G1 X64.59 Y30.225 E1166.71746
G1 X64.108 Y30.506 E1166.74911
G1 X198.335 Y164.733 E1177.51842
G1 X197.853 Y165.015 E1177.55011
G1 X63.626 Y30.788 E1188.31942
G1 X63.143 Y31.069 E1188.35112
G1 X197.371 Y165.296 E1199.12047
G1 X196.888 Y165.578 E1199.1522
G1 X62.661 Y31.35 E1209.92155
G1 X62.179 Y31.632 E1209.95323
G1 X196.405 Y165.858 E1220.72246
G1 X195.923 Y166.14 E1220.75414
G1 X61.696 Y31.913 E1231.52345
G1 X61.214 Y32.194 E1231.55511
G1 X195.441 Y166.421 E1242.32442
G1 X194.959 Y166.703 E1242.3561
G1 X60.731 Y32.476 E1253.12545
G1 X60.249 Y32.757 E1253.1571
G1 X194.476 Y166.984 E1263.92641
G1 X193.994 Y167.266 E1263.95809
G1 X59.767 Y33.038 E1274.72745
G1 X59.285 Y33.32 E1274.75913
G1 X193.512 Y167.547 E1285.52844
G1 X193.03 Y167.828 E1285.56009
G1 X58.802 Y33.601 E1296.32944
G1 X58.32 Y33.883 E1296.36112
G1 X192.548 Y168.11 E1307.13047
G1 X192.065 Y168.391 E1307.16218
G1 X57.838 Y34.164 E1317.93149
G1 X57.355 Y34.445 E1317.96319
G1 X191.582 Y168.672 E1328.7325
G1 X191.1 Y168.953 E1328.76415
G1 X56.873 Y34.726 E1339.53346
G1 X56.391 Y35.008 E1339.56514
G1 X190.618 Y169.235 E1350.33445
G1 X190.136 Y169.516 E1350.36611
G1 X55.908 Y35.289 E1361.13546
G1 X55.426 Y35.571 E1361.16714
G1 X189.653 Y169.798 E1371.93645
G1 X189.171 Y170.079 E1371.9681
G1 X54.944 Y35.852 E1382.73741
G1 X54.462 Y36.133 E1382.76907
G1 X188.689 Y170.361 E1393.53842
G1 X188.207 Y170.642 E1393.57007
G1 X53.979 Y36.415 E1404.33942
G1 X53.497 Y36.696 E1404.37107
G1 X187.724 Y170.923 E1415.14038
G1 X187.241 Y171.204 E1415.17209
G1 X53.014 Y36.977 E1425.9414
G1 X52.532 Y37.258 E1425.97305
G1 X186.759 Y171.486 E1436.7424
G1 X186.277 Y171.767 E1436.77405
G1 X52.05 Y37.54 E1447.54336
G1 X51.567 Y37.821 E1447.57506
G1 X185.795 Y172.048 E1458.34442
G1 X185.312 Y172.33 E1458.37615
G1 X51.085 Y38.103 E1469.14546
G1 X50.603 Y38.384 E1469.17711
G1 X184.83 Y172.611 E1479.94642
G1 X184.348 Y172.893 E1479.9781
G1 X50.121 Y38.666 E1490.74741
G1 X49.638 Y38.947 E1490.77911
G1 X183.866 Y173.174 E1501.54846
G1 X183.383 Y173.455 E1501.58017
G1 X49.155 Y39.228 E1512.34952
G1 X48.673 Y39.509 E1512.38117
G1 X182.9 Y173.736 E1523.15048
G1 X182.418 Y174.018 E1523.18216
G1 X48.191 Y39.791 E1533.95147
G1 X47.709 Y40.072 E1533.98313
G1 X181.936 Y174.299 E1544.75244
G1 X181.454 Y174.581 E1544.78412
G1 X47.226 Y40.353 E1555.55351
G1 X46.744 Y40.635 E1555.58519
G1 X180.971 Y174.862 E1566.3545
G1 X180.489 Y175.143 E1566.38615
G1 X46.262 Y40.916 E1577.15546
G1 X45.78 Y41.198 E1577.18715
G1 X180.007 Y175.425 E1587.95646
G1 X179.525 Y175.706 E1587.98811
G1 X45.297 Y41.479 E1598.75746
G1 X44.815 Y41.76 E1598.78911
G1 X179.042 Y175.987 E1609.55842
G1 X178.56 Y176.268 E1609.59008
G1 X44.332 Y42.041 E1620.35943
G1 X43.85 Y42.323 E1620.39111
G1 X178.077 Y176.55 E1631.16042
G1 X177.595 Y176.831 E1631.19207
G1 X43.368 Y42.604 E1641.96138
G1 X42.886 Y42.886 E1641.99306
G1 X177.113 Y177.113 E1652.76237
G1 X176.631 Y177.394 E1652.79403
G1 X42.403 Y43.167 E1663.56338
G1 X41.921 Y43.448 E1663.59503
G1 X176.148 Y177.676 E1674.36438
G1 X175.666 Y177.957 E1674.39603
G1 X41.439 Y43.73 E1685.16534
G1 X40.957 Y44.011 E1685.197
G1 X175.184 Y178.238 E1695.96631
G1 X174.701 Y178.519 E1695.99801
G1 X40.474 Y44.292 E1706.76732
G1 X39.991 Y44.573 E1706.79902
G1 X174.219 Y178.801 E1717.56841
G1 X173.736 Y179.082 E1717.60012
G1 X39.509 Y44.855 E1728.36943
G1 X39.027 Y45.136 E1728.40108
G1 X173.254 Y179.363 E1739.17039
G1 X172.772 Y179.645 E1739.20207
G1 X38.545 Y45.418 E1749.97138
G1 X38.062 Y45.699 E1750.00308
G1 X172.29 Y179.926 E1760.77243
G1 X171.807 Y180.208 E1760.80416
G1 X37.58 Y45.981 E1771.57348
G1 X37.098 Y46.262 E1771.60513
G1 X171.325 Y180.489 E1782.37444
G1 X170.843 Y180.771 E1782.40612
G1 X36.616 Y46.543 E1793.17547
G1 X36.133 Y46.824 E1793.20717
G1 X170.36 Y181.051 E1803.97648
G1 X169.878 Y181.333 E1804.00816
G1 X35.65 Y47.106 E1814.77752
G1 X35.168 Y47.387 E1814.80917
G1 X169.395 Y181.614 E1825.57848
G1 X168.913 Y181.896 E1825.61016
G1 X34.686 Y47.668 E1836.37951
G1 X34.204 Y47.95 E1836.41119
G1 X168.431 Y182.177 E1847.1805
G1 X167.949 Y182.459 E1847.21218
G1 X33.721 Y48.231 E1857.98158
G1 X33.239 Y48.513 E1858.01326
G1 X167.466 Y182.74 E1868.78257
G1 X166.984 Y183.021 E1868.81422
G1 X32.757 Y48.794 E1879.58353
G1 X32.275 Y49.076 E1879.61521
G1 X166.501 Y183.302 E1890.38444
G1 X166.019 Y183.584 E1890.41612
G1 X31.792 Y49.356 E1901.18547
G1 X31.309 Y49.638 E1901.21721
G1 X165.537 Y183.865 E1911.98656
G1 X165.054 Y184.146 E1912.01826
G1 X30.827 Y49.919 E1922.78757
G1 X30.345 Y50.201 E1922.81925
G1 X164.572 Y184.428 E1933.58856
G1 X164.09 Y184.709 E1933.62021
G1 X29.863 Y50.482 E1944.38952
G1 X29.38 Y50.763 E1944.42123
G1 X163.608 Y184.991 E1955.19062
G1 X163.125 Y185.272 E1955.22232
G1 X28.898 Y51.045 E1965.99163
G1 X28.416 Y51.326 E1966.02328
G1 X162.643 Y185.554 E1976.79263
G1 X162.16 Y185.834 E1976.82431
G1 X27.934 Y51.608 E1987.59354
G1 X27.451 Y51.888 E1987.62521
G1 X161.678 Y186.116 E1998.39456
G1 X161.196 Y186.397 E1998.42621
G1 X26.969 Y52.17 E2009.19552
G1 X26.486 Y52.451 E2009.22723
G1 X160.714 Y186.679 E2019.99662
G1 X160.231 Y186.96 E2020.02832
G1 X26.004 Y52.733 E2030.79763
G1 X25.522 Y53.014 E2030.82928
G1 X159.749 Y187.241 E2041.59859
G1 X159.267 Y187.523 E2041.63027
G1 X25.04 Y53.296 E2052.39958
G1 X24.557 Y53.577 E2052.43129
G1 X158.785 Y187.804 E2063.20064
G1 X158.302 Y188.086 E2063.23237
G1 X24.075 Y53.858 E2074.00172
