;FLAVOR:Marlin
;TIME:7047
;Filament used: 6.12411m
;Layer height: 0.2
;MINX:72.2
;MINY:65.9
;MINZ:0.2
;MAXX:147.8
;MAXY:154.1
;MAXZ:8.4
;Generated with Cura_SteamEngine 5.2.2
M82 ;absolute extrusion mode
; Ender 3 Custom Start G-code
G92 E0 ; Reset Extruder
G28 ; Home all axes
M104 S175 ; Start heating up the nozzle most of the way
M190 S60 ; Start heating the bed, wait until target temperature reached
M109 S215 ; Finish heating the nozzle
G1 Z2.0 F3000 ; Move Z Axis up little to prevent scratching of Heat Bed
G1 X0.1 Y20 Z0.3 F5000.0 ; Move to start position
G1 X0.1 Y200.0 Z0.3 F1500.0 E15 ; Draw the first line
G1 X0.4 Y200.0 Z0.3 F5000.0 ; Move to side a little
G1 X0.4 Y20 Z0.3 F1500.0 E30 ; Draw the second line
G92 E0 ; Reset Extruder
G1 Z2.0 F3000 ; Move Z Axis up little to prevent scratching of Heat Bed
G1 X5 Y20 Z0.3 F5000.0 ; Move over to prevent blob squish
G92 E0
G92 E0
G1 F1500 E-6.5
;LAYER_COUNT:42
;LAYER:0
M107
;MESH:Certification-Base-Bottom.stl
G0 F6000 X110 Y153.637 Z0.2
;TYPE:WALL-INNER
G1 F1500 E0
G1 F1200 X147.4 Y131.821 E1.44009
G1 X147.4 Y88.179 E2.89163
G1 X110 Y66.363 E4.33172
G1 X72.6 Y88.179 E5.77181
G1 X72.6 Y131.821 E7.22335
G1 X110 Y153.637 E8.66344
G0 F6000 X110 Y154.1
;TYPE:WALL-OUTER
G1 F1200 X147.8 Y132.051 E10.11892
G1 X147.8 Y87.949 E11.58576
G1 X110 Y65.9 E13.04125
G1 X72.2 Y87.949 E14.49674
G1 X72.2 Y132.051 E15.96357
G1 X110 Y154.1 E17.41906
G0 F6000 X110 Y153.218
;TYPE:SKIN
G1 F1200 X147.04 Y131.613 E18.84527
G1 X147.04 Y88.387 E20.28298
G1 X110 Y66.782 E21.70919
G1 X72.96 Y88.387 E23.1354
G1 X72.96 Y131.613 E24.5731
G1 X110 Y153.218 E25.99931
G1 F1500 E19.49931
G0 F6000 X109.868 Y153.443
G0 X72.896 Y131.877
G1 F1500 E25.99931
G0 F6000 X73.16 Y131.425
G1 F1200 X73.332 Y131.598 E26.00743
G0 F6000 X73.16 Y130.86
G1 F1200 X74.69 Y132.39 E26.07939
G0 F6000 X74.457 Y132.788
G0 X75.815 Y133.579
G0 X76.047 Y133.182
G1 F1200 X73.16 Y130.294 E26.21521
G0 F6000 X73.16 Y129.728
G1 F1200 X77.404 Y133.973 E26.41486
G0 F6000 X77.172 Y134.371
G0 X78.529 Y135.163
G0 X78.762 Y134.765
G1 F1200 X73.16 Y129.162 E26.67838
G0 F6000 X73.16 Y128.597
G1 F1200 X80.12 Y135.557 E27.00576
G0 F6000 X79.887 Y135.955
G0 X81.244 Y136.746
G0 X81.477 Y136.348
G1 F1200 X73.16 Y128.031 E27.39697
G0 F6000 X73.16 Y127.465
G1 F1200 X82.834 Y137.14 E27.85203
G0 F6000 X82.601 Y137.538
G0 X83.959 Y138.33
G0 X84.192 Y137.932
G1 F1200 X73.16 Y126.9 E28.37094
G0 F6000 X73.16 Y126.334
G1 F1200 X85.549 Y138.723 E28.95368
G0 F6000 X85.316 Y139.121
G0 X86.674 Y139.913
G0 X86.906 Y139.515
G1 F1200 X73.16 Y125.768 E29.60027
G0 F6000 X73.16 Y125.203
G1 F1200 X88.264 Y140.307 E30.31072
G0 F6000 X88.031 Y140.705
G0 X89.388 Y141.496
G0 X89.621 Y141.098
G1 F1200 X73.16 Y124.637 E31.08499
G0 F6000 X73.16 Y124.071
G1 F1200 X90.979 Y141.89 E31.92314
G0 F6000 X90.746 Y142.288
G0 X92.103 Y143.08
G0 X92.336 Y142.682
G1 F1200 X73.16 Y123.506 E32.82512
G0 F6000 X73.16 Y122.94
G1 F1200 X93.693 Y143.474 E33.79096
G0 F6000 X93.461 Y143.871
G0 X94.819 Y144.664
G0 X95.051 Y144.266
G1 F1200 X73.16 Y122.374 E34.82067
G0 F6000 X73.16 Y121.809
G1 F1200 X96.409 Y145.058 E35.91423
G0 F6000 X96.176 Y145.456
G0 X97.532 Y146.247
G0 X97.765 Y145.849
G1 F1200 X73.16 Y121.243 E37.07159
G0 F6000 X73.16 Y120.677
G1 F1200 X99.123 Y146.641 E38.29284
G0 F6000 X98.89 Y147.039
G0 X100.248 Y147.831
G0 X100.481 Y147.433
G1 F1200 X73.16 Y120.111 E39.57796
G0 F6000 X73.16 Y119.546
G1 F1200 X101.838 Y148.224 E40.92688
G0 F6000 X101.605 Y148.623
G0 X102.962 Y149.414
G0 X103.195 Y149.016
G1 F1200 X73.16 Y118.98 E42.33966
G0 F6000 X73.16 Y118.414
G1 F1200 X104.553 Y149.808 E43.81631
G0 F6000 X104.32 Y150.206
G0 X105.677 Y150.998
G0 X105.91 Y150.599
G1 F1200 X73.16 Y117.849 E45.35677
G0 F6000 X73.16 Y117.283
G1 F1200 X107.268 Y151.391 E46.96111
G0 F6000 X107.035 Y151.79
G0 X108.392 Y152.582
G0 X108.625 Y152.183
G1 F1200 X73.16 Y116.717 E48.6293
G0 F6000 X73.16 Y116.152
G1 F1200 X109.983 Y152.975 E50.36134
G0 F6000 X110.352 Y152.778
G1 F1200 X73.16 Y115.586 E52.11074
G0 F6000 X73.16 Y115.02
G1 F1200 X110.71 Y152.571 E53.877
G0 F6000 X111.067 Y152.362
G1 F1200 X73.16 Y114.455 E55.66003
G0 F6000 X73.16 Y113.889
G1 F1200 X111.424 Y152.153 E57.45985
G0 F6000 X111.782 Y151.945
G1 F1200 X73.16 Y113.323 E59.27651
G0 F6000 X73.16 Y112.758
G1 F1200 X112.139 Y151.737 E61.10996
G0 F6000 X112.496 Y151.528
G1 F1200 X73.16 Y112.192 E62.96021
G0 F6000 X73.16 Y111.626
G1 F1200 X112.853 Y151.32 E64.82727
G0 F6000 X113.211 Y151.112
G1 F1200 X73.16 Y111.061 E66.71114
G0 F6000 X73.16 Y110.495
G1 F1200 X113.568 Y150.903 E68.61181
G0 F6000 X113.925 Y150.695
G1 F1200 X73.16 Y109.929 E70.52929
G0 F6000 X73.16 Y109.363
G1 F1200 X114.283 Y150.487 E72.46362
G0 F6000 X114.64 Y150.278
G1 F1200 X73.16 Y108.798 E74.41471
G0 F6000 X73.16 Y108.232
G1 F1200 X114.997 Y150.069 E76.38259
G0 F6000 X115.354 Y149.861
G1 F1200 X73.16 Y107.666 E78.36729
G0 F6000 X73.16 Y107.101
G1 F1200 X115.712 Y149.653 E80.36881
G0 F6000 X116.069 Y149.444
G1 F1200 X73.16 Y106.535 E82.38712
G0 F6000 X73.16 Y105.969
G1 F1200 X116.426 Y149.236 E84.42224
G0 F6000 X116.783 Y149.027
G1 F1200 X73.16 Y105.404 E86.47413
G0 F6000 X73.16 Y104.838
G1 F1200 X117.141 Y148.819 E88.54286
G0 F6000 X117.498 Y148.611
G1 F1200 X73.16 Y104.272 E90.62841
G0 F6000 X73.16 Y103.707
G1 F1200 X117.855 Y148.402 E92.73073
G0 F6000 X118.213 Y148.194
G1 F1200 X73.16 Y103.141 E94.84988
G0 F6000 X73.16 Y102.575
G1 F1200 X118.57 Y147.986 E96.98585
G0 F6000 X118.927 Y147.777
G1 F1200 X73.16 Y102.01 E99.13859
G0 F6000 X73.16 Y101.444
G1 F1200 X119.284 Y147.568 E101.30812
G0 F6000 X119.642 Y147.361
G1 F1200 X73.16 Y100.878 E103.49452
G0 F6000 X73.16 Y100.312
G1 F1200 X119.999 Y147.152 E105.69771
G0 F6000 X120.356 Y146.943
G1 F1200 X73.16 Y99.747 E107.91766
G0 F6000 X73.16 Y99.181
G1 F1200 X120.714 Y146.735 E110.15445
G0 F6000 X121.071 Y146.527
G1 F1200 X73.16 Y98.615 E112.40806
G0 F6000 X73.16 Y98.05
G1 F1200 X121.428 Y146.318 E114.67844
G0 F6000 X121.785 Y146.11
G1 F1200 X73.16 Y97.484 E116.96564
G0 F6000 X73.16 Y96.918
G1 F1200 X122.143 Y145.902 E119.26967
G0 F6000 X122.5 Y145.693
G1 F1200 X73.16 Y96.353 E121.59047
G0 F6000 X73.16 Y95.787
G1 F1200 X122.857 Y145.485 E123.92809
G0 F6000 X123.214 Y145.276
G1 F1200 X73.16 Y95.221 E126.2825
G0 F6000 X73.16 Y94.656
G1 F1200 X123.572 Y145.068 E128.65373
G0 F6000 X123.929 Y144.86
G1 F1200 X73.16 Y94.09 E131.04177
G0 F6000 X73.16 Y93.524
G1 F1200 X124.286 Y144.651 E133.4466
G0 F6000 X124.644 Y144.443
G1 F1200 X73.16 Y92.959 E135.86825
G0 F6000 X73.16 Y92.393
G1 F1200 X125.001 Y144.234 E138.30669
G0 F6000 X125.358 Y144.026
G1 F1200 X73.16 Y91.827 E140.76195
G0 F6000 X73.16 Y91.262
G1 F1200 X125.715 Y143.817 E143.23398
G0 F6000 X126.073 Y143.609
G1 F1200 X73.16 Y90.696 E145.72284
G0 F6000 X73.16 Y90.13
G1 F1200 X126.43 Y143.401 E148.22852
G0 F6000 X126.787 Y143.192
G1 F1200 X73.16 Y89.564 E150.751
G0 F6000 X73.16 Y88.999
G1 F1200 X127.145 Y142.984 E153.29029
G0 F6000 X127.502 Y142.776
G1 F1200 X73.203 Y88.476 E155.84437
G0 F6000 X73.56 Y88.268
G1 F1200 X127.859 Y142.567 E158.39843
G0 F6000 X128.216 Y142.358
G1 F1200 X73.918 Y88.06 E160.95244
G0 F6000 X74.275 Y87.851
G1 F1200 X128.574 Y142.151 E163.50652
G0 F6000 X128.931 Y141.942
G1 F1200 X74.632 Y87.643 E166.06058
G0 F6000 X74.99 Y87.435
G1 F1200 X129.288 Y141.733 E168.61459
G0 F6000 X129.645 Y141.525
G1 F1200 X75.347 Y87.226 E171.16863
G0 F6000 X75.704 Y87.017
G1 F1200 X130.003 Y141.317 E173.72271
G0 F6000 X130.36 Y141.108
G1 F1200 X76.061 Y86.809 E176.27677
G0 F6000 X76.419 Y86.601
G1 F1200 X130.717 Y140.9 E178.8308
G0 F6000 X131.075 Y140.692
G1 F1200 X76.776 Y86.392 E181.38488
G0 F6000 X77.133 Y86.184
G1 F1200 X131.432 Y140.483 E183.93894
G0 F6000 X131.789 Y140.275
G1 F1200 X77.49 Y85.975 E186.49302
G0 F6000 X77.848 Y85.767
G1 F1200 X132.146 Y140.066 E189.04706
G0 F6000 X132.504 Y139.858
G1 F1200 X78.205 Y85.559 E191.60112
G0 F6000 X78.562 Y85.35
G1 F1200 X132.861 Y139.65 E194.1552
G0 F6000 X133.218 Y139.441
G1 F1200 X78.92 Y85.142 E196.70923
G0 F6000 X79.277 Y84.934
G1 F1200 X133.576 Y139.233 E199.26329
G0 F6000 X133.933 Y139.024
G1 F1200 X79.634 Y84.725 E201.81735
G0 F6000 X79.991 Y84.516
G1 F1200 X134.29 Y138.816 E204.37143
G0 F6000 X134.647 Y138.607
G1 F1200 X80.349 Y84.309 E206.92544
G0 F6000 X80.706 Y84.1
G1 F1200 X135.005 Y138.399 E209.4795
G0 F6000 X135.362 Y138.191
G1 F1200 X81.063 Y83.891 E212.03358
G0 F6000 X81.421 Y83.683
G1 F1200 X135.719 Y137.982 E214.58762
G0 F6000 X136.077 Y137.774
G1 F1200 X81.778 Y83.475 E217.14168
G0 F6000 X82.135 Y83.266
G1 F1200 X136.434 Y137.566 E219.69576
G0 F6000 X136.791 Y137.357
G1 F1200 X82.492 Y83.058 E222.24982
G0 F6000 X82.85 Y82.85
G1 F1200 X137.149 Y137.149 E224.80388
G0 F6000 X137.506 Y136.941
G1 F1200 X83.207 Y82.641 E227.35796
G0 F6000 X83.564 Y82.433
G1 F1200 X137.863 Y136.732 E229.91202
G0 F6000 X138.22 Y136.523
G1 F1200 X83.921 Y82.224 E232.46608
G0 F6000 X84.279 Y82.016
G1 F1200 X138.578 Y136.315 E235.02013
G0 F6000 X138.935 Y136.107
G1 F1200 X84.636 Y81.808 E237.57419
G0 F6000 X84.993 Y81.599
G1 F1200 X139.292 Y135.898 E240.12825
G0 F6000 X139.65 Y135.69
G1 F1200 X85.351 Y81.391 E242.68231
G0 F6000 X85.708 Y81.182
G1 F1200 X140.007 Y135.482 E245.23639
G0 F6000 X140.364 Y135.273
G1 F1200 X86.065 Y80.974 E247.79045
G0 F6000 X86.422 Y80.765
G1 F1200 X140.722 Y135.065 E250.34456
G0 F6000 X141.079 Y134.856
G1 F1200 X86.78 Y80.557 E252.89861
G0 F6000 X87.137 Y80.349
G1 F1200 X141.436 Y134.648 E255.45267
G0 F6000 X141.794 Y134.44
G1 F1200 X87.494 Y80.14 E258.00678
G0 F6000 X87.852 Y79.932
G1 F1200 X142.151 Y134.231 E260.56084
G0 F6000 X142.508 Y134.023
G1 F1200 X88.209 Y79.724 E263.1149
G0 F6000 X88.566 Y79.515
G1 F1200 X142.865 Y133.815 E265.66898
G0 F6000 X143.223 Y133.606
G1 F1200 X88.923 Y79.306 E268.22308
G0 F6000 X89.281 Y79.099
G1 F1200 X143.58 Y133.397 E270.77712
G0 F6000 X143.937 Y133.189
G1 F1200 X89.638 Y78.89 E273.33118
G0 F6000 X89.995 Y78.681
G1 F1200 X144.295 Y132.981 E275.88528
G0 F6000 X144.652 Y132.772
G1 F1200 X90.353 Y78.474 E278.43932
G0 F6000 X90.71 Y78.265
G1 F1200 X145.009 Y132.564 E280.99338
G0 F6000 X145.367 Y132.356
G1 F1200 X91.067 Y78.056 E283.54748
G0 F6000 X91.424 Y77.848
G1 F1200 X145.724 Y132.147 E286.10156
G0 F6000 X146.081 Y131.939
G1 F1200 X91.782 Y77.64 E288.65562
G0 F6000 X92.139 Y77.431
G1 F1200 X146.438 Y131.731 E291.2097
G0 F6000 X146.796 Y131.522
G1 F1200 X92.496 Y77.223 E293.76379
G0 F6000 X92.853 Y77.014
G1 F1200 X146.839 Y131 E296.30312
G0 F6000 X146.839 Y130.434
G1 F1200 X93.211 Y76.806 E298.82562
G0 F6000 X93.568 Y76.598
G1 F1200 X146.839 Y129.868 E301.3313
G0 F6000 X146.839 Y129.302
G1 F1200 X93.925 Y76.389 E303.82019
G0 F6000 X94.283 Y76.181
G1 F1200 X146.839 Y128.737 E306.29226
G0 F6000 X146.839 Y128.171
G1 F1200 X94.64 Y75.972 E308.74754
G0 F6000 X94.997 Y75.764
G1 F1200 X146.839 Y127.605 E311.18601
G0 F6000 X146.839 Y127.04
G1 F1200 X95.354 Y75.555 E313.6077
G0 F6000 X95.712 Y75.347
G1 F1200 X146.839 Y126.474 E316.01256
G0 F6000 X146.839 Y125.908
G1 F1200 X96.069 Y75.139 E318.4006
G0 F6000 X96.426 Y74.93
G1 F1200 X146.839 Y125.343 E320.77188
G0 F6000 X146.839 Y124.777
G1 F1200 X96.784 Y74.722 E323.12631
G0 F6000 X97.141 Y74.514
G1 F1200 X146.839 Y124.211 E325.46393
G0 F6000 X146.839 Y123.646
G1 F1200 X97.498 Y74.305 E327.78478
G0 F6000 X97.855 Y74.097
G1 F1200 X146.839 Y123.08 E330.08881
G0 F6000 X146.839 Y122.514
G1 F1200 X98.213 Y73.889 E332.376
G0 F6000 X98.57 Y73.68
G1 F1200 X146.839 Y121.949 E334.64643
G0 F6000 X146.839 Y121.383
G1 F1200 X98.927 Y73.471 E336.90006
G0 F6000 X99.284 Y73.263
G1 F1200 X146.839 Y120.817 E339.13688
G0 F6000 X146.839 Y120.251
G1 F1200 X99.642 Y73.055 E341.35686
G0 F6000 X99.999 Y72.846
G1 F1200 X146.839 Y119.686 E343.56007
G0 F6000 X146.839 Y119.12
G1 F1200 X100.356 Y72.638 E345.74646
G0 F6000 X100.714 Y72.43
G1 F1200 X146.839 Y118.554 E347.91602
G0 F6000 X146.839 Y117.989
G1 F1200 X101.071 Y72.221 E350.06881
G0 F6000 X101.428 Y72.013
G1 F1200 X146.839 Y117.423 E352.20478
G0 F6000 X146.839 Y116.857
G1 F1200 X101.785 Y71.804 E354.32396
G0 F6000 X102.143 Y71.596
G1 F1200 X146.839 Y116.292 E356.42632
G0 F6000 X146.839 Y115.726
G1 F1200 X102.5 Y71.388 E358.51187
G0 F6000 X102.857 Y71.179
G1 F1200 X146.839 Y115.16 E360.58062
G0 F6000 X146.839 Y114.595
G1 F1200 X103.215 Y70.971 E362.63256
G0 F6000 X103.572 Y70.763
G1 F1200 X146.839 Y114.029 E364.66768
G0 F6000 X146.839 Y113.463
G1 F1200 X103.929 Y70.554 E366.68601
G0 F6000 X104.286 Y70.345
G1 F1200 X146.839 Y112.898 E368.68758
G0 F6000 X146.839 Y112.332
G1 F1200 X104.644 Y70.137 E370.6723
G0 F6000 X105.001 Y69.929
G1 F1200 X146.839 Y111.766 E372.64021
G0 F6000 X146.839 Y111.201
G1 F1200 X105.358 Y69.72 E374.59135
G0 F6000 X105.715 Y69.512
G1 F1200 X146.839 Y110.635 E376.52567
G0 F6000 X146.839 Y110.069
G1 F1200 X106.073 Y69.304 E378.44315
G0 F6000 X106.43 Y69.095
G1 F1200 X146.839 Y109.503 E380.34385
G0 F6000 X146.839 Y108.938
G1 F1200 X106.787 Y68.887 E382.22775
G0 F6000 X107.145 Y68.679
G1 F1200 X146.839 Y108.372 E384.09481
G0 F6000 X146.839 Y107.806
G1 F1200 X107.502 Y68.47 E385.94508
G0 F6000 X107.859 Y68.261
G1 F1200 X146.839 Y107.241 E387.77858
G0 F6000 X146.839 Y106.675
G1 F1200 X108.217 Y68.053 E389.59524
G0 F6000 X108.574 Y67.845
G1 F1200 X146.839 Y106.109 E391.39508
G0 F6000 X146.839 Y105.544
G1 F1200 X108.931 Y67.636 E393.17816
G0 F6000 X109.289 Y67.428
G1 F1200 X146.839 Y104.978 E394.94439
G0 F6000 X146.839 Y104.412
G1 F1200 X109.646 Y67.22 E396.69381
G0 F6000 X110.015 Y67.023
G1 F1200 X146.839 Y103.847 E398.4259
G0 F6000 X146.839 Y103.281
G1 F1200 X111.373 Y67.815 E400.09411
G0 F6000 X111.606 Y67.417
G0 X112.964 Y68.209
G0 X112.731 Y68.607
G1 F1200 X146.839 Y102.715 E401.69845
G0 F6000 X146.839 Y102.15
G1 F1200 X114.088 Y69.399 E403.23896
G0 F6000 X114.321 Y69.001
G0 X115.678 Y69.792
G0 X115.445 Y70.19
G1 F1200 X146.839 Y101.584 E404.71563
G0 F6000 X146.839 Y101.018
G1 F1200 X116.803 Y70.982 E406.12844
G0 F6000 X117.036 Y70.584
G0 X118.394 Y71.377
G0 X118.161 Y71.774
G1 F1200 X146.839 Y100.453 E407.47738
G0 F6000 X146.839 Y99.887
G1 F1200 X119.518 Y72.566 E408.76248
G0 F6000 X119.751 Y72.168
G0 X121.108 Y72.96
G0 X120.875 Y73.358
G1 F1200 X146.839 Y99.321 E409.98372
G0 F6000 X146.839 Y98.755
G1 F1200 X122.233 Y74.15 E411.14109
G0 F6000 X122.466 Y73.752
G0 X123.822 Y74.544
G0 X123.59 Y74.941
G1 F1200 X146.839 Y98.19 E412.23465
G0 F6000 X146.839 Y97.624
G1 F1200 X124.947 Y75.733 E413.26436
G0 F6000 X125.18 Y75.335
G0 X126.537 Y76.127
G0 X126.305 Y76.525
G1 F1200 X146.839 Y97.058 E414.23019
G0 F6000 X146.839 Y96.493
G1 F1200 X127.662 Y77.316 E415.13222
G0 F6000 X127.894 Y76.919
G0 X129.252 Y77.711
G0 X129.02 Y78.108
G1 F1200 X146.839 Y95.927 E415.97037
G0 F6000 X146.839 Y95.361
G1 F1200 X130.377 Y78.9 E416.74467
G0 F6000 X130.609 Y78.503
G0 X131.966 Y79.294
G0 X131.734 Y79.691
G1 F1200 X146.839 Y94.796 E417.45516
G0 F6000 X146.839 Y94.23
G1 F1200 X133.092 Y80.483 E418.10178
G0 F6000 X133.324 Y80.086
G0 X134.681 Y80.878
G0 X134.449 Y81.275
G1 F1200 X146.839 Y93.664 E418.68455
G0 F6000 X146.839 Y93.099
G1 F1200 X135.806 Y82.066 E419.2035
G0 F6000 X136.038 Y81.669
G0 X137.396 Y82.461
G0 X137.164 Y82.858
G1 F1200 X146.839 Y92.533 E419.65859
G0 F6000 X146.839 Y91.967
G1 F1200 X138.522 Y83.65 E420.04979
G0 F6000 X138.754 Y83.253
G0 X140.111 Y84.044
G0 X139.879 Y84.441
G1 F1200 X146.839 Y91.402 E420.37719
G0 F6000 X146.839 Y90.836
G1 F1200 X141.236 Y85.233 E420.64074
G0 F6000 X141.468 Y84.836
G0 X142.826 Y85.628
G0 X142.594 Y86.025
G1 F1200 X146.839 Y90.27 E420.84041
G0 F6000 X146.839 Y89.704
G1 F1200 X143.951 Y86.817 E420.97623
G0 F6000 X144.183 Y86.42
G0 X145.541 Y87.212
G0 X145.309 Y87.609
G1 F1200 X146.839 Y89.139 E421.0482
G0 F6000 X146.839 Y88.573
M104 S215
G1 F1200 X146.666 Y88.401 E421.05631
G1 F1500 E414.55631
;MESH:NONMESH
G0 F300 X146.666 Y88.401 Z0.4
G0 F6000 X146.899 Y88.003
G0 X147.234 Y88.275
G0 X147.234 Y131.725
G0 X109.907 Y153.465
G1 F1500 E421.05631
G0 F6000 X110 Y153.637
;TIME_ELAPSED:657.808050
;LAYER:1
M106 S85
;TYPE:WALL-INNER
;MESH:Certification-Base-Bottom.stl
G1 F1350 X147.4 Y131.821 E422.4964
G1 X147.4 Y88.179 E423.94794
