;FLAVOR:Marlin
;TIME:5922
;Filament used: 2.75173m
;Layer height: 0.2
;MINX:59.534
;MINY:61.644
;MINZ:0.2
;MAXX:160.466
;MAXY:158.323
;MAXZ:4.2
;Generated with Cura_SteamEngine 5.2.2
M82 ;absolute extrusion mode
; Ender 3 Custom Start G-code
G92 E0 ; Reset Extruder
G28 ; Home all axes
M104 S175 ; Start heating up the nozzle most of the way
M190 S60 ; Start heating the bed, wait until target temperature reached
M109 S200 ; Finish heating the nozzle
G1 Z2.0 F3000 ; Move Z Axis up little to prevent scratching of Heat Bed
G1 X0.1 Y20 Z0.3 F5000.0 ; Move to start position
G1 X0.1 Y200.0 Z0.3 F1500.0 E15 ; Draw the first line
G1 X0.4 Y200.0 Z0.3 F5000.0 ; Move to side a little
G1 X0.4 Y20 Z0.3 F1500.0 E30 ; Draw the second line
G92 E0 ; Reset Extruder
G1 Z2.0 F3000 ; Move Z Axis up little to prevent scratching of Heat Bed
G1 X5 Y20 Z0.3 F5000.0 ; Move over to prevent blob squish
G92 E0
G92 E0
G1 F1500 E-6.5
;LAYER_COUNT:21
;LAYER:0
M107
;MESH:Text.stl
G0 F6000 X61.488 Y67.717 Z0.2
;TYPE:WALL-INNER
G1 F1500 E0
G1 F874.3 X61.24 Y67.549 E0.01367
G1 F1124.1 X60.858 Y67.163 E0.03296
G1 F1200 X60.808 Y66.998 E0.03869
G1 X60.808 Y65.172 E0.09942
G1 X60.927 Y64.811 E0.11207
G1 X61.077 Y64.67 E0.11891
G1 F1006.3 X61.428 Y64.495 E0.13447
G1 X61.082 Y64.31 E0.15003
G1 F1200 X60.936 Y64.164 E0.1569
G1 X60.828 Y63.903 E0.16629
G1 X60.828 Y62.215 E0.22244
G1 X60.707 Y62.094 E0.22813
G1 X59.934 Y62.094 E0.25384
G1 X59.934 Y67.841 E0.44498
G1 X61.077 Y67.84 E0.483
G1 F919.5 X61.488 Y67.717 E0.50162
G0 F6000 X63.078 Y67.737
G0 X63.153 Y67.837
G1 F1200 X63.524 Y67.635 E0.51567
G1 X63.903 Y67.37 E0.53105
G1 X64.009 Y67.165 E0.53873
G1 X64.055 Y66.859 E0.54902
G1 X64.268 Y66.256 E0.57029
G1 X64.304 Y65.985 E0.57938
G1 X64.271 Y65.868 E0.58343
G1 X63.979 Y65.414 E0.60138
G1 X63.599 Y64.667 E0.62926
G1 X63.463 Y64.521 E0.63589
G1 X63.251 Y64.419 E0.64372
G1 X62.936 Y64.419 E0.65419
G1 F1076.2 X61.699 Y64.464 E0.7001
G1 F985.6 X61.513 Y64.502 E0.70779
G1 F1041.2 X62.91 Y65.195 E0.76756
G1 F1142.9 X63.073 Y65.406 E0.77687
G1 F1200 X63.136 Y65.643 E0.78503
G1 X63.134 Y66.662 E0.81892
G1 F1194 X63.061 Y66.927 E0.82811
G1 F1182.3 X62.687 Y67.335 E0.8468
G1 F1162.2 X62.342 Y67.544 E0.86065
G1 F933.9 X62.055 Y67.733 E0.87533
G1 X62.417 Y67.83 E0.89135
G1 F1173.6 X62.714 Y67.838 E0.90146
G1 F1200 X63.153 Y67.837 E0.91606
G0 F6000 X63.255 Y68.237
;TYPE:WALL-OUTER
G1 F1200 X63.736 Y67.976 E0.93426
G1 X64.055 Y67.752 E0.94722
G1 X64.263 Y67.544 E0.95701
G1 X64.401 Y67.279 E0.96694
G1 X64.422 Y67.034 E0.97512
G1 X64.704 Y66.223 E1.00368
G1 X64.705 Y65.931 E1.01339
G1 X64.641 Y65.705 E1.02121
G1 X64.469 Y65.429 E1.03202
G1 X64.342 Y65.243 E1.03951
G1 X63.93 Y64.435 E1.06968
G1 X63.723 Y64.213 E1.07977
G1 X63.547 Y64.096 E1.0868
G1 X63.317 Y64.019 E1.09487
G1 X61.428 Y64.018 E1.1577
G1 X61.312 Y63.982 E1.16174
G1 X61.23 Y63.853 E1.16682
G1 X61.228 Y62.049 E1.22682
G1 X60.872 Y61.694 E1.24355
G1 X59.584 Y61.694 E1.28639
G1 X59.534 Y61.752 E1.28893
G1 X59.534 Y68.241 E1.50476
G1 X63.255 Y68.237 E1.62852
G1 F1500 E-4.87148
G0 F6000 X63.078 Y67.737
G0 X62.656 Y67.738
G1 F1500 E1.62852
G0 F6000 X61.913 Y67.248
G1 F1200 X61.558 Y67.2 E1.64043
G1 X61.324 Y67.102 E1.64887
G1 X61.21 Y66.987 E1.65426
G1 X61.208 Y65.172 E1.71462
G1 X61.297 Y65.004 E1.72095
G1 X61.438 Y64.965 E1.72581
G1 X62.651 Y65.512 E1.77007
G1 X62.737 Y65.614 E1.77451
G1 X62.736 Y66.691 E1.81033
G1 X62.426 Y67.027 E1.82553
G1 X62.141 Y67.188 E1.83642
G1 X61.913 Y67.248 E1.84426
G0 F6000 X62.055 Y67.733
;TYPE:WALL-INNER
G1 F794.7 X61.904 Y67.743 E1.85186
G1 F772.9 X61.488 Y67.717 E1.87339
G0 F6000 X63.158 Y67.652
G0 X63.682 Y67.292
G0 X63.917 Y67.052
G0 X63.539 Y67.016
;TYPE:SKIN
G1 F751.2 X63.607 Y66.696 E1.89077
G1 F921.3 X63.906 Y66.165 E1.91717
G1 F1156.6 X63.933 Y66.01 E1.9226
G1 F1151.1 X63.667 Y65.617 E1.93905
G1 F1069 X63.453 Y65.264 E1.95446
G1 F1054.9 X63.505 Y65.579 E1.96654
G1 F1140.1 X63.503 Y66.097 E1.98468
G1 F921.3 X63.607 Y66.696 E2.01101
G0 F6000 X63.961 Y66.821
G0 X64.133 Y65.97
G0 X63.722 Y65.128
G0 X63.453 Y65.264
G1 F932 X63.242 Y64.922 E2.02822
G1 F880.7 X63.193 Y64.864 E2.03166
G0 F6000 X63.437 Y64.639
G0 X60.806 Y64.257
G0 X60.64 Y62.258
G0 X60.106 Y62.266
G0 X60.035 Y65.089
G0 X60.378 Y65.091
G1 F857.1 X60.371 Y65.179 E2.03577
G1 F863.3 X60.373 Y67.063 E2.12287
G1 F798.7 X60.416 Y67.358 E2.13777
G0 F6000 X60.034 Y67.358
G0 X60.035 Y65.089
G0 X60.378 Y65.091
G1 F1004.2 X60.643 Y64.596 E2.16009
G1 F1227.6 X60.757 Y64.483 E2.16531
G1 X60.646 Y64.367 E2.17053
G1 F991.7 X60.383 Y63.972 E2.18962
G1 F909.1 X60.269 Y64.484 E2.21265
G1 F919.5 X60.378 Y65.091 E2.23942
G0 F6000 X60.035 Y65.089
G0 X60.034 Y64.1
G0 X60.383 Y63.972
G1 F833.3 X60.381 Y62.541 E2.30796
G1 F1500 E-4.19204
G0 F6000 X60.728 Y62.345
G0 X61.014 Y64.232
G0 X62.081 Y63.165
G0 X63.456 Y63.154
G0 X67.239 Y64.232
G0 X71.907 Y67.892
;TYPE:WALL-INNER
G1 F1500 E2.30796
G1 F1200 X72.253 Y67.733 E2.32062
G1 X72.547 Y67.518 E2.33274
G1 X72.736 Y67.255 E2.34351
G1 X72.819 Y67.017 E2.35189
G1 X72.854 Y66.548 E2.36753
G1 X72.861 Y66.239 E2.37781
G1 X72.844 Y65.919 E2.38847
G1 X72.8 Y65.653 E2.39744
G1 X72.719 Y65.392 E2.40653
G1 X72.607 Y65.183 E2.41442
G1 F1140.1 X72.401 Y64.969 E2.42481
G1 F1021.3 X72.139 Y64.782 E2.43739
G1 F1050.3 X72.028 Y64.589 E2.44585
G1 F1000 X71.876 Y64.117 E2.46565
G1 F843.6 X72.281 Y63.39 E2.50502
G1 F800 X72.55 Y62.931 E2.53156
G1 F802.7 X73.013 Y62.171 E2.57581
G1 F810.8 X72.383 Y62.204 E2.60687
G1 X72.199 Y62.388 E2.61968
G1 F802.7 X72.035 Y62.618 E2.63372
G1 F794.7 X71.9 Y62.838 E2.64668
G1 F798.7 X71.753 Y63.114 E2.66231
G1 F836.2 X71.427 Y63.814 E2.69917
G1 F892.2 X71.322 Y64.036 E2.71015
G1 F1036.7 X71.085 Y64.249 E2.72242
G1 X70.824 Y64.434 E2.73474
G1 F916 X69.885 Y64.439 E2.77565
G1 F1041.2 X69.543 Y64.233 E2.79095
G1 F1200 X69.338 Y63.87 E2.80482
G1 X69.338 Y62.12 E2.86303
G1 X68.504 Y62.125 E2.89076
G1 X68.505 Y67.909 E3.08314
G1 X68.986 Y67.899 E3.09914
G1 F1012.7 X69.712 Y67.739 E3.12844
G1 X69.399 Y67.222 E3.15226
G1 F1200 X69.304 Y66.635 E3.17204
G1 X69.306 Y66.08 E3.1905
G1 X69.354 Y65.562 E3.2078
G1 X69.55 Y65.171 E3.22235
G1 F1041.2 X69.889 Y64.959 E3.23768
G1 F916 X70.869 Y64.955 E3.28038
G1 F1036.7 X71.354 Y65.018 E3.29921
G1 F1173.6 X71.602 Y65.06 E3.30776
G1 F1045.8 X71.857 Y65.199 E3.31884
G1 F1066.7 X71.953 Y65.574 E3.33333
G1 F1200 X71.955 Y66.64 E3.36878
G1 X71.849 Y66.937 E3.37927
G1 X71.534 Y67.3 E3.39526
G1 X71.278 Y67.47 E3.40548
G1 F1032.3 X70.722 Y67.764 E3.4298
G1 F900.6 X70.924 Y67.83 E3.43921
G1 F1025.6 X71.348 Y67.896 E3.45591
G1 F1200 X71.907 Y67.892 E3.47451
G0 F6000 X72.029 Y68.292
;TYPE:WALL-OUTER
G1 F1200 X72.45 Y68.082 E3.49015
G1 X72.917 Y67.739 E3.50943
G1 X73.155 Y67.331 E3.52514
G1 X73.227 Y66.937 E3.53846
G1 X73.254 Y66.579 E3.5504
G1 X73.261 Y66.233 E3.56191
G1 X73.242 Y65.876 E3.5738
G1 X73.19 Y65.561 E3.58442
G1 X73.09 Y65.236 E3.59573
G1 X72.942 Y64.961 E3.60612
G1 F1203 X72.728 Y64.693 E3.61749
G1 X72.428 Y64.44 E3.63051
G1 F1200 X72.363 Y64.333 E3.63468
G1 X72.373 Y64.209 E3.63881
G1 X73.735 Y61.931 E3.72709
G1 X73.523 Y61.732 E3.73676
G1 X73.284 Y61.659 E3.74507
G1 X72.501 Y61.701 E3.77115
G1 X72.262 Y61.671 E3.77917
G1 X72.047 Y61.834 E3.78814
G1 X71.822 Y62.065 E3.79886
G1 X71.628 Y62.322 E3.80957
G1 X71.462 Y62.591 E3.82009
G1 X71.298 Y62.911 E3.83205
G1 X70.868 Y63.922 E3.86859
G1 X70.745 Y63.978 E3.87308
G1 X69.922 Y63.98 E3.90046
G1 X69.806 Y63.931 E3.90464
G1 X69.74 Y63.815 E3.90908
G1 X69.738 Y61.72 E3.97876
G1 X68.344 Y61.72 E4.02513
G1 X68.104 Y61.959 E4.03639
G1 X68.105 Y68.289 E4.24693
G1 X68.67 Y68.306 E4.26573
G1 X69.713 Y68.285 E4.30043
G1 F1203 X70.926 Y68.299 E4.34067
G1 X72.029 Y68.292 E4.37727
G0 F6000 X71.922 Y67.778
G0 X71.389 Y67.297
G0 X71.199 Y67.075
G1 F1200 X70.714 Y67.239 E4.3943
G1 X69.917 Y67.235 E4.42081
G1 X69.79 Y67.108 E4.42678
G1 X69.706 Y66.616 E4.44338
G1 X69.704 Y66.136 E4.45935
G1 X69.752 Y65.599 E4.47728
G1 X69.818 Y65.469 E4.48213
G1 X69.933 Y65.418 E4.48631
G1 X71.381 Y65.419 E4.53447
G1 X71.494 Y65.473 E4.53864
G1 X71.554 Y65.603 E4.5434
G1 X71.555 Y66.671 E4.57892
G1 X71.199 Y67.075 E4.59683
G0 F6000 X70.735 Y67.768
;TYPE:WALL-INNER
G1 F730.6 X69.972 Y67.762 E4.63852
G1 F711.1 X69.719 Y67.737 E4.65278
G0 F6000 X68.973 Y67.431
;TYPE:SKIN
G1 F802.7 X68.955 Y67.331 E4.65784
G1 F904 X68.904 Y66.654 E4.68781
G1 F995.9 X68.906 Y66.044 E4.71226
G1 F946.7 X68.93 Y65.531 E4.73391
G0 F6000 X68.929 Y65.503
G1 F965.8 X69.282 Y64.871 E4.76383
G1 F1014.8 X69.52 Y64.703 E4.77528
G1 F1041.2 X69.293 Y64.548 E4.78582
G1 F995.9 X68.958 Y64.014 E4.81109
G1 F939.3 X68.922 Y63.933 E4.81485
G1 F954.3 X68.89 Y64.727 E4.84809
G1 F963.9 X68.929 Y65.503 E4.88026
G0 F6000 X69.252 Y65.571
G0 X70.265 Y64.696
G0 X69.177 Y63.779
G0 X69.166 Y62.292
G0 X68.676 Y62.292
G0 X68.604 Y63.933
G0 X68.922 Y63.933
G1 F930.2 X68.921 Y62.537 E4.94016
G0 F6000 X68.604 Y62.537
G0 X68.676 Y62.292
G0 X69.166 Y62.292
G0 X69.51 Y64.208
G0 X72.074 Y65.257
G0 X72.025 Y65.008
G0 X72.297 Y65.124
G0 X72.725 Y65.807
G0 X72.397 Y65.86
G1 F831.9 X72.407 Y66.256 E4.95916
G1 F833.3 X72.4 Y66.674 E4.97919
G1 F834.8 X72.344 Y66.972 E4.99368
G1 F819.1 X72.222 Y67.195 E5.00607
G0 F6000 X71.932 Y66.994
G0 X71.782 Y65.19
G0 X70.48 Y64.782
G0 X71.39 Y64.139
G0 X71.575 Y64.545
G1 F725.1 X71.533 Y64.616 E5.01061
G1 X71.452 Y64.616 E5.01507
G1 X71.411 Y64.545 E5.01958
G1 X71.453 Y64.474 E5.02412
G1 X71.533 Y64.474 E5.02853
G1 F1500 E-1.47147
G0 F6000 X71.455 Y64.093
G0 X73.026 Y65.906
G0 X74.107 Y65.848
G0 X76.159 Y66.297
G0 X77.227 Y66.112
G0 X78.2 Y67.323
G0 X78.498 Y67.569
G0 X79.109 Y67.825
G0 X80.871 Y67.882
G1 F1500 E5.02853
G0 F6000 X80.777 Y67.644
;TYPE:WALL-INNER
G1 F989.7 X80.243 Y67.691 E5.05014
G1 F1032.3 X79.534 Y67.624 E5.07768
G1 F1116.3 X78.609 Y66.75 E5.12318
G1 F1194 X78.534 Y66.63 E5.12791
G1 F1200 X78.473 Y66.405 E5.13566
G1 X78.472 Y63.794 E5.22251
G1 F1194 X78.591 Y63.552 E5.23152
G1 F1182.3 X79.071 Y63.073 E5.25441
G1 F1059.6 X79.296 Y62.785 E5.26818
G1 F965.8 X79.653 Y62.621 E5.28442
G1 F979.6 X80.18 Y62.636 E5.3059
G1 F983.6 X81.082 Y62.634 E5.3425
G1 F979.6 X81.301 Y62.731 E5.35226
G1 F1054.9 X81.483 Y62.921 E5.36221
G1 F1167.9 X81.836 Y63.381 E5.38203
G1 F1200 X82.069 Y63.87 E5.40004
G1 X82.264 Y64.206 E5.41296
G1 X82.259 Y64.736 E5.43059
G1 X82.233 Y65.11 E5.44306
G1 X82.193 Y65.454 E5.45458
G1 X82.133 Y65.783 E5.4657
G1 X82.03 Y66.211 E5.48034
G1 X81.853 Y66.674 E5.49683
G1 F1129.4 X81.854 Y66.731 E5.49885
G1 F923.1 X81.778 Y67.019 E5.51172
G1 F829 X81.663 Y67.159 E5.52045
G1 F866.4 X81.334 Y67.433 E5.54017
G1 F928.4 X80.777 Y67.644 E5.56578
G0 F6000 X80.657 Y68.148
G1 F995.9 X80.994 Y68.081 E5.57955
G1 F971.7 X81.235 Y68.009 E5.58988
G1 F946.7 X81.484 Y67.92 E5.60103
G1 F879.1 X81.947 Y67.685 E5.6246
G1 F820.5 X82.236 Y67.378 E5.64511
G1 F950.5 X82.557 Y67.172 E5.66112
G1 F1170.7 X82.738 Y66.969 E5.6704
G1 F1200 X82.898 Y66.733 E5.67988
G1 X83.123 Y66.319 E5.69555
G1 X83.123 Y64.894 E5.74295
G1 X83.116 Y64.384 E5.75991
G1 X83.061 Y63.944 E5.77466
G1 X82.959 Y63.549 E5.78823
G1 X82.806 Y63.211 E5.80057
G1 X82.604 Y62.921 E5.81232
G1 X82.333 Y62.662 E5.82479
G1 F1137.4 X81.951 Y62.419 E5.84068
G1 F1030 X81.523 Y62.299 E5.8579
G1 F969.7 X81.248 Y62.142 E5.87093
G1 F975.6 X80.628 Y62.155 E5.8963
G1 F991.7 X80.118 Y62.15 E5.91683
G1 F975.6 X79.582 Y62.105 E5.93883
G1 X79.21 Y62.272 E5.95552
G1 F1008.4 X79.004 Y62.385 E5.96482
G1 F1057.3 X78.482 Y62.431 E5.9846
G1 F1142.9 X78.289 Y62.6 E5.99356
G1 F1200 X77.978 Y62.947 E6.00905
G1 X77.723 Y63.315 E6.02395
G1 X77.531 Y63.689 E6.03793
G1 X77.382 Y64.099 E6.05244
G1 X77.296 Y64.522 E6.06679
G1 X77.265 Y64.967 E6.08163
G1 X77.293 Y65.432 E6.09713
G1 X77.404 Y66.068 E6.1186
G1 X77.564 Y66.607 E6.1373
G1 X77.776 Y67.049 E6.1536
G1 X78.046 Y67.407 E6.16852
G1 X78.382 Y67.69 E6.18313
G1 F1156.6 X78.884 Y67.949 E6.20262
G1 F1078.7 X79.619 Y68.093 E6.23033
G1 F1027.8 X80.199 Y68.16 E6.25301
G1 F1010.5 X80.657 Y68.148 E6.2711
G0 F6000 X80.839 Y68.562
;TYPE:WALL-OUTER
G1 F1200 X81.238 Y68.483 E6.28463
G1 X81.635 Y68.352 E6.29853
G1 X81.935 Y68.227 E6.30934
G1 X82.2 Y68.104 E6.31906
G1 X82.582 Y67.732 E6.3368
G1 X82.876 Y67.432 E6.35077
G1 X83.059 Y67.209 E6.36036
G1 X83.24 Y66.942 E6.37109
G1 X83.396 Y66.655 E6.38195
G1 X83.523 Y66.345 E6.3931
G1 X83.523 Y64.888 E6.44156
G1 X83.516 Y64.356 E6.45925
G1 X83.455 Y63.868 E6.47561
G1 X83.337 Y63.416 E6.49115
G1 X83.156 Y63.013 E6.50584
G1 X82.91 Y62.659 E6.52018
G1 X82.581 Y62.346 E6.53528
G1 X82.169 Y62.083 E6.55154
G1 X81.585 Y61.844 E6.57253
G1 X81.437 Y61.683 E6.5798
G1 X80.632 Y61.714 E6.6066
G1 X80.166 Y61.709 E6.6221
G1 X79.605 Y61.648 E6.64086
G1 X79.37 Y61.698 E6.64886
G1 F1203 X78.791 Y61.988 E6.67034
G1 X78.509 Y62.027 E6.67978
G1 F1200 X78.352 Y62.011 E6.68503
G1 X78.007 Y62.315 E6.70033
G1 X77.663 Y62.699 E6.71747
G1 X77.379 Y63.109 E6.73406
G1 X77.163 Y63.529 E6.74977
G1 X76.996 Y63.991 E6.76611
G1 X76.899 Y64.468 E6.7823
G1 X76.865 Y64.965 E6.79887
G1 X76.895 Y65.479 E6.81599
G1 X77.014 Y66.159 E6.83895
G1 X77.189 Y66.751 E6.85949
G1 X77.433 Y67.259 E6.87823
G1 X77.754 Y67.684 E6.89595
G1 X78.158 Y68.024 E6.91351
G1 X78.672 Y68.291 E6.93277
G1 X79.31 Y68.481 E6.95491
G1 X80.084 Y68.59 E6.98091
G1 X80.456 Y68.602 E6.99329
G1 X80.839 Y68.562 E7.0061
G1 F1500 E0.5061
G0 F6000 X80.729 Y67.871
G0 X81.307 Y67.707
G1 F1500 E7.0061
G0 F6000 X81.048 Y67.057
G1 F1200 X80.652 Y67.215 E7.02028
G1 X80.261 Y67.251 E7.03334
G1 X79.685 Y67.208 E7.05255
G1 X78.912 Y66.482 E7.08782
G1 X78.872 Y66.376 E7.09159
G1 X78.872 Y63.841 E7.1759
G1 X79.598 Y63.117 E7.21001
G1 X79.7 Y63.078 E7.21364
G1 X81.026 Y63.082 E7.25774
G1 X81.244 Y63.259 E7.26708
G1 X81.491 Y63.591 E7.28084
G1 X81.721 Y64.069 E7.29849
G1 X81.865 Y64.321 E7.30814
G1 X81.86 Y64.708 E7.32101
G1 X81.835 Y65.063 E7.33285
G1 X81.796 Y65.388 E7.34374
G1 X81.744 Y65.689 E7.3539
G1 X81.668 Y66 E7.36454
G1 X81.588 Y66.253 E7.37337
G1 X81.481 Y66.527 E7.38315
G1 X81.355 Y66.769 E7.39223
G1 X81.324 Y66.811 E7.39396
G1 X81.048 Y67.057 E7.40626
G0 F6000 X81.307 Y67.707
G0 X80.809 Y67.841
G0 X80.491 Y67.87
G0 X79.496 Y67.851
G0 X78.617 Y67.336
;TYPE:SKIN
G1 F914.3 X78.302 Y67.055 E7.42469
G1 F893.9 X78.122 Y66.765 E7.43993
G1 F983.6 X78.108 Y66.467 E7.45203
G1 F1170.7 X78.117 Y66.412 E7.45393
G1 F1237.1 X78.122 Y65.931 E7.46945
G1 F1179.4 X78.097 Y65.365 E7.48863
G1 F1098.4 X78.092 Y64.971 E7.50294
G1 X78.098 Y64.246 E7.52929
G1 F1052.6 X78.075 Y63.857 E7.54406
G1 F914.3 X78.073 Y63.605 E7.55507
G1 F924.9 X77.891 Y63.841 E7.56793
G1 F1066.7 X77.745 Y64.198 E7.58236
G1 F1113.7 X77.669 Y64.574 E7.59611
G1 F1098.4 X77.648 Y64.97 E7.61052
G1 X77.667 Y65.39 E7.62579
G1 F1179.4 X77.746 Y65.984 E7.64607
G1 F1237.1 X77.895 Y66.468 E7.66241
G1 F1019.1 X78.122 Y66.765 E7.67705
G0 F6000 X77.838 Y66.948
G0 X77.557 Y66.009
G0 X77.429 Y64.941
G0 X77.627 Y63.718
G0 X78.073 Y63.605
G1 F855.6 X78.259 Y63.277 E7.69464
G1 F854.1 X78.651 Y62.865 E7.72122
G0 F6000 X79.189 Y62.605
G0 X81.404 Y62.471
G0 X82.071 Y62.994
G1 F871.1 X82.262 Y63.218 E7.7347
G1 F794.7 X82.391 Y63.442 E7.74768
G1 F771.7 X82.514 Y63.704 E7.76265
G1 F831.9 X82.64 Y64.023 E7.77911
G1 F904 X82.689 Y64.285 E7.79088
G1 F898.9 X82.688 Y64.765 E7.81219
G1 F863.3 X82.675 Y65.161 E7.83051
G1 F783 X82.634 Y65.76 E7.86111
G0 F6000 X82.252 Y65.696
G0 X81.953 Y66.95
G0 X82.185 Y66.955
G1 F1333.3 X82.394 Y66.872 E7.86784
G1 X82.681 Y66.444 E7.88327
G1 F1098.4 X82.784 Y66.181 E7.89353
G1 F820.5 X82.634 Y65.76 E7.91527
G1 F933.9 X82.409 Y66.12 E7.93342
G1 F1311.5 X82.295 Y66.473 E7.94471
G1 F1333.3 X82.185 Y66.761 E7.95393
G1 X82.185 Y66.955 E7.95974
G1 F1500 E1.45974
G0 F6000 X81.953 Y66.95
G0 X82.005 Y67.197
G0 X82.403 Y67.044
G0 X83.305 Y66.305
G0 X84.388 Y66.298
G0 X86.635 Y66.305
G0 X87.72 Y66.305
G0 X88.072 Y67.692
G0 X91.324 Y67.594
G1 F1500 E7.95974
G0 F6000 X91.559 Y67.829
;TYPE:WALL-INNER
G1 F1019.1 X91.559 Y67.397 E7.97666
G1 X91.516 Y67.357 E7.97896
G1 X89.685 Y67.357 E8.05067
G1 F1103.4 X89.126 Y66.957 E8.07553
G1 F1200 X88.986 Y66.44 E8.09335
G1 X89.029 Y65.841 E8.11332
G1 X89.175 Y65.493 E8.12587
G1 X89.328 Y65.367 E8.13246
