;FLAVOR:Marlin
;TIME:3863
;Filament used: 1.76033m
;Layer height: 0.2
;MINX:49.145
;MINY:51.23
;MINZ:0.2
;MAXX:170.855
;MAXY:168.767
;MAXZ:2.4
;Generated with Cura_SteamEngine 5.2.2
M82 ;absolute extrusion mode
; Ender 3 Custom Start G-code
G92 E0 ; Reset Extruder
G28 ; Home all axes
M104 S175 ; Start heating up the nozzle most of the way
M190 S60 ; Start heating the bed, wait until target temperature reached
M109 S200 ; Finish heating the nozzle
G1 Z2.0 F3000 ; Move Z Axis up little to prevent scratching of Heat Bed
G1 X0.1 Y20 Z0.3 F5000.0 ; Move to start position
G1 X0.1 Y200.0 Z0.3 F1500.0 E15 ; Draw the first line
G1 X0.4 Y200.0 Z0.3 F5000.0 ; Move to side a little
G1 X0.4 Y20 Z0.3 F1500.0 E30 ; Draw the second line
G92 E0 ; Reset Extruder
G1 Z2.0 F3000 ; Move Z Axis up little to prevent scratching of Heat Bed
G1 X5 Y20 Z0.3 F5000.0 ; Move over to prevent blob squish
G92 E0
G92 E0
G1 F1500 E-6.5
;LAYER_COUNT:12
;LAYER:0
M107
G0 F6000 X52.973 Y54.088 Z0.2
;TYPE:SKIRT
G1 F1500 E0
G1 F1200 X53.698 Y53.494 E0.03117
G1 X54.472 Y52.963 E0.06239
G1 X55.288 Y52.501 E0.09358
G1 X56.14 Y52.11 E0.12476
G1 X57.023 Y51.792 E0.15598
G1 X57.929 Y51.551 E0.18716
G1 X58.853 Y51.389 E0.21836
G1 X60.085 Y51.295 E0.25945
G1 X61.138 Y51.278 E0.29448
G1 X61.787 Y51.282 E0.31607
G1 X65.056 Y51.357 E0.42482
G1 X68.573 Y51.314 E0.54181
G1 X68.882 Y51.304 E0.55209
G1 X71.202 Y51.276 E0.62926
G1 X73.368 Y51.24 E0.70131
G1 X75.518 Y51.272 E0.77283
G1 X78.054 Y51.281 E0.85718
G1 X79.839 Y51.244 E0.91656
G1 X80.235 Y51.243 E0.92973
G1 X82.556 Y51.279 E1.00694
G1 X84.465 Y51.329 E1.07045
G1 X87.016 Y51.322 E1.1553
G1 X87.891 Y51.303 E1.18441
G1 X88.976 Y51.299 E1.2205
G1 X90.417 Y51.319 E1.26843
G1 X91.722 Y51.356 E1.31185
G1 X94.268 Y51.356 E1.39653
G1 X95.971 Y51.32 E1.45318
G1 X102.529 Y51.319 E1.6713
G1 X104.819 Y51.269 E1.74749
G1 X105.923 Y51.277 E1.78421
G1 X106.781 Y51.3 E1.81276
G1 X109.356 Y51.334 E1.89841
G1 X111.731 Y51.283 E1.97742
G1 X111.953 Y51.288 E1.98481
G1 X113.084 Y51.264 E2.02243
G1 X113.946 Y51.267 E2.0511
G1 X115.439 Y51.306 E2.10078
G1 X118.04 Y51.337 E2.18729
G1 X119.622 Y51.319 E2.23991
G1 X121.138 Y51.288 E2.29035
G1 X121.519 Y51.287 E2.30302
G1 X123.176 Y51.311 E2.35813
G1 X123.417 Y51.307 E2.36615
G1 X125.375 Y51.322 E2.43128
G1 X127.159 Y51.293 E2.49062
G1 X128.527 Y51.261 E2.53613
G1 X129.762 Y51.267 E2.57721
G1 X132.313 Y51.35 E2.6621
G1 X134.859 Y51.359 E2.74678
G1 X138.885 Y51.279 E2.88071
G1 X140.378 Y51.232 E2.9304
G1 X141.035 Y51.23 E2.95225
G1 X142.193 Y51.247 E2.99077
G1 X143.979 Y51.298 E3.05019
G1 X146.354 Y51.307 E3.12919
G1 X147.386 Y51.323 E3.16352
G1 X150.631 Y51.314 E3.27145
G1 X151.181 Y51.306 E3.28974
G1 X154.566 Y51.311 E3.40233
G1 X155.67 Y51.295 E3.43905
G1 X159.306 Y51.295 E3.55998
G1 X160.004 Y51.305 E3.5832
G1 X160.94 Y51.359 E3.61438
G1 X161.868 Y51.491 E3.64556
G1 X162.782 Y51.703 E3.67677
G1 X163.674 Y51.992 E3.70795
G1 X164.539 Y52.355 E3.73915
G1 X165.369 Y52.791 E3.77034
G1 X166.16 Y53.296 E3.80155
G1 X166.904 Y53.867 E3.83274
G1 X167.597 Y54.499 E3.86394
G1 X168.234 Y55.187 E3.89512
G1 X168.809 Y55.928 E3.92632
G1 X169.32 Y56.714 E3.9575
G1 X169.762 Y57.542 E3.98872
G1 X170.131 Y58.404 E4.01991
G1 X170.426 Y59.294 E4.05109
G1 X170.644 Y60.206 E4.08228
G1 X170.784 Y61.134 E4.11349
G1 X170.841 Y61.984 E4.14183
G1 X170.855 Y62.613 E4.16275
G1 X170.854 Y63.441 E4.19029
G1 X170.843 Y64.172 E4.21461
G1 X170.789 Y65.108 E4.24579
G1 X170.655 Y66.036 E4.27698
G1 X170.443 Y66.95 E4.30818
G1 X169.997 Y68.24 E4.35358
G1 X169.018 Y70.588 E4.43819
G1 X168.115 Y72.931 E4.52171
G1 X167.276 Y75.308 E4.60555
G1 X166.507 Y77.694 E4.68893
G1 X165.809 Y80.094 E4.77206
G1 X165.173 Y82.539 E4.85609
G1 X164.6 Y85.027 E4.941
G1 X164.108 Y87.479 E5.02418
G1 X163.681 Y89.968 E5.10818
G1 X163.327 Y92.446 E5.19143
G1 X163.043 Y94.939 E5.27489
G1 X162.829 Y97.454 E5.35884
G1 X162.687 Y99.969 E5.44262
G1 X162.615 Y102.464 E5.52564
G1 X162.615 Y104.988 E5.60959
G1 X162.686 Y107.536 E5.69437
G1 X162.826 Y110.002 E5.77652
G1 X163.041 Y112.538 E5.86117
G1 X163.324 Y115.032 E5.94465
G1 X163.683 Y117.557 E6.02948
G1 X164.104 Y120.019 E6.11255
G1 X164.597 Y122.525 E6.1975
G1 X164.739 Y123.453 E6.22873
G1 X164.804 Y124.648 E6.26853
G1 X164.804 Y125.118 E6.28416
G1 X164.764 Y126.055 E6.31536
G1 X164.644 Y126.985 E6.34654
G1 X164.446 Y127.902 E6.37775
G1 X164.17 Y128.798 E6.40893
G1 X163.819 Y129.668 E6.44013
G1 X163.395 Y130.504 E6.47131
G1 X162.901 Y131.302 E6.50252
G1 X162.341 Y132.054 E6.53371
G1 X161.953 Y132.506 E6.55352
G1 X159.977 Y134.685 E6.65136
G1 X158.319 Y136.626 E6.73626
G1 X156.747 Y138.576 E6.81957
G1 X155.222 Y140.581 E6.90335
G1 X153.751 Y142.632 E6.9873
G1 X152.341 Y144.721 E7.07113
G1 X150.992 Y146.847 E7.15487
G1 X149.713 Y148.996 E7.23805
G1 X148.476 Y151.212 E7.32246
G1 X147.325 Y153.418 E7.40522
G1 X146.22 Y155.692 E7.48931
G1 X145.179 Y157.996 E7.5734
G1 X144.813 Y158.835 E7.60384
G1 X144.401 Y159.678 E7.63505
G1 X143.92 Y160.483 E7.66624
G1 X143.372 Y161.244 E7.69743
G1 X142.761 Y161.955 E7.72861
G1 X142.091 Y162.612 E7.75982
G1 X141.368 Y163.209 E7.79101
G1 X140.597 Y163.743 E7.8222
G1 X140.139 Y164.016 E7.83994
G1 X138.511 Y164.936 E7.90213
G1 X134.874 Y167.031 E8.04173
G1 X134.257 Y167.375 E8.06523
G1 X133.419 Y167.796 E8.09642
G1 X132.548 Y168.144 E8.12762
G1 X131.651 Y168.418 E8.15881
G1 X130.734 Y168.613 E8.18999
G1 X129.803 Y168.73 E8.2212
G1 X128.866 Y168.767 E8.25239
G1 X127.929 Y168.724 E8.28359
G1 X127.351 Y168.657 E8.30294
G1 X126.486 Y168.533 E8.33201
G1 X125.248 Y168.339 E8.37368
G1 X122.737 Y168.018 E8.45788
G1 X120.237 Y167.77 E8.54144
G1 X117.764 Y167.594 E8.6239
G1 X116.783 Y167.553 E8.65655
G1 X115.275 Y167.469 E8.70679
G1 X112.257 Y167.256 E8.80742
G1 X109.748 Y167.154 E8.89094
G1 X107.22 Y167.123 E8.97502
G1 X104.928 Y167.151 E9.05126
G1 X103.374 Y167.137 E9.10295
G1 X100.077 Y167.148 E9.21261
G1 X99.708 Y167.155 E9.22489
G1 X97.159 Y167.245 E9.30972
G1 X94.592 Y167.406 E9.39526
G1 X94.065 Y167.448 E9.41285
G1 X93.522 Y167.477 E9.43093
G1 X92.976 Y167.493 E9.4491
G1 X92.247 Y167.49 E9.47335
G1 X91.734 Y167.471 E9.49042
G1 X90.787 Y167.395 E9.52202
G1 X90.247 Y167.328 E9.54012
G1 X89.526 Y167.214 E9.5644
G1 X88.485 Y167.014 E9.59966
G1 X87.295 Y166.716 E9.64046
G1 X87.028 Y166.633 E9.64976
G1 X85.777 Y166.159 E9.69425
G1 X85.335 Y165.96 E9.71037
G1 X84.497 Y165.539 E9.74157
G1 X83.698 Y165.048 E9.77276
G1 X83.251 Y164.73 E9.791
G1 X82.867 Y164.442 E9.80697
G1 X82.141 Y163.848 E9.83817
G1 X81.215 Y162.916 E9.88186
G1 X81.029 Y162.705 E9.89122
G1 X80.44 Y161.976 E9.92239
G1 X80.097 Y161.485 E9.94231
G1 X79.89 Y161.171 E9.95482
G1 X79.408 Y160.367 E9.986
G1 X78.972 Y159.471 E10.01914
G1 X78.687 Y158.811 E10.04305
G1 X77.651 Y156.496 E10.12741
G1 X76.542 Y154.197 E10.2123
G1 X75.395 Y151.981 E10.2953
G1 X74.184 Y149.794 E10.37844
G1 X72.89 Y147.609 E10.46291
G1 X71.538 Y145.464 E10.54724
G1 X70.147 Y143.391 E10.63027
G1 X68.683 Y141.336 E10.71419
G1 X67.178 Y139.347 E10.79715
G1 X65.579 Y137.351 E10.88221
G1 X63.979 Y135.464 E10.9645
G1 X62.251 Y133.543 E11.05044
G1 X61.399 Y132.633 E11.0919
G1 X60.788 Y131.921 E11.1231
G1 X60.24 Y131.16 E11.15429
G1 X59.759 Y130.355 E11.18548
G1 X59.348 Y129.512 E11.21668
G1 X59.011 Y128.637 E11.24786
G1 X58.749 Y127.736 E11.27907
G1 X58.565 Y126.816 E11.31028
G1 X58.46 Y125.884 E11.34147
G1 X58.433 Y125.119 E11.36693
G1 X58.433 Y124.651 E11.3825
G1 X58.485 Y123.586 E11.41796
G1 X58.575 Y122.67 E11.44858
G1 X58.711 Y121.485 E11.48825
G1 X58.921 Y119.011 E11.57083
G1 X59.066 Y116.478 E11.65521
G1 X59.137 Y113.989 E11.73803
G1 X59.139 Y111.465 E11.82198
G1 X59.068 Y108.945 E11.90583
G1 X58.926 Y106.423 E11.98984
G1 X58.713 Y103.899 E12.07409
G1 X58.434 Y101.437 E12.1565
G1 X58.075 Y98.914 E12.24126
G1 X57.65 Y96.426 E12.32521
G1 X57.165 Y93.997 E12.4076
G1 X56.597 Y91.529 E12.49183
G1 X55.967 Y89.105 E12.57513
G1 X55.255 Y86.651 E12.66012
G1 X54.492 Y84.272 E12.74321
G1 X53.654 Y81.897 E12.82698
G1 X52.758 Y79.565 E12.91007
G1 X51.787 Y77.241 E12.99384
G1 X50.735 Y74.909 E13.07893
G1 X50.225 Y73.84 E13.11832
G1 X49.858 Y72.977 E13.14952
G1 X49.566 Y72.086 E13.1807
G1 X49.351 Y71.173 E13.2119
G1 X49.214 Y70.245 E13.2431
G1 X49.16 Y69.445 E13.26977
G1 X49.145 Y68.778 E13.29196
G1 X49.148 Y62.948 E13.48586
G1 X49.157 Y62.316 E13.50689
G1 X49.21 Y61.38 E13.53807
G1 X49.343 Y60.452 E13.56925
G1 X49.555 Y59.538 E13.60045
G1 X49.843 Y58.646 E13.63163
G1 X50.207 Y57.781 E13.66284
G1 X50.643 Y56.951 E13.69403
G1 X51.148 Y56.16 E13.72524
G1 X51.624 Y55.523 E13.75169
G1 X52.3 Y54.742 E13.78604
G1 X52.973 Y54.088 E13.81726
G0 F6000 X53.264 Y54.364
G1 F1200 X53.979 Y53.783 E13.8479
G1 X54.741 Y53.267 E13.87851
G1 X55.545 Y52.819 E13.90912
G1 X56.385 Y52.442 E13.93974
G1 X57.255 Y52.14 E13.97037
G1 X58.147 Y51.914 E14.00098
G1 X59.056 Y51.766 E14.03161
G1 X60.093 Y51.695 E14.06618
G1 X61.135 Y51.678 E14.10084
G1 X61.784 Y51.682 E14.12243
G1 X65.053 Y51.757 E14.23119
G1 X68.592 Y51.713 E14.3489
G1 X69.103 Y51.7 E14.3659
G1 X71.214 Y51.676 E14.43612
G1 X73.033 Y51.641 E14.49663
G1 X75.031 Y51.66 E14.56309
G1 X75.504 Y51.672 E14.57883
G1 X78.06 Y51.681 E14.66384
G1 X79.847 Y51.644 E14.72329
G1 X80.228 Y51.643 E14.73596
G1 X82.549 Y51.679 E14.81317
G1 X84.455 Y51.729 E14.87658
G1 X87.027 Y51.722 E14.96213
G1 X87.893 Y51.703 E14.99094
G1 X88.97 Y51.699 E15.02676
G1 X90.571 Y51.722 E15.08001
G1 X91.746 Y51.756 E15.11911
G1 X94.276 Y51.756 E15.20326
G1 X95.979 Y51.72 E15.25991
G1 X102.538 Y51.719 E15.47807
G1 X104.828 Y51.669 E15.55425
G1 X105.912 Y51.677 E15.59031
G1 X106.765 Y51.7 E15.61869
G1 X109.331 Y51.733 E15.70404
G1 X111.74 Y51.682 E15.78418
G1 X111.972 Y51.687 E15.7919
G1 X113.093 Y51.664 E15.82919
G1 X113.942 Y51.667 E15.85743
G1 X115.424 Y51.706 E15.90674
G1 X118.04 Y51.738 E15.99375
G1 X119.63 Y51.719 E16.04664
G1 X121.146 Y51.688 E16.09707
G1 X121.514 Y51.687 E16.10931
G1 X123.293 Y51.712 E16.16849
G1 X123.414 Y51.707 E16.17252
G1 X125.379 Y51.722 E16.23787
G1 X127.166 Y51.693 E16.29732
G1 X128.527 Y51.661 E16.3426
G1 X129.749 Y51.667 E16.38324
G1 X132.299 Y51.75 E16.4681
G1 X134.866 Y51.759 E16.55348
G1 X138.907 Y51.678 E16.68791
G1 X140.381 Y51.632 E16.73696
G1 X141.03 Y51.63 E16.75855
G1 X142.188 Y51.647 E16.79707
G1 X143.966 Y51.698 E16.85623
G1 X146.348 Y51.707 E16.93545
G1 X147.381 Y51.723 E16.96981
G1 X150.64 Y51.714 E17.07821
G1 X151.18 Y51.706 E17.09617
G1 X154.571 Y51.711 E17.20896
G1 X155.676 Y51.695 E17.24571
G1 X159.3 Y51.695 E17.36625
G1 X159.998 Y51.705 E17.38947
G1 X160.917 Y51.758 E17.42008
G1 X161.828 Y51.891 E17.4507
G1 X162.724 Y52.102 E17.48132
G1 X163.598 Y52.39 E17.51193
G1 X164.445 Y52.753 E17.54258
G1 X165.256 Y53.188 E17.57319
G1 X166.026 Y53.692 E17.6038
G1 X166.75 Y54.261 E17.63442
G1 X167.422 Y54.891 E17.66506
G1 X168.037 Y55.576 E17.69568
G1 X168.59 Y56.312 E17.7263
G1 X169.077 Y57.093 E17.75691
G1 X169.494 Y57.914 E17.78754
G1 X169.839 Y58.768 E17.81817
G1 X170.108 Y59.648 E17.84878
G1 X170.3 Y60.549 E17.87942
G1 X170.413 Y61.462 E17.91001
G1 X170.442 Y61.995 E17.92777
G1 X170.455 Y62.613 E17.94833
G1 X170.454 Y63.434 E17.97563
G1 X170.443 Y64.165 E17.99995
G1 X170.389 Y65.085 E18.0306
G1 X170.256 Y65.996 E18.06122
G1 X170.044 Y66.891 E18.09182
G1 X169.627 Y68.086 E18.13391
G1 X168.659 Y70.407 E18.21755
G1 X167.741 Y72.79 E18.30249
G1 X166.905 Y75.157 E18.38598
G1 X166.119 Y77.598 E18.47128
G1 X165.424 Y79.987 E18.55403
G1 X164.78 Y82.462 E18.63909
G1 X164.212 Y84.93 E18.72332
G1 X163.716 Y87.398 E18.80705
G1 X163.285 Y89.916 E18.89201
G1 X162.932 Y92.381 E18.97484
G1 X162.646 Y94.896 E19.05903
G1 X162.43 Y97.434 E19.14374
G1 X162.288 Y99.934 E19.22703
G1 X162.215 Y102.487 E19.31198
G1 X162.215 Y104.999 E19.39553
G1 X162.286 Y107.536 E19.47994
G1 X162.429 Y110.058 E19.56396
G1 X162.643 Y112.581 E19.64817
G1 X162.924 Y115.062 E19.73122
G1 X163.286 Y117.608 E19.81675
G1 X163.711 Y120.093 E19.9006
G1 X164.205 Y122.603 E19.98569
G1 X164.343 Y123.513 E20.0163
G1 X164.404 Y124.648 E20.05411
G1 X164.404 Y125.118 E20.06974
G1 X164.364 Y126.038 E20.10037
G1 X164.244 Y126.951 E20.13099
G1 X164.046 Y127.85 E20.16161
G1 X163.77 Y128.728 E20.19222
G1 X163.419 Y129.579 E20.22284
G1 X162.996 Y130.397 E20.25347
G1 X162.503 Y131.174 E20.28407
G1 X161.657 Y132.238 E20.32929
G1 X159.661 Y134.439 E20.42811
G1 X158.002 Y136.382 E20.51309
G1 X156.437 Y138.323 E20.59602
G1 X154.894 Y140.351 E20.68077
G1 X153.439 Y142.38 E20.76381
G1 X152.005 Y144.504 E20.84905
G1 X150.663 Y146.618 E20.93234
G1 X149.354 Y148.818 E21.01748
G1 X148.13 Y151.011 E21.10101
G1 X146.954 Y153.265 E21.18557
G1 X145.853 Y155.531 E21.26936
G1 X144.827 Y157.801 E21.35222
G1 X144.446 Y158.675 E21.38393
G1 X144.042 Y159.502 E21.41454
G1 X143.567 Y160.291 E21.44517
G1 X143.026 Y161.036 E21.4758
G1 X142.422 Y161.731 E21.50642
G1 X141.761 Y162.371 E21.53702
G1 X141.046 Y162.951 E21.56764
G1 X139.943 Y163.668 E21.6114
G1 X138.233 Y164.634 E21.67672
G1 X134.679 Y166.681 E21.81313
G1 X134.062 Y167.025 E21.83663
G1 X133.239 Y167.438 E21.86726
G1 X132.383 Y167.778 E21.89789
G1 X131.502 Y168.043 E21.92849
G1 X130.6 Y168.23 E21.95913
G1 X129.686 Y168.338 E21.98974
G1 X128.766 Y168.366 E22.02035
G1 X127.407 Y168.261 E22.06569
G1 X126.548 Y168.138 E22.09455
G1 X125.294 Y167.941 E22.13677
G1 X122.787 Y167.62 E22.22083
G1 X120.272 Y167.371 E22.30489
G1 X117.775 Y167.194 E22.38815
G1 X116.946 Y167.16 E22.41575
G1 X115.303 Y167.07 E22.47047
G1 X112.268 Y166.856 E22.57167
G1 X109.768 Y166.754 E22.65489
G1 X107.22 Y166.723 E22.73964
G1 X104.923 Y166.751 E22.81605
G1 X103.377 Y166.737 E22.86747
G1 X100.066 Y166.748 E22.97759
G1 X97.12 Y166.846 E23.07563
G1 X94.532 Y167.01 E23.16188
G1 X94.033 Y167.049 E23.17853
G1 X93.51 Y167.077 E23.19595
G1 X92.964 Y167.093 E23.21412
G1 X92.262 Y167.091 E23.23747
G1 X91.749 Y167.072 E23.25454
G1 X90.836 Y166.998 E23.28501
G1 X90.296 Y166.931 E23.3031
G1 X89.601 Y166.822 E23.3265
G1 X88.56 Y166.622 E23.36176
G1 X87.413 Y166.334 E23.40109
G1 X87.146 Y166.251 E23.41039
G1 X85.941 Y165.795 E23.45325
G1 X85.499 Y165.596 E23.46937
G1 X84.677 Y165.181 E23.49999
G1 X83.894 Y164.698 E23.53059
G1 X83.491 Y164.41 E23.54707
G1 X83.107 Y164.122 E23.56303
G1 X82.395 Y163.538 E23.59366
G1 X81.515 Y162.651 E23.63522
G1 X81.329 Y162.44 E23.64457
G1 X80.751 Y161.724 E23.67518
G1 X80.431 Y161.265 E23.69379
G1 X80.224 Y160.951 E23.7063
G1 X79.751 Y160.161 E23.73692
G1 X79.34 Y159.313 E23.76827
G1 X79.065 Y158.675 E23.79137
G1 X77.988 Y156.272 E23.87896
G1 X76.914 Y154.046 E23.96116
G1 X75.742 Y151.782 E24.04595
G1 X74.521 Y149.576 E24.12982
G1 X73.23 Y147.397 E24.21405
G1 X71.892 Y145.274 E24.29752
G1 X70.473 Y143.158 E24.38226
G1 X69 Y141.091 E24.46668
G1 X67.49 Y139.096 E24.54989
G1 X65.898 Y137.109 E24.63458
G1 X64.265 Y135.184 E24.71854
G1 X62.558 Y133.286 E24.80344
G1 X61.691 Y132.359 E24.84566
G1 X61.092 Y131.66 E24.87627
G1 X60.556 Y130.912 E24.90688
G1 X60.087 Y130.12 E24.9375
G1 X59.688 Y129.29 E24.96813
G1 X59.363 Y128.429 E24.99873
G1 X59.114 Y127.542 E25.02938
G1 X58.942 Y126.638 E25.05998
G1 X58.85 Y125.722 E25.0906
G1 X58.833 Y125.119 E25.11067
G1 X58.833 Y124.651 E25.12623
G1 X58.883 Y123.625 E25.1604
G1 X58.973 Y122.715 E25.19081
G1 X59.105 Y121.564 E25.22935
G1 X59.321 Y119.028 E25.314
G1 X59.464 Y116.513 E25.39778
G1 X59.537 Y113.965 E25.48256
G1 X59.539 Y111.454 E25.56608
G1 X59.468 Y108.91 E25.65073
G1 X59.327 Y106.403 E25.73424
G1 X59.114 Y103.891 E25.81809
G1 X58.829 Y101.372 E25.90241
G1 X58.472 Y98.862 E25.98673
G1 X58.043 Y96.352 E26.07142
G1 X57.56 Y93.935 E26.1534
G1 X56.978 Y91.403 E26.23981
G1 X56.353 Y88.998 E26.32246
G1 X55.637 Y86.532 E26.40787
G1 X54.874 Y84.153 E26.49097
G1 X54.032 Y81.769 E26.57506
G1 X53.124 Y79.404 E26.65932
G1 X52.149 Y77.072 E26.74338
G1 X51.085 Y74.714 E26.82943
G1 X50.587 Y73.668 E26.86796
G1 X50.227 Y72.821 E26.89857
G1 X49.942 Y71.945 E26.92921
G1 X49.734 Y71.048 E26.95983
G1 X49.605 Y70.137 E26.99044
G1 X49.56 Y69.433 E27.0139
G1 X49.545 Y68.778 E27.03569
G1 X49.548 Y62.954 E27.2294
G1 X49.557 Y62.322 E27.25042
G1 X49.61 Y61.403 E27.28104
G1 X49.743 Y60.492 E27.31166
