;FLAVOR:Marlin
;TIME:2461
;Filament used: 0.506474m
;Layer height: 0.12
;MINX:83.425
;MINY:85.626
;MINZ:0.12
;MAXX:136.62
;MAXY:137.492
;MAXZ:2.28
;Generated with Cura_SteamEngine 5.2.2
M82 ;absolute extrusion mode
; Ender 3 Custom Start G-code
G92 E0 ; Reset Extruder
G28 ; Home all axes
M104 S175 ; Start heating up the nozzle most of the way
M190 S60 ; Start heating the bed, wait until target temperature reached
M109 S215 ; Finish heating the nozzle
G1 Z2.0 F3000 ; Move Z Axis up little to prevent scratching of Heat Bed
G1 X0.1 Y20 Z0.3 F5000.0 ; Move to start position
G1 X0.1 Y200.0 Z0.3 F1500.0 E15 ; Draw the first line
G1 X0.4 Y200.0 Z0.3 F5000.0 ; Move to side a little
G1 X0.4 Y20 Z0.3 F1500.0 E30 ; Draw the second line
G92 E0 ; Reset Extruder
G1 Z2.0 F3000 ; Move Z Axis up little to prevent scratching of Heat Bed
G1 X5 Y20 Z0.3 F5000.0 ; Move over to prevent blob squish
G92 E0
G92 E0
G1 F1500 E-6.5
;LAYER_COUNT:19
;LAYER:0
M107
;MESH:Text-Large.stl
G0 F6000 X83.977 Y89.274 Z0.12
;TYPE:WALL-OUTER
G1 F1500 E0
G1 F863.3 X83.975 Y88.238 E0.02874
G1 F827.6 X84.005 Y88.054 E0.03413
G1 F842.1 X84.149 Y88.009 E0.03842
G1 F890.5 X85.013 Y88.287 E0.06283
G1 F888.9 X85.104 Y88.425 E0.06728
G1 F831.9 X85.16 Y88.724 E0.07604
G1 F827.6 X85.127 Y89.113 E0.08734
G1 F941.2 X84.874 Y89.321 E0.09567
G1 F1054.9 X84.591 Y89.413 E0.10242
G1 F1012.7 X84.194 Y89.42 E0.11181
G1 F887.2 X83.977 Y89.274 E0.11887
G0 F6000 X83.75 Y89.274
G0 X84.22 Y89.569
G0 X84.765 Y89.568
G0 X84.876 Y89.757
G1 F1021.3 X85.189 Y89.714 E0.12628
G1 F912.5 X85.552 Y89.475 E0.13769
G1 F863.3 X85.664 Y89.286 E0.14378
G1 F836.2 X85.696 Y89.096 E0.1493
G1 F817.7 X85.792 Y88.72 E0.16066
G1 F786.9 X85.738 Y88.564 E0.16569
G1 F831.9 X85.595 Y88.22 E0.17641
G1 F887.2 X85.429 Y87.919 E0.18569
G1 F950.5 X85.248 Y87.802 E0.19112
G1 F1103.4 X84.285 Y87.694 E0.21215
G1 F1039 X84.111 Y87.731 E0.21625
G1 F875.9 X83.984 Y87.687 E0.21992
G1 F845.1 X83.983 Y86.654 E0.2492
G1 F864.9 X83.895 Y86.567 E0.25262
G1 X83.427 Y86.57 E0.26558
G1 F861.8 X83.429 Y87.616 E0.29465
G1 F821.9 X83.456 Y87.872 E0.30215
G1 F827.6 X83.425 Y88.238 E0.31278
G1 F868 X83.427 Y89.26 E0.34097
G1 F851.1 X83.438 Y89.396 E0.34481
G1 F836.2 X83.438 Y89.683 E0.35303
G1 X83.725 Y89.683 E0.36125
G1 F877.5 X84.162 Y89.71 E0.3732
G1 F1043.5 X84.496 Y89.794 E0.3811
G1 F1159.4 X84.876 Y89.757 E0.38899
G1 F1500 E-6.11101
G0 F6000 X84.911 Y89.552
G0 X85.685 Y88.732
G0 X88.112 Y88.732
G0 X88.525 Y89.33
G1 F1500 E0.38899
G1 F874.3 X88.486 Y88.901 E0.40079
G1 F892.2 X88.512 Y88.452 E0.41286
G1 F801.3 X88.564 Y88.234 E0.41956
G1 F840.6 X89.263 Y88.229 E0.43947
G1 F937.5 X89.568 Y88.196 E0.44731
G1 F921.3 X89.763 Y88.399 E0.45462
G1 F910.8 X89.801 Y88.518 E0.45791
G1 F874.3 X89.794 Y89.097 E0.47377
G1 F905.7 X89.587 Y89.313 E0.48168
G1 F1004.2 X89.302 Y89.42 E0.48894
G1 F1151.1 X88.762 Y89.417 E0.50017
G1 F1006.3 X88.525 Y89.33 E0.50618
G1 F1500 E-5.99382
G0 F6000 X88.302 Y89.356
G0 X88.417 Y89.586
G0 X89.415 Y89.592
G0 X90.012 Y89.644
G1 F1500 E0.50618
G1 F885.6 X90.266 Y89.413 E0.51546
G1 F868 X90.347 Y89.134 E0.52348
G1 F860.2 X90.358 Y88.652 E0.5369
G1 F879.1 X90.307 Y88.384 E0.54433
G1 F892.2 X90.191 Y88.126 E0.55193
G1 F857.1 X89.877 Y87.835 E0.56389
G1 F887.2 X89.926 Y87.671 E0.56851
G1 F933.9 X90.075 Y87.398 E0.57648
G1 F905.7 X90.584 Y86.536 E0.60295
G1 F895.5 X90.055 Y86.554 E0.61711
G1 X89.825 Y86.757 E0.62531
G1 F905.7 X89.612 Y87.151 E0.63715
G1 F933.9 X89.462 Y87.476 E0.64633
G1 F887.2 X89.388 Y87.701 E0.65272
G1 F898.9 X89.221 Y87.742 E0.65731
G1 F840.6 X88.556 Y87.747 E0.67625
G1 F804 X88.501 Y87.547 E0.68243
G1 F888.9 X88.5 Y86.572 E0.7087
G1 F892.2 X87.993 Y86.571 E0.7223
G1 X87.961 Y86.603 E0.72352
G1 F888.9 X87.963 Y87.593 E0.75019
G1 F804 X88.018 Y87.994 E0.76225
G1 F801.3 X87.965 Y88.431 E0.7754
G1 F890.5 X87.957 Y88.965 E0.78976
G1 F874.3 X87.977 Y89.434 E0.80262
G1 F845.1 X87.976 Y89.717 E0.81064
G1 X88.266 Y89.718 E0.81886
G1 F1008.4 X88.743 Y89.801 E0.83035
G1 F1243.5 X89.3 Y89.803 E0.84108
G1 F1137.4 X89.621 Y89.768 E0.84788
G1 F995.9 X89.824 Y89.742 E0.8528
G1 F919.5 X90.012 Y89.644 E0.85832
G1 F1500 E-5.64168
G0 F6000 X89.89 Y89.445
G0 X90.208 Y89.119
G0 X92.821 Y88.701
G0 X93.504 Y89.146
G1 F1500 E0.85832
G1 F875.9 X93.371 Y88.997 E0.86378
G1 F1016.9 X93.412 Y88.65 E0.87201
G1 F1200 X93.412 Y87.741 E0.89015
G1 F1014.8 X93.365 Y87.452 E0.89706
G1 F872.7 X93.576 Y87.218 E0.90571
G1 F898.9 X93.88 Y86.993 E0.91578
G1 F933.9 X94.709 Y87.001 E0.93704
G1 F905.7 X95.009 Y87.252 E0.94738
G1 F880.7 X95.254 Y87.714 E0.9616
G1 F879.1 X95.253 Y88.078 E0.97152
G1 F861.8 X95.231 Y88.365 E0.97952
G1 F995.9 X95.08 Y88.697 E0.98829
G1 F1200 X94.984 Y88.939 E0.99348
G1 F1050.3 X94.911 Y89.214 E0.99997
G1 F967.7 X94.643 Y89.387 E1.00786
G1 F1008.4 X94.286 Y89.462 E1.01653
G1 F1030 X93.93 Y89.438 E1.02482
G1 F1008.4 X93.81 Y89.393 E1.02787
G1 F919.5 X93.504 Y89.146 E1.03811
G0 F6000 X93.351 Y89.309
G0 X93.751 Y89.604
G0 X94.336 Y89.67
G0 X94.346 Y89.933
G1 F1008.4 X94.791 Y89.841 E1.0489
G1 F963.9 X95.16 Y89.688 E1.05882
G1 F930.2 X95.272 Y89.581 E1.06281
G1 F1050.3 X95.597 Y89.323 E1.07227
G1 F1200 X95.792 Y89.03 E1.0793
G1 X95.824 Y88.956 E1.0809
G1 F1076.2 X95.876 Y88.81 E1.08435
G1 F909.1 X95.794 Y88.393 E1.09555
G1 F864.9 X95.803 Y87.91 E1.10892
G1 F880.7 X95.77 Y87.58 E1.11794
G1 F864.9 X95.676 Y87.301 E1.12609
G1 F849.6 X95.546 Y87.064 E1.13371
G1 F871.1 X95.38 Y86.866 E1.14082
G1 F924.9 X95.122 Y86.7 E1.14876
G1 F981.6 X94.862 Y86.576 E1.15579
G1 F1002.1 X94.811 Y86.527 E1.15748
G1 F1014.8 X94.218 Y86.532 E1.17147
G1 F1021.3 X93.861 Y86.502 E1.17987
G1 F935.7 X93.379 Y86.745 E1.19369
G1 F868 X93.286 Y86.737 E1.19626
G1 F866.4 X93.097 Y86.908 E1.20331
G1 F871.1 X92.9 Y87.17 E1.21232
G1 F958.1 X92.718 Y87.4 E1.21965
G1 F1121.5 X92.603 Y87.635 E1.22524
G1 F1200 X92.542 Y87.961 E1.23185
G1 X92.534 Y88.292 E1.23846
G1 X92.606 Y88.742 E1.24756
G1 F1121.5 X92.739 Y89.056 E1.25484
G1 F958.1 X92.934 Y89.331 E1.26326
G1 F875.9 X93.143 Y89.567 E1.27188
G1 F914.3 X93.53 Y89.796 E1.28366
G1 F1004.2 X93.883 Y89.894 E1.2924
G1 F1032.3 X94.346 Y89.933 E1.30318
G0 F6000 X94.336 Y89.67
G0 X93.796 Y89.637
G0 X93.238 Y89.115
G0 X93.004 Y88.65
;TYPE:WALL-INNER
G1 F1073.8 X92.973 Y88.263 E1.31183
G1 F1010.5 X92.976 Y88.006 E1.31792
G1 F1500 E-5.18208
G0 F6000 X93.176 Y89.057
G0 X93.796 Y89.637
G0 X94.267 Y89.672
G0 X94.696 Y89.583
G0 X95.657 Y88.794
G0 X98.391 Y88.794
G0 X99.248 Y89.752
;TYPE:WALL-OUTER
G1 F1500 E1.31792
G1 F1041.2 X100.333 Y89.752 E1.34288
G1 F1039 X100.333 Y89.373 E1.35161
G1 X100.247 Y89.291 E1.35435
G1 F1041.2 X99.248 Y89.29 E1.37733
G1 F1116.3 X99.063 Y89.138 E1.38247
G1 F1200 X98.999 Y88.974 E1.38598
G1 X99.004 Y88.612 E1.3932
G1 F1173.6 X99.099 Y88.435 E1.3973
G1 F1095.9 X99.204 Y88.388 E1.39982
G1 F1048 X99.941 Y88.388 E1.41666
G1 X100.038 Y88.292 E1.41978
G1 X100.038 Y87.93 E1.42805
G1 X99.208 Y87.93 E1.44701
G1 F1095.9 X99.104 Y87.881 E1.44953
G1 F1173.6 X99.014 Y87.736 E1.45301
G1 F1200 X99.012 Y86.622 E1.47524
G1 X98.891 Y86.502 E1.47864
G1 X98.243 Y86.502 E1.49157
G1 X98.171 Y86.574 E1.4936
G1 X98.172 Y89.783 E1.55764
G1 X98.637 Y89.783 E1.56692
G1 F1116.3 X99.248 Y89.752 E1.58005
G0 F6000 X98.637 Y89.319
;TYPE:WALL-INNER
G1 F995.9 X98.588 Y89.045 E1.58674
G1 F1106 X98.588 Y88.604 E1.59629
G1 F924.9 X98.674 Y88.154 E1.60815
G1 F907.4 X98.595 Y87.809 E1.61749
G1 F1076.2 X98.592 Y86.923 E1.63721
G1 F1500 E-4.86279
G0 F6000 X98.798 Y88.115
G0 X99.865 Y87.048
G0 X100.92 Y87.048
G0 X101.499 Y88.115
G0 X103.331 Y89.788
;TYPE:WALL-OUTER
G1 F1500 E1.63721
G1 F1300.8 X104.622 Y89.788 E1.66097
G1 X104.611 Y89.418 E1.66779
G1 X103.331 Y89.418 E1.69135
G1 F1010.5 X103.081 Y89.385 E1.69733
G1 F845.1 X102.976 Y89.206 E1.70321
G1 F887.2 X102.958 Y88.79 E1.71445
G1 F989.7 X103.139 Y88.585 E1.72106
G1 F1039 X103.222 Y88.547 E1.72317
G1 F995.9 X104.216 Y88.549 E1.74707
G1 F997.9 X104.217 Y88.067 E1.75864
G1 F995.9 X103.259 Y88.066 E1.78167
G1 F1041.2 X103.083 Y87.88 E1.78756
G1 F981.6 X102.97 Y87.635 E1.79415
G1 F869.6 X102.977 Y87.071 E1.80968
G1 F937.5 X103.205 Y86.999 E1.81579
G1 F1048 X104.549 Y86.998 E1.8465
G1 F1052.6 X104.549 Y86.542 E1.85687
G1 F1048 X103.166 Y86.543 E1.88847
G1 F916 X102.753 Y86.607 E1.8994
G1 F814.9 X102.482 Y86.607 E1.90736
G1 X102.458 Y86.65 E1.90881
G1 X102.458 Y86.902 E1.91621
G1 F851.1 X102.435 Y87.213 E1.92499
G1 F888.9 X102.434 Y87.681 E1.9376
G1 F981.6 X102.384 Y87.966 E1.94466
G1 F1145.6 X102.365 Y88.274 E1.95111
G1 F1034.5 X102.428 Y88.79 E1.96314
G1 F897.2 X102.435 Y89.176 E1.97344
G1 F854.1 X102.455 Y89.39 E1.97947
G1 F824.7 X102.455 Y89.681 E1.98792
G1 X102.914 Y89.68 E2.00125
G1 F1010.5 X103.331 Y89.788 E2.01146
G0 F6000 X102.981 Y89.523
G0 X102.808 Y89.217
G0 X102.77 Y88.363
G0 X102.882 Y88.274
;TYPE:WALL-INNER
G1 F944.9 X102.85 Y88.328 E2.01305
G1 X102.788 Y88.328 E2.01462
G1 X102.756 Y88.274 E2.01621
G1 X102.788 Y88.22 E2.0178
G1 X102.85 Y88.22 E2.01937
G1 F1500 E-4.48063
G0 F6000 X104.043 Y88.376
G0 X106.777 Y88.771
G0 X108.749 Y89.789
;TYPE:WALL-OUTER
G1 F1500 E2.01937
G1 F1095.9 X108.749 Y89.359 E2.02877
G1 F1083.5 X108.281 Y89.46 E2.03935
G1 F1059.6 X107.647 Y89.453 E2.05368
G1 F1014.8 X107.487 Y89.393 E2.05771
G1 F924.9 X107.36 Y89.229 E2.06308
G1 F1010.5 X107.442 Y88.888 E2.07139
G1 F995.9 X107.461 Y88.712 E2.07565
G1 F872.7 X107.811 Y88.458 E2.08752
G1 F907.4 X108.132 Y88.365 E2.09634
G1 F1019.1 X108.406 Y88.326 E2.10284
G1 F1170.7 X108.687 Y88.189 E2.10923
G1 F1200 X108.878 Y88.034 E2.11414
G1 X109.035 Y87.825 E2.11936
G1 X109.105 Y87.551 E2.125
G1 X109.039 Y87.254 E2.13108
G1 X108.876 Y86.997 E2.13715
G1 F1165 X108.679 Y86.807 E2.14277
G1 F1103.4 X108.408 Y86.63 E2.1498
G1 F1073.8 X108.126 Y86.526 E2.1565
G1 F1052.6 X107.21 Y86.516 E2.17734
G1 F1059.6 X106.893 Y86.563 E2.18458
G1 F1081.1 X106.77 Y86.617 E2.18756
G1 X106.772 Y87.019 E2.19647
G1 F1071.4 X107.168 Y86.976 E2.20537
G1 F1048 X107.693 Y86.986 E2.21737
G1 F1052.6 X108.074 Y86.977 E2.22604
G1 F1071.4 X108.215 Y87.04 E2.22949
G1 F1118.9 X108.265 Y87.145 E2.23198
G1 F1182.3 X108.21 Y87.559 E2.24044
G1 F1041.2 X107.982 Y87.865 E2.24921
G1 F907.4 X107.583 Y87.971 E2.26011
G1 F872.7 X107.142 Y88.247 E2.27438
G1 F928.4 X106.909 Y88.346 E2.28091
G1 F1103.4 X106.669 Y88.519 E2.28733
G1 F1200 X106.556 Y88.723 E2.29199
G1 X106.572 Y88.976 E2.29705
G1 F1132.1 X106.701 Y89.265 E2.30374
G1 F961.9 X106.87 Y89.477 E2.31049
G1 F898.9 X106.912 Y89.57 E2.31321
G1 F952.4 X107.217 Y89.79 E2.32267
G1 F997.9 X107.576 Y89.907 E2.33173
G1 F1021.3 X108.024 Y89.936 E2.34225
G1 F1057.3 X108.508 Y89.862 E2.35334
G1 F1090.9 X108.749 Y89.789 E2.35887
G0 F6000 X108.498 Y89.648
G0 X107.395 Y89.657
G0 X107.257 Y89.382
G0 X107.064 Y88.824
;TYPE:WALL-INNER
G1 F991.7 X107.033 Y88.875 E2.36031
G1 X106.974 Y88.875 E2.36174
G1 X106.944 Y88.824 E2.36317
G1 X106.975 Y88.773 E2.36461
G1 X107.033 Y88.773 E2.36601
G1 F1500 E-4.13399
G0 F6000 X107.15 Y89.171
G0 X107.395 Y89.657
G0 X108.172 Y89.664
G0 X108.556 Y89.597
G0 X111.289 Y89.142
G0 X111.48 Y89.716
;TYPE:WALL-OUTER
G1 F1500 E2.36601
G1 F1014.8 X111.865 Y89.892 E2.376
G1 F1032.3 X112.31 Y89.919 E2.38634
G1 X112.854 Y89.92 E2.39896
G1 F1034.5 X113.172 Y89.767 E2.40713
G1 X113.259 Y89.687 E2.40987
G1 X113.298 Y89.494 E2.41442
G1 X113.257 Y89.388 E2.41705
G1 X113.084 Y89.445 E2.42127
G1 F1036.7 X112.602 Y89.46 E2.43241
G1 F1054.9 X111.975 Y89.45 E2.44665
G1 F1032.3 X111.804 Y89.367 E2.45106
G1 F956.2 X111.739 Y89.235 E2.45474
G1 F877.5 X111.716 Y88.879 E2.46448
G1 F864.9 X111.914 Y88.629 E2.47331
G1 F900.6 X112.058 Y88.548 E2.4777
G1 F892.2 X112.333 Y88.484 E2.48528
G1 F857.1 X112.609 Y88.39 E2.49342
G1 F836.2 X112.892 Y88.244 E2.50254
G1 X113.104 Y88.111 E2.50971
G1 F821.9 X113.332 Y87.936 E2.51808
G1 F820.5 X113.389 Y87.827 E2.52167
G1 F852.6 X113.403 Y87.414 E2.53328
G1 F854.1 X113.384 Y87.101 E2.54207
G1 F855.6 X113.168 Y86.865 E2.55103
G1 F887.2 X112.918 Y86.664 E2.55969
G1 F960 X112.585 Y86.529 E2.56865
G1 F1039 X111.889 Y86.507 E2.5847
G1 F1054.9 X111.617 Y86.512 E2.59087
G1 F1057.3 X111.262 Y86.578 E2.59905
G1 X111.109 Y86.646 E2.60285
G1 X111.109 Y86.964 E2.61005
G1 F1043.5 X112.427 Y86.968 E2.6403
G1 F961.9 X112.605 Y87.092 E2.6457
G1 F885.6 X112.835 Y87.31 E2.65427
G1 F849.6 X112.824 Y87.619 E2.66298
G1 F843.6 X112.231 Y87.947 E2.68222
G1 F871.1 X111.79 Y88.093 E2.69499
G1 F884 X111.68 Y88.112 E2.69801
G1 F893.9 X111.476 Y88.315 E2.70572
G1 F871.1 X111.234 Y88.603 E2.71606
G1 F839.2 X111.155 Y88.686 E2.71933
G1 F846.6 X111.153 Y89.194 E2.7337
G1 F885.6 X111.252 Y89.375 E2.73928
G1 F946.7 X111.37 Y89.608 E2.74589
G1 F987.7 X111.48 Y89.716 E2.74963
G1 F1500 E-3.75037
G0 F6000 X111.56 Y89.492
G0 X111.75 Y88.552
G0 X110.687 Y87.831
G0 X110.205 Y88.311
G0 X110.211 Y89.543
G0 X110.65 Y90.185
G0 X110.999 Y90.5
G0 X111.703 Y90.768
G0 X113.058 Y90.817
G0 X113.676 Y90.521
G0 X114.038 Y90.189
G0 X114.725 Y88.556
G0 X115.59 Y89.761
G1 F1500 E2.74963
G1 F1200 X116.436 Y89.761 E2.76651
G1 X116.43 Y86.599 E2.82961
G1 X116.332 Y86.495 E2.83246
G1 X115.699 Y86.495 E2.84509
G1 X115.607 Y86.613 E2.84808
G1 X115.583 Y86.76 E2.85105
G1 X115.591 Y87.684 E2.86949
G1 X115.59 Y89.761 E2.91094
G0 F6000 X116.013 Y89.338
;TYPE:WALL-INNER
G1 F1069 X116.01 Y86.92 E2.96511
G1 F1500 E-3.53489
G0 F6000 X116.235 Y89.31
G0 X119.005 Y88.794
G0 X119.221 Y89.512
;TYPE:WALL-OUTER
G1 F1500 E2.96511
G1 F956.2 X119.526 Y89.739 E2.97463
G1 F950.5 X119.792 Y89.841 E2.98181
G1 F989.7 X120.144 Y89.901 E2.99045
G1 F1027.8 X120.456 Y89.912 E2.99772
G1 F995.9 X120.833 Y89.901 E3.00679
G1 F965.8 X120.9 Y89.85 E3.00888
G1 F910.8 X121.368 Y89.597 E3.02287
G1 F849.6 X121.559 Y89.411 E3.03038
G1 F840.6 X121.716 Y89.202 E3.03783
G1 F837.7 X121.85 Y88.853 E3.04851
G1 F809.4 X121.91 Y88.453 E3.06048
G1 F775.4 X121.938 Y88.165 E3.06942
G1 F770.5 X121.92 Y87.761 E3.08199
G1 F820.5 X121.782 Y87.35 E3.09464
G1 F880.7 X121.642 Y87.113 E3.10212
G1 F892.2 X121.591 Y87.053 E3.10424
G1 F921.3 X121.403 Y86.77 E3.11307
G1 F1008.4 X121.074 Y86.585 E3.12203
G1 F1054.9 X120.735 Y86.524 E3.12985
G1 F1030 X120.335 Y86.513 E3.13915
G1 F1019.1 X119.825 Y86.52 E3.15114
G1 F1004.2 X119.506 Y86.681 E3.15966
G1 F944.9 X119.243 Y86.901 E3.16835
G1 F879.1 X118.955 Y87.235 E3.18036
G1 F852.6 X118.87 Y87.528 E3.18893
G1 F854.1 X118.803 Y87.866 E3.19859
G1 F868 X118.774 Y88.134 E3.20603
G1 F892.2 X118.778 Y88.468 E3.215
G1 F885.6 X118.874 Y88.849 E3.22562
G1 F882.4 X119.012 Y89.27 E3.23765
G1 F933.9 X119.221 Y89.512 E3.24585
G0 F6000 X119.621 Y89.212
G1 F963.9 X119.496 Y89.077 E3.25042
G1 F897.2 X119.458 Y88.806 E3.25772
G1 F877.5 X119.318 Y88.454 E3.26806
G1 F898.9 X119.301 Y88.296 E3.27229
G1 F879.1 X119.359 Y87.933 E3.28231
G1 F890.5 X119.491 Y87.4 E3.29707
G1 F958.1 X119.806 Y87.053 E3.30879
G1 F1004.2 X119.931 Y86.987 E3.31216
G1 F1030 X120.89 Y86.987 E3.33445
G1 X121.041 Y87.083 E3.33861
G1 F950.5 X121.117 Y87.223 E3.34263
G1 F892.2 X121.102 Y87.314 E3.3451
G1 F882.4 X121.265 Y87.534 E3.35253
G1 F820.5 X121.304 Y87.832 E3.3613
G1 F770.5 X121.309 Y88.154 E3.37131
G1 F797.3 X121.284 Y88.754 E3.38935
G1 F840.6 X121.238 Y88.885 E3.3933
G1 F869.6 X120.911 Y89.293 E3.4077
G1 F941.2 X120.618 Y89.447 E3.41613
G1 F1010.5 X120.198 Y89.438 E3.42608
G1 F989.7 X119.949 Y89.363 E3.43237
G1 F971.7 X119.621 Y89.212 E3.44127
G1 F1500 E-3.05873
G0 F6000 X119.521 Y89.45
G0 X120.131 Y89.642
G0 X120.523 Y89.653
G0 X120.841 Y89.565
G0 X121.752 Y88.683
G0 X124.53 Y88.687
G0 X124.697 Y89.376
;TYPE:WALL-INNER
G1 F1500 E3.44127
G1 F1283.4 X124.911 Y89.376 E3.44527
G1 X125.282 Y88.75 E3.45884
G1 X124.924 Y88.869 E3.46588
G1 X124.698 Y88.634 E3.47197
G1 X124.697 Y89.376 E3.48581
G0 F6000 X125.735 Y88.258
G0 X126.122 Y87.434
G0 X126.678 Y87.495
G0 X126.767 Y87.622
G1 F1371.4 X126.767 Y86.852 E3.49926
G1 X126.628 Y86.859 E3.50169
G1 X126.475 Y87.056 E3.50604
G1 X126.264 Y87.418 E3.51336
G1 X126.397 Y87.343 E3.51603
G1 X126.548 Y87.366 E3.51869
G1 X126.767 Y87.622 E3.52458
G1 F1500 E-2.97542
G0 F6000 X126.833 Y87.608
G0 X126.122 Y87.434
G0 X125.771 Y88.162
G0 X124.58 Y89.493
G1 F1500 E3.52458
G0 F6000 X124.31 Y89.763
;TYPE:WALL-OUTER
