;FLAVOR:Marlin
;TIME:3173
;Filament used: 0.683748m
;Layer height: 0.12
;MINX:80.367
;MINY:81.612
;MINZ:0.12
;MAXX:139.577
;MAXY:138.354
;MAXZ:2.52
;Generated with Cura_SteamEngine 5.2.2
M82 ;absolute extrusion mode
; Ender 3 Custom Start G-code
G92 E0 ; Reset Extruder
G28 ; Home all axes
M104 S175 ; Start heating up the nozzle most of the way
M190 S60 ; Start heating the bed, wait until target temperature reached
M109 S215 ; Finish heating the nozzle
G1 Z2.0 F3000 ; Move Z Axis up little to prevent scratching of Heat Bed
G1 X0.1 Y20 Z0.3 F5000.0 ; Move to start position
G1 X0.1 Y200.0 Z0.3 F1500.0 E15 ; Draw the first line
G1 X0.4 Y200.0 Z0.3 F5000.0 ; Move to side a little
G1 X0.4 Y20 Z0.3 F1500.0 E30 ; Draw the second line
G92 E0 ; Reset Extruder
G1 Z2.0 F3000 ; Move Z Axis up little to prevent scratching of Heat Bed
G1 X5 Y20 Z0.3 F5000.0 ; Move over to prevent blob squish
G92 E0
G92 E0
G1 F1500 E-6.5
;LAYER_COUNT:21
;LAYER:0
M107
;MESH:Certification-Text-Large.stl
G0 F6000 X81.192 Y84.699 Z0.12
;TYPE:WALL-OUTER
G1 F1500 E0
G1 F1200 X81.189 Y83.602 E0.02189
G1 X81.228 Y83.481 E0.02443
G1 X81.424 Y83.402 E0.02865
G1 X82.175 Y83.74 E0.04508
G1 X82.252 Y83.873 E0.04815
G1 X82.253 Y84.468 E0.06002
G1 X82.221 Y84.558 E0.06193
G1 X82.003 Y84.789 E0.06827
G1 F1185.2 X81.642 Y84.925 E0.07606
G1 F1179.4 X81.332 Y84.826 E0.08267
G1 F1194 X81.192 Y84.699 E0.08646
G0 F6000 X80.889 Y84.699
G0 X80.959 Y84.956
G0 X81.662 Y85.164
G0 X82.378 Y85.031
G0 X82.455 Y85.327
G1 F1200 X82.813 Y85.125 E0.09466
G1 X82.961 Y84.991 E0.09865
G1 X83.07 Y84.812 E0.10283
G1 X83.082 Y84.688 E0.10532
G1 X83.254 Y84.174 E0.11613
G1 X83.226 Y83.953 E0.12058
G1 X82.988 Y83.584 E0.12934
G1 X82.768 Y83.175 E0.13861
G1 X82.643 Y83.059 E0.14201
G1 X82.497 Y83.005 E0.14512
G1 F1203 X81.4 Y83.003 E0.16696
G1 X81.285 Y82.967 E0.16935
G1 X81.202 Y82.839 E0.17239
G1 F1200 X81.2 Y81.797 E0.19318
G1 X81.038 Y81.636 E0.19774
G1 X80.368 Y81.637 E0.21111
G1 X80.368 Y85.326 E0.28473
G1 F1194 X81.261 Y85.325 E0.30264
G1 F1167.9 X81.527 Y85.317 E0.3081
G1 F1173.6 X82.455 Y85.327 E0.32704
G0 F6000 X82.625 Y84.714
;TYPE:WALL-INNER
G1 F969.7 X82.66 Y84.645 E0.32895
G1 F858.7 X82.748 Y84.125 E0.34365
G1 F897.2 X82.597 Y83.658 E0.35675
G1 F1066.7 X82.424 Y83.415 E0.36345
G0 F6000 X82.49 Y84.626
G0 X82.133 Y84.996
G0 X81.662 Y85.164
G0 X80.959 Y84.956
G0 X80.784 Y82.053
G1 F1095.9 X80.787 Y82.911 E0.3822
G1 F960 X80.845 Y83.195 E0.38943
G1 F979.6 X80.778 Y83.602 E0.39951
G1 F1118.9 X80.782 Y84.737 E0.42381
G1 F1054.9 X80.806 Y84.888 E0.42728
G1 F1500 E-6.07272
G0 F6000 X81.662 Y85.164
G0 X82.859 Y84.739
G0 X85.634 Y84.739
G0 X86.248 Y84.771
;TYPE:WALL-OUTER
G1 F1500 E0.42728
G1 F1200 X86.201 Y84.514 E0.43249
G1 X86.191 Y84.142 E0.43992
G1 X86.228 Y83.839 E0.44601
G1 F1100.9 X86.326 Y83.65 E0.45064
G1 F946.7 X86.399 Y83.593 E0.45298
G1 F882.4 X86.959 Y83.592 E0.46818
G1 F880.7 X87.015 Y83.585 E0.46972
G1 F932 X87.244 Y83.622 E0.47568
G1 F1086 X87.381 Y83.717 E0.47935
G1 F1200 X87.443 Y83.83 E0.48192
G1 F1188.1 X87.441 Y84.515 E0.49573
G1 F1165 X87.245 Y84.758 E0.50215
G1 F1132.1 X86.973 Y84.912 E0.50876
G1 F1113.7 X86.405 Y84.911 E0.52097
G1 F1159.4 X86.248 Y84.771 E0.52532
G0 F6000 X85.948 Y84.819
G0 X86.069 Y85.128
G0 X86.621 Y85.132
G0 X87.535 Y85.059
G0 X87.598 Y85.356
G1 F1200 X87.843 Y85.246 E0.53068
G1 X88.06 Y85.084 E0.53608
G1 X88.253 Y84.765 E0.54352
G1 X88.291 Y84.211 E0.5546
G1 X88.258 Y83.907 E0.56071
G1 X88.136 Y83.562 E0.56801
G1 X88.039 Y83.425 E0.57136
G1 F1167.9 X87.733 Y83.152 E0.57977
G1 X87.77 Y83.002 E0.58294
G1 F1200 X88.543 Y81.704 E0.61308
G1 X88.341 Y81.618 E0.61747
G1 X87.792 Y81.636 E0.62843
G1 X87.662 Y81.741 E0.63176
G1 X87.452 Y81.985 E0.63819
G1 X87.293 Y82.293 E0.6451
G1 X87.022 Y82.925 E0.65883
G1 F1014.8 X86.94 Y83.045 E0.66226
G1 F880.7 X86.912 Y83.051 E0.66303
G1 F882.4 X86.39 Y83.053 E0.6772
G1 F946.7 X86.316 Y82.999 E0.67952
G1 F1100.9 X86.212 Y82.817 E0.68408
G1 F1200 X86.21 Y81.651 E0.70735
G1 X85.507 Y81.651 E0.72138
G1 X85.414 Y81.744 E0.724
G1 F1179.4 X85.414 Y85.367 E0.79757
G1 F1140.1 X86.385 Y85.338 E0.81797
G1 F1116.3 X87.01 Y85.342 E0.83138
G1 F1153.8 X87.598 Y85.356 E0.84359
G0 F6000 X87.766 Y84.779
;TYPE:WALL-INNER
G1 F1090.9 X87.855 Y84.613 E0.84772
G1 F1116.3 X87.871 Y84.086 E0.85903
G1 F1246.8 X87.813 Y83.767 E0.86526
G1 F1573.8 X87.663 Y83.533 E0.86949
G1 F1437.1 X87.385 Y83.278 E0.87578
G1 F1165 X87.35 Y83.153 E0.87844
G1 F1300.8 X87.439 Y82.861 E0.88406
G1 F1387.3 X87.643 Y82.458 E0.89186
G1 F1256.5 X87.782 Y82.208 E0.89731
G1 F1293.8 X87.924 Y82.011 E0.90181
G0 F6000 X87.151 Y83.215
G0 X85.982 Y83.21
G0 X85.812 Y82.049
G1 F1197 X85.816 Y82.886 E0.91855
G1 F912.5 X85.938 Y83.331 E0.93066
G1 F904 X85.823 Y83.79 E0.9432
G1 F1212.1 X85.802 Y84.184 E0.95099
G1 F1263.2 X85.807 Y84.498 E0.95694
G1 F1176.5 X85.828 Y84.804 E0.96319
G1 F1073.8 X85.846 Y84.927 E0.96596
G1 F1500 E-5.53404
G0 F6000 X86.069 Y85.128
G0 X86.946 Y85.135
G0 X88.038 Y84.708
G0 X89.119 Y84.78
G0 X90.09 Y85.129
G0 X92.149 Y84.935
;TYPE:WALL-OUTER
G1 F1500 E0.96596
G1 F1054.9 X91.913 Y84.691 E0.97367
G1 F1200 X91.59 Y84.39 E0.98248
G1 X91.59 Y82.796 E1.01429
G1 X91.701 Y82.669 E1.01765
G1 F1006.3 X91.924 Y82.34 E1.02711
G1 F888.9 X92.139 Y82.217 E1.03378
G1 F916 X92.436 Y82.226 E1.04155
G1 F912.5 X92.958 Y82.226 E1.05525
G1 F910.8 X93.039 Y82.262 E1.05758
G1 F1041.2 X93.264 Y82.594 E1.06681
G1 F1200 X93.399 Y82.866 E1.07287
G1 X93.524 Y83.107 E1.07828
G1 X93.498 Y83.554 E1.08722
G1 X93.445 Y83.923 E1.09466
G1 X93.33 Y84.317 E1.10285
G1 X93.182 Y84.639 E1.10992
G1 F987.7 X93.22 Y84.698 E1.11162
G1 F852.6 X93.087 Y84.802 E1.11636
G1 F892.2 X92.688 Y84.977 E1.12806
G1 F930.2 X92.149 Y84.935 E1.14198
G0 F6000 X92.581 Y85.486
G1 F916 X92.996 Y85.419 E1.15297
G1 F885.6 X93.496 Y85.223 E1.16749
G1 F854.1 X93.604 Y85.12 E1.17167
G1 F987.7 X93.688 Y85.157 E1.1739
G1 F1200 X93.931 Y84.923 E1.18063
G1 X94.188 Y84.599 E1.18888
G1 X94.328 Y84.277 E1.19589
G1 X94.324 Y83.621 E1.20898
G1 X94.333 Y83.217 E1.21705
G1 X94.305 Y82.94 E1.2226
G1 X94.248 Y82.681 E1.22789
G1 X94.095 Y82.298 E1.23612
G1 X93.802 Y82 E1.24446
G1 F1148.3 X93.585 Y81.874 E1.2497
G1 F1045.8 X93.196 Y81.776 E1.25888
G1 F946.7 X93.113 Y81.7 E1.26173
G1 F912.5 X92.464 Y81.706 E1.27876
G1 F916 X92.063 Y81.672 E1.28928
G1 F888.9 X91.63 Y81.89 E1.30234
G1 F914.3 X91.41 Y81.872 E1.30812
G1 F1032.3 X91.183 Y82.035 E1.31461
G1 F1151.1 X91.083 Y82.129 E1.31746
G1 F1200 X90.854 Y82.43 E1.32501
G1 X90.665 Y82.841 E1.33404
G1 X90.573 Y83.286 E1.34311
G1 X90.579 Y83.674 E1.35085
G1 X90.632 Y84.041 E1.35825
G1 X90.717 Y84.412 E1.36585
G1 X90.893 Y84.807 E1.37448
G1 X91.223 Y85.158 E1.38409
G1 X91.474 Y85.328 E1.39014
G1 F1121.5 X91.852 Y85.42 E1.39845
G1 F991.7 X92.156 Y85.453 E1.40583
G1 F933.9 X92.581 Y85.486 E1.41676
G0 F6000 X92.578 Y85.245
G0 X91.647 Y84.975
;TYPE:WALL-INNER
G1 F1215.2 X91.487 Y84.848 E1.42079
G1 F1148.3 X91.241 Y84.576 E1.42844
G1 F1043.5 X91.143 Y84.27 E1.43581
G1 F905.7 X91.107 Y83.953 E1.44425
G1 F814.9 X91.084 Y83.634 E1.45364
G1 F781.8 X91.082 Y83.333 E1.46286
G1 F826.2 X91.117 Y82.989 E1.47289
G1 F979.6 X91.205 Y82.638 E1.48173
G1 F1118.9 X91.41 Y82.378 E1.48882
G0 F6000 X91.99 Y82.05
G0 X93.094 Y82.05
G0 X93.546 Y82.309
G1 F1103.4 X93.723 Y82.541 E1.49515
G1 F1061.9 X93.85 Y82.806 E1.50178
G1 F1137.4 X93.933 Y83.077 E1.50775
G1 F1145.6 X93.912 Y83.564 E1.51794
G1 F1057.3 X93.873 Y84.141 E1.53103
G1 F954.3 X93.822 Y84.282 E1.5348
G1 F1500 E-4.9652
G0 F6000 X94.109 Y84.233
G0 X95.192 Y84.226
G0 X95.97 Y84.233
G0 X99.254 Y85.284
;TYPE:WALL-OUTER
G1 F1500 E1.5348
G1 F935.7 X99.243 Y84.845 E1.54604
G1 X99.164 Y84.77 E1.54882
G1 X98.053 Y84.77 E1.57726
G1 F1052.6 X97.868 Y84.593 E1.58308
G1 F1200 X97.788 Y84.37 E1.58781
G1 X97.807 Y84.009 E1.59503
G1 F1159.4 X97.9 Y83.837 E1.59906
G1 F1025.6 X98.007 Y83.769 E1.60202
G1 F943 X98.823 Y83.769 E1.62275
G1 X98.931 Y83.661 E1.62663
G1 X98.931 Y83.259 E1.63683
G1 X98.01 Y83.259 E1.66022
G1 F1025.6 X97.904 Y83.189 E1.66319
G1 F1159.4 X97.816 Y83.04 E1.66676
G1 F1200 X97.814 Y81.797 E1.69157
G1 X97.666 Y81.651 E1.69572
G1 X96.928 Y81.651 E1.71044
G1 X96.835 Y81.744 E1.71307
G1 X96.835 Y85.34 E1.78483
G1 X97.373 Y85.34 E1.79557
G1 F1052.6 X98.053 Y85.284 E1.81109
G1 F935.7 X99.254 Y85.284 E1.84183
G0 F6000 X99.035 Y85.071
G0 X97.883 Y84.959
G0 X97.373 Y84.802
;TYPE:WALL-INNER
G1 F772.9 X97.308 Y84.407 E1.85423
G1 F843.6 X97.322 Y83.977 E1.86644
G1 F719.6 X97.417 Y83.51 E1.8823
G1 F710.1 X97.329 Y83.125 E1.89562
G1 F821.9 X97.325 Y82.141 E1.92429
G1 F1500 E-4.57571
G0 F6000 X97.6 Y83.419
G0 X98.667 Y82.352
G0 X99.838 Y82.352
G0 X100.628 Y83.419
G0 X104.029 Y85.323
;TYPE:WALL-OUTER
G1 F1500 E1.92429
G1 F1170.7 X104.011 Y84.913 E1.93268
G1 X102.589 Y84.913 E1.96177
G1 F1185.2 X102.421 Y84.819 E1.96566
G1 F1200 X102.295 Y84.597 E1.97076
G1 X102.28 Y84.215 E1.97838
G1 F1118.9 X102.392 Y84.002 E1.98354
G1 F965.8 X102.48 Y83.946 E1.98612
G1 F895.5 X103.573 Y83.948 E2.01535
G1 F897.2 X103.575 Y83.412 E2.02966
G1 F895.5 X102.516 Y83.411 E2.05798
G1 F993.8 X102.388 Y83.299 E2.06207
G1 F1159.4 X102.288 Y82.941 E2.06975
G1 F1200 X102.297 Y82.402 E2.08051
G1 F1054.9 X102.452 Y82.225 E2.08585
G1 F943 X103.944 Y82.224 E2.12374
G1 F946.7 X103.944 Y81.716 E2.13659
G1 F943 X102.408 Y81.718 E2.17559
G1 F1054.9 X101.948 Y81.663 E2.18611
G1 F1200 X101.588 Y81.663 E2.19329
G1 X101.493 Y81.774 E2.19621
G1 X101.493 Y85.328 E2.26713
G1 F1185.2 X104.029 Y85.323 E2.31837
G0 F6000 X103.391 Y83.765
G0 X102.034 Y83.788
G0 X101.936 Y84.885
;TYPE:WALL-INNER
G1 F1071.4 X101.897 Y84.666 E2.32335
G1 F1203 X101.886 Y84.215 E2.33233
G1 F916 X102.023 Y83.646 E2.34763
G1 F839.2 X101.935 Y83.318 E2.35732
G1 F1083.5 X101.893 Y83.009 E2.36421
G1 F1194 X101.895 Y82.463 E2.37516
G1 F1052.6 X101.948 Y82.118 E2.3831
G1 F1500 E-4.1169
G0 F6000 X103.783 Y82.063
G0 X104.862 Y82.063
G0 X105.522 Y83.42
G0 X108.613 Y85.326
;TYPE:WALL-OUTER
G1 F1500 E2.3831
G1 F985.6 X108.613 Y84.877 E2.39401
G1 F963.9 X107.999 Y84.961 E2.40941
G1 F954.3 X107.352 Y84.951 E2.42565
G1 F1034.5 X107.25 Y84.843 E2.42908
G1 F1162.2 X107.14 Y84.564 E2.43526
G1 F1200 X107.152 Y84.368 E2.43918
G1 X107.345 Y84.125 E2.44538
G1 X107.692 Y83.906 E2.45356
G1 X108.292 Y83.724 E2.46608
G1 X108.65 Y83.51 E2.4744
G1 X108.882 Y83.265 E2.48113
G1 X108.982 Y83.088 E2.48519
G1 X109.032 Y82.84 E2.49024
G1 X108.987 Y82.58 E2.4955
G1 X108.826 Y82.283 E2.50225
G1 X108.529 Y81.951 E2.51114
G1 F1054.9 X108.489 Y81.981 E2.51227
G1 F956.2 X108.159 Y81.78 E2.52195
G1 F967.7 X107.918 Y81.698 E2.52825
G1 F961.9 X107.754 Y81.703 E2.53233
G1 F944.9 X106.911 Y81.681 E2.5537
G1 F946.7 X106.549 Y81.742 E2.56299
G1 F963.9 X106.413 Y81.801 E2.56667
G1 X106.416 Y82.25 E2.57783
G1 F956.2 X106.868 Y82.199 E2.58922
G1 F943 X107.497 Y82.211 E2.6052
G1 F950.5 X107.861 Y82.2 E2.61437
G1 F937.5 X108.061 Y82.306 E2.62015
G1 F1036.7 X108.011 Y82.341 E2.62156
G1 F1200 X108.039 Y82.476 E2.62432
G1 X107.99 Y82.825 E2.63135
G1 X107.814 Y83.063 E2.63726
G1 X107.723 Y83.122 E2.63942
G1 X107.211 Y83.252 E2.64996
G1 X106.613 Y83.607 E2.66384
G1 X106.275 Y83.882 E2.67254
G1 X106.154 Y84.194 E2.67921
G1 X106.168 Y84.426 E2.68385
G1 X106.275 Y84.735 E2.69038
G1 X106.465 Y85.087 E2.69836
G1 X106.488 Y85.165 E2.69998
G1 F1111.1 X106.894 Y85.389 E2.70998
G1 F993.8 X107.219 Y85.428 E2.71786
G1 F939.3 X107.448 Y85.478 E2.72384
G1 F928.4 X107.932 Y85.476 E2.73632
G1 F956.2 X108.34 Y85.407 E2.74669
G1 F987.7 X108.613 Y85.326 E2.75359
G0 F6000 X108.374 Y85.152
G0 X107.137 Y85.129
G0 X106.821 Y84.888
;TYPE:WALL-INNER
G1 F1151.1 X106.795 Y84.838 E2.75476
G1 F1043.5 X106.689 Y84.554 E2.76172
G1 F871.1 X106.66 Y84.271 E2.76954
G1 F869.6 X106.742 Y84.089 E2.77504
G1 F1027.8 X107.076 Y83.81 E2.78518
G1 F1191.1 X107.438 Y83.586 E2.79374
G1 F1340.8 X107.83 Y83.477 E2.801
G1 F1243.5 X108.123 Y83.341 E2.80723
G1 F989.7 X108.354 Y83.141 E2.81462
G1 F837.7 X108.474 Y82.963 E2.82076
G1 F775.4 X108.509 Y82.833 E2.82491
G1 F1500 E-3.67509
G0 F6000 X108.703 Y83.137
G0 X109.645 Y83.672
G0 X110.301 Y84.144
G0 X111.603 Y85.293
;TYPE:WALL-OUTER
G1 F1500 E2.82491
G1 F1059.6 X111.969 Y85.389 E2.83346
G1 F971.7 X112.126 Y85.442 E2.83755
G1 F944.9 X112.567 Y85.469 E2.84875
G1 F933.9 X113.172 Y85.474 E2.86426
G1 F939.3 X113.529 Y85.301 E2.87437
G1 X113.62 Y85.217 E2.87753
G1 X113.658 Y84.996 E2.88325
G1 X113.622 Y84.872 E2.88654
G1 X113.473 Y84.919 E2.89052
G1 X113.096 Y84.964 E2.9002
G1 F948.6 X112.151 Y84.947 E2.92406
G1 F1057.3 X112.031 Y84.791 E2.92852
G1 F1188.1 X111.998 Y84.459 E2.93525
G1 F1200 X112.112 Y84.182 E2.94122
G1 X112.32 Y84.026 E2.94641
G1 X112.612 Y83.978 E2.95232
G1 X112.89 Y83.901 E2.95807
G1 X113.185 Y83.77 E2.96452
G1 X113.581 Y83.514 E2.97393
G1 X113.812 Y83.349 E2.97959
G1 X113.898 Y83.086 E2.98511
G1 X113.878 Y82.292 E3.00096
G1 X113.575 Y81.981 E3.00963
G1 X113.281 Y81.764 E3.01692
G1 F1118.9 X112.903 Y81.676 E3.02523
G1 F1002.1 X112.716 Y81.703 E3.02974
G1 F954.3 X112.098 Y81.678 E3.04526
G1 F956.2 X111.639 Y81.687 E3.05676
G1 F971.7 X111.226 Y81.816 E3.06742
G1 F977.6 X111.226 Y82.192 E3.07663
G1 F963.9 X112.103 Y82.184 E3.09842
G1 F954.3 X112.645 Y82.195 E3.11203
G1 F1066.7 X112.824 Y82.394 E3.11804
G1 F1200 X113.024 Y82.596 E3.12371
G1 X113.058 Y82.705 E3.12599
G1 X113.029 Y82.815 E3.12826
G1 X112.967 Y82.88 E3.13005
G1 X112.355 Y83.206 E3.14389
G1 X112.001 Y83.335 E3.15141
G1 X111.815 Y83.366 E3.15517
G1 X111.166 Y84.054 E3.17405
G1 X111.168 Y84.702 E3.18698
G1 X111.246 Y84.79 E3.18932
G1 F1188.1 X111.476 Y85.196 E3.19873
G1 F1165 X111.603 Y85.293 E3.20201
G0 F6000 X111.586 Y84.548
;TYPE:WALL-INNER
G1 F1054.9 X111.604 Y84.226 E3.20934
G1 F1066.7 X111.815 Y83.921 E3.21766
G1 F1121.5 X112.053 Y83.708 E3.22448
G1 F1088.4 X112.619 Y83.552 E3.2374
G1 F1021.3 X112.974 Y83.378 E3.24667
G1 F1008.4 X113.202 Y83.245 E3.25294
G1 F967.7 X113.426 Y83.055 E3.26021
G1 F993.8 X113.472 Y82.802 E3.2664
G1 F1054.9 X113.447 Y82.473 E3.27389
G1 F1076.2 X113.299 Y82.286 E3.2792
G1 F1194 X113.101 Y82.118 E3.28441
G1 F1500 E-3.21559
G0 F6000 X113.516 Y82.743
G0 X113.644 Y83.202
G0 X116.387 Y83.19
G0 X116.189 Y85.316
;TYPE:WALL-OUTER
G1 F1500 E3.28441
G1 F1200 X117.174 Y85.316 E3.30406
G1 X117.174 Y81.8 E3.37423
G1 X117.039 Y81.643 E3.37836
G1 X116.325 Y81.643 E3.39261
G1 X116.205 Y81.792 E3.39643
G1 X116.181 Y81.902 E3.39867
G1 X116.189 Y85.316 E3.4668
G0 F6000 X116.682 Y84.824
;TYPE:WALL-INNER
G1 F816.3 X116.678 Y82.139 E3.54557
G1 F1500 E-2.95443
G0 F6000 X116.96 Y85.102
G0 X118.039 Y85.102
G0 X119.178 Y85.177
G0 X120.912 Y85.387
;TYPE:WALL-OUTER
G1 F1500 E3.54557
G1 F888.9 X121.196 Y85.448 E3.5534
G1 F914.3 X121.715 Y85.461 E3.56699
G1 F893.9 X122.036 Y85.449 E3.5756
G1 F884 X122.209 Y85.34 E3.58114
G1 F985.6 X122.487 Y85.28 E3.58805
G1 F1145.6 X122.825 Y85.106 E3.596
G1 F1200 X123.077 Y84.788 E3.60409
G1 X123.221 Y84.486 E3.61077
G1 X123.296 Y84.238 E3.61594
G1 X123.358 Y83.949 E3.62184
G1 X123.412 Y83.585 E3.62918
G1 X123.393 Y83.157 E3.63773
G1 X123.269 Y82.738 E3.64645
G1 F1182.3 X123.105 Y82.43 E3.65352
G1 F989.7 X122.781 Y82.14 E3.66404
G1 F904 X122.518 Y81.874 E3.67395
G1 F961.9 X122.202 Y81.743 E3.68247
G1 F952.4 X121.793 Y81.693 E3.69283
G1 F924.9 X121.483 Y81.685 E3.70086
G1 F912.5 X120.867 Y81.697 E3.71703
G1 F893.9 X120.577 Y81.858 E3.72591
G1 F868 X120.315 Y82.084 E3.73546
G1 F852.6 X120.222 Y82.18 E3.73921
G1 F905.7 X119.878 Y82.402 E3.75004
G1 F1071.4 X119.807 Y82.581 E3.75434
G1 F1200 X119.777 Y82.677 E3.75635
G1 X119.687 Y83.072 E3.76443
G1 X119.645 Y83.465 E3.77232
G1 X119.66 Y83.87 E3.78041
G1 X119.737 Y84.281 E3.78875
G1 F1194 X119.878 Y84.63 E3.7963
G1 F1106 X120.001 Y84.82 E3.8012
G1 F958.1 X120.217 Y84.985 E3.808
G1 F885.6 X120.41 Y85.153 E3.81492
G1 F868 X120.644 Y85.292 E3.82243
G1 F860.2 X120.912 Y85.387 E3.83034
G0 F6000 X120.951 Y85.165
G0 X122.04 Y85.091
G0 X121.978 Y84.86
G1 F907.4 X121.676 Y84.943 E3.83861
G1 F914.3 X121.286 Y84.934 E3.84883
G1 F905.7 X120.723 Y84.719 E3.86476
G1 F958.1 X120.596 Y84.606 E3.86901
G1 F1106 X120.619 Y84.209 E3.87762
G1 F1200 X120.474 Y83.877 E3.88485
G1 X120.429 Y83.527 E3.89189
G1 X120.514 Y83.246 E3.89775
