;FLAVOR:Marlin
;TIME:2124
;Filament used: 0.427221m
;Layer height: 0.12
;MINX:84.283
;MINY:89.693
;MINZ:0.12
;MAXX:134.472
;MAXY:137.807
;MAXZ:2.16
;Generated with Cura_SteamEngine 5.2.2
M82 ;absolute extrusion mode
; Ender 3 Custom Start G-code
G92 E0 ; Reset Extruder
G28 ; Home all axes
M104 S175 ; Start heating up the nozzle most of the way
M190 S60 ; Start heating the bed, wait until target temperature reached
M109 S205.0 ; Finish heating the nozzle
G1 Z2.0 F3000 ; Move Z Axis up little to prevent scratching of Heat Bed
G1 X0.1 Y20 Z0.3 F5000.0 ; Move to start position
G1 X0.1 Y200.0 Z0.3 F1500.0 E15 ; Draw the first line
G1 X0.4 Y200.0 Z0.3 F5000.0 ; Move to side a little
G1 X0.4 Y20 Z0.3 F1500.0 E30 ; Draw the second line
G92 E0 ; Reset Extruder
G1 Z2.0 F3000 ; Move Z Axis up little to prevent scratching of Heat Bed
G1 X5 Y20 Z0.3 F5000.0 ; Move over to prevent blob squish
G92 E0
G92 E0
G1 F1500 E-6.5
;LAYER_COUNT:18
;LAYER:0
M107
;MESH:Certification-Text.stl
G0 F6000 X85.515 Y92.802 Z0.12
;TYPE:WALL-OUTER
G1 F1500 E0
G1 F1050.3 X85.883 Y92.736 E0.00852
G1 F965.8 X86.134 Y92.624 E0.01534
G1 F921.3 X86.327 Y92.45 E0.02209
G1 F892.2 X86.396 Y92.284 E0.02692
G1 F872.7 X86.527 Y91.782 E0.04115
G1 F900.6 X86.334 Y91.343 E0.05391
G1 F943 X86.196 Y91.079 E0.06147
G1 F897.2 X85.951 Y90.916 E0.06933
G1 F833.3 X85.103 Y91.002 E0.09382
G1 F804 X85.8 Y91.409 E0.11786
G1 F872.7 X85.867 Y91.528 E0.12161
G1 F880.7 X85.918 Y91.792 E0.12892
G1 F836.2 X85.889 Y92.152 E0.13926
G1 F946.7 X85.783 Y92.27 E0.14327
G1 F1126.8 X85.504 Y92.425 E0.15006
G1 F1263.2 X85.17 Y92.452 E0.15641
G1 F1081.1 X84.802 Y92.328 E0.16501
G1 F888.9 X84.801 Y91.215 E0.195
G1 F821.9 X84.889 Y91.09 E0.19945
G1 F741.9 X85.07 Y91.01 E0.20584
G1 X84.892 Y90.924 E0.21222
G1 F839.2 X84.809 Y90.717 E0.21858
G1 F914.3 X84.809 Y89.854 E0.24119
G1 F917.8 X84.725 Y89.77 E0.24429
G1 X84.285 Y89.771 E0.25577
G1 F914.3 X84.286 Y90.762 E0.28172
G1 F869.6 X84.311 Y91.003 E0.2884
G1 F877.5 X84.283 Y91.348 E0.29784
G1 F923.1 X84.284 Y92.312 E0.32285
G1 F902.3 X84.294 Y92.441 E0.32629
G1 F887.2 X84.294 Y92.712 E0.3336
G1 X84.565 Y92.712 E0.34091
G1 F1030 X84.93 Y92.787 E0.34958
G1 F1293.8 X85.231 Y92.807 E0.35516
G1 F1240.3 X85.515 Y92.802 E0.36065
G1 F1500 E-6.13935
G0 F6000 X85.72 Y92.548
G0 X86.371 Y91.874
G0 X87.449 Y91.985
G0 X87.654 Y93.615
G0 X88.096 Y93.63
G0 X89.998 Y93.672
G0 X90.294 Y92.161
G1 F1500 E0.36065
G1 F983.6 X90.075 Y92.371 E0.36803
G1 F1137.4 X89.731 Y92.462 E0.37552
G1 F1300.8 X89.288 Y92.461 E0.38368
G1 F1057.3 X89.095 Y92.377 E0.38845
G1 F921.3 X89.065 Y92.137 E0.39473
G1 F950.5 X89.062 Y91.572 E0.40897
G1 F861.8 X89.116 Y91.339 E0.41562
G1 F786.9 X89.314 Y91.265 E0.42205
G1 F897.2 X89.325 Y91.341 E0.4241
G1 F1041.2 X89.79 Y91.34 E0.43479
G1 F952.4 X90.069 Y91.3 E0.44188
G1 F917.8 X90.289 Y91.54 E0.45037
G1 F960 X90.294 Y92.161 E0.46587
G0 F6000 X90.709 Y92.477
G1 F909.1 X90.802 Y92.279 E0.47163
G1 F910.8 X90.823 Y91.876 E0.48224
G1 F923.1 X90.797 Y91.579 E0.48997
G1 F933.9 X90.692 Y91.279 E0.49812
G1 F907.4 X90.369 Y90.969 E0.50994
G1 F928.4 X90.409 Y90.821 E0.51389
G1 F973.6 X90.581 Y90.51 E0.52264
G1 F961.9 X91.037 Y89.743 E0.54485
G1 F958.1 X90.514 Y89.755 E0.55793
G1 X90.298 Y90.004 E0.56616
G1 F961.9 X90.145 Y90.272 E0.57385
G1 F985.6 X89.98 Y90.627 E0.58336
G1 F941.2 X89.908 Y90.841 E0.5891
G1 F952.4 X89.751 Y90.881 E0.59318
G1 F1041.2 X89.325 Y90.882 E0.60297
G1 F897.2 X89.317 Y90.957 E0.60499
G1 F786.9 X89.121 Y90.88 E0.6114
G1 F855.6 X89.072 Y90.696 E0.61673
G1 F941.2 X89.071 Y89.777 E0.64011
G1 F944.9 X88.592 Y89.776 E0.65225
G1 X88.562 Y89.806 E0.65332
G1 F941.2 X88.564 Y90.74 E0.67709
G1 F855.6 X88.613 Y91.107 E0.68745
G1 F861.8 X88.56 Y91.572 E0.70046
G1 F954.3 X88.56 Y92.097 E0.71363
G1 F923.1 X88.576 Y92.475 E0.72345
G1 F893.9 X88.576 Y92.741 E0.73057
G1 X88.85 Y92.744 E0.73792
G1 F1052.6 X89.208 Y92.817 E0.74623
G1 F1293.8 X89.762 Y92.824 E0.75648
G1 F1240.3 X90.031 Y92.802 E0.76169
G1 F1076.2 X90.319 Y92.766 E0.76815
G1 F960 X90.55 Y92.644 E0.77467
G1 F919.5 X90.709 Y92.477 E0.78067
G1 F1500 E-5.71933
G0 F6000 X90.515 Y92.343
G0 X93.174 Y91.771
G0 X93.745 Y92.775
G1 F1500 E0.78067
G1 F1045.8 X94.037 Y92.887 E0.78783
G1 F1088.4 X94.463 Y92.943 E0.79729
G1 F1076.2 X94.813 Y92.915 E0.8051
G1 F1061.9 X95.124 Y92.815 E0.81247
G1 F1000 X95.403 Y92.681 E0.81988
G1 F941.2 X95.684 Y92.358 E0.83077
G1 F898.9 X95.822 Y92.144 E0.83756
G1 F860.2 X95.936 Y91.89 E0.84531
G1 F893.9 X95.961 Y90.972 E0.86991
G1 F921.3 X95.904 Y90.606 E0.87954
G1 F897.2 X95.793 Y90.363 E0.88667
G1 F946.7 X95.506 Y90.003 E0.89831
G1 F1041.2 X95.165 Y89.82 E0.90722
G1 F1071.4 X95.018 Y89.735 E0.91101
G1 F1081.1 X94.511 Y89.743 E0.92224
G1 F1076.2 X94.127 Y89.717 E0.93081
G1 F997.9 X93.723 Y89.914 E0.94159
G1 F933.9 X93.6 Y89.921 E0.94475
G1 F926.6 X93.312 Y90.209 E0.95528
G1 F981.6 X92.97 Y90.702 E0.96992
G1 F1113.7 X92.889 Y91.24 E0.98161
G1 F1200 X92.903 Y91.489 E0.98659
G1 X92.967 Y91.836 E0.99363
G1 F1121.5 X93.081 Y92.113 E1.00003
G1 F1004.2 X93.405 Y92.575 E1.01349
G1 F977.6 X93.745 Y92.775 E1.02315
G0 F6000 X94.615 Y92.505
G1 F1108.5 X94.212 Y92.482 E1.03187
G1 F1078.7 X94.087 Y92.437 E1.03482
G1 F1014.8 X93.741 Y92.166 E1.04519
G1 F958.1 X93.66 Y92.058 E1.04856
G1 F1048 X93.692 Y91.734 E1.056
G1 F1185.2 X93.687 Y90.88 E1.07326
G1 F1108.5 X93.664 Y90.722 E1.07671
G1 F983.6 X93.648 Y90.6 E1.0797
G1 F924.9 X93.882 Y90.365 E1.08829
G1 F954.3 X94.159 Y90.174 E1.09673
G1 F1025.6 X94.887 Y90.181 E1.11373
G1 F1050.3 X95.008 Y90.245 E1.11685
G1 F991.7 X95.253 Y90.477 E1.125
G1 F944.9 X95.457 Y90.916 E1.13727
G1 F916 X95.418 Y91.496 E1.15247
G1 F895.5 X95.371 Y91.808 E1.1609
G1 F921.3 X95.184 Y92.221 E1.17269
G1 F995.9 X94.91 Y92.413 E1.18073
G1 F1073.8 X94.615 Y92.505 E1.18763
G0 F6000 X94.608 Y92.776
G0 X94.065 Y92.701
G0 X93.456 Y92.131
G0 X93.291 Y91.242
;TYPE:WALL-INNER
G1 F1212.1 X93.297 Y91.059 E1.19124
G1 F1227.6 X93.296 Y91.444 E1.19875
G1 F1209.1 X93.291 Y91.242 E1.20276
G1 F1500 E-5.29724
G0 F6000 X93.456 Y92.131
G0 X94.065 Y92.701
G0 X94.662 Y92.717
G0 X94.987 Y92.619
G0 X95.799 Y91.86
G0 X98.426 Y91.86
G0 X99.211 Y92.776
;TYPE:WALL-OUTER
G1 F1500 E1.20276
G1 F1103.4 X100.236 Y92.777 E1.225
G1 X100.236 Y92.418 E1.23279
G1 X100.153 Y92.34 E1.23526
G1 X99.211 Y92.341 E1.25571
G1 F1148.3 X99.026 Y92.201 E1.26054
G1 F1200 X98.96 Y92.012 E1.26454
G1 X98.969 Y91.697 E1.27083
G1 X99.018 Y91.574 E1.27347
G1 F1153.8 X99.169 Y91.49 E1.27706
G1 F1111.1 X99.864 Y91.49 E1.29204
G1 X99.956 Y91.399 E1.29482
G1 X99.956 Y91.058 E1.30217
G1 X99.173 Y91.058 E1.31905
G1 F1137.4 X99.071 Y91.019 E1.32135
G1 F1182.3 X98.98 Y90.877 E1.32477
G1 F1200 X98.978 Y89.829 E1.34568
G1 X98.87 Y89.722 E1.34871
G1 X98.268 Y89.722 E1.36073
G1 X98.206 Y89.827 E1.36316
G1 X98.206 Y92.794 E1.42237
G1 X98.633 Y92.794 E1.43089
G1 F1148.3 X99.211 Y92.776 E1.44295
G0 F6000 X98.633 Y92.367
;TYPE:WALL-INNER
G1 F1179.4 X98.586 Y92.077 E1.44892
G1 F1329.6 X98.588 Y91.682 E1.45603
G1 F1081.1 X98.67 Y91.269 E1.46536
G1 F1059.6 X98.596 Y90.944 E1.47289
G1 F1276.6 X98.592 Y90.108 E1.48857
G1 F1500 E-5.01143
G0 F6000 X98.764 Y91.256
G0 X99.831 Y90.189
G0 X100.825 Y90.189
G0 X101.297 Y91.256
G0 X103.064 Y92.81
;TYPE:WALL-OUTER
G1 F1500 E1.48857
G1 F1379.3 X104.285 Y92.81 E1.50977
G1 X104.271 Y92.463 E1.5158
G1 X103.064 Y92.462 E1.53676
G1 F1233.9 X102.895 Y92.421 E1.54013
G1 F1010.5 X102.731 Y92.304 E1.54491
G1 F943 X102.711 Y91.87 E1.55594
G1 F928.4 X102.766 Y91.641 E1.56201
G1 F969.7 X103.898 Y91.642 E1.58997
G1 F1057.3 X103.899 Y91.188 E1.60025
G1 F969.7 X102.812 Y91.186 E1.6271
G1 F898.9 X102.72 Y90.876 E1.63571
G1 F892.2 X102.73 Y90.247 E1.6526
G1 F981.6 X102.945 Y90.18 E1.65809
G1 F1111.1 X104.213 Y90.179 E1.68542
G1 F1113.7 X104.213 Y89.747 E1.69471
G1 F1111.1 X102.908 Y89.749 E1.72283
G1 F969.7 X102.518 Y89.81 E1.73258
G1 F863.3 X102.262 Y89.81 E1.73968
G1 X102.24 Y89.836 E1.74063
G1 X102.24 Y90.088 E1.74762
G1 F900.6 X102.218 Y90.378 E1.75535
G1 F943 X102.216 Y90.874 E1.76795
G1 F895.5 X102.279 Y91.319 E1.77997
G1 F904 X102.211 Y91.87 E1.79467
G1 F948.6 X102.218 Y92.269 E1.80475
G1 F910.8 X102.233 Y92.442 E1.80931
G1 F885.6 X102.233 Y92.713 E1.81664
G1 X102.504 Y92.713 E1.82397
G1 F987.7 X102.726 Y92.769 E1.82952
G1 F1233.9 X103.064 Y92.81 E1.83613
G1 F1500 E-4.66387
G0 F6000 X102.697 Y92.541
G0 X102.522 Y91.457
G0 X101.297 Y91.457
G0 X101.309 Y93.637
G0 X104.883 Y93.641
G0 X105.126 Y92.879
G0 X105.229 Y91.763
G0 X105.436 Y91.24
G0 X108.087 Y90.728
;TYPE:WALL-INNER
G1 F1500 E1.83613
G1 F1148.3 X108.088 Y90.722 E1.83626
G1 X108.087 Y90.728 E1.83638
G1 F1500 E-4.66362
G0 F6000 X107.811 Y91.199
G0 X107.254 Y91.367
G0 X106.819 Y91.668
G0 X106.616 Y92.108
G0 X106.858 Y92.711
G0 X107.38 Y92.729
G1 F1500 E1.83638
G0 F6000 X107.382 Y92.952
;TYPE:WALL-OUTER
G1 F1118.9 X107.767 Y92.916 E1.84466
G1 F1140.1 X108.176 Y92.831 E1.85343
G1 F1153.8 X108.176 Y92.422 E1.86192
G1 F1156.6 X107.776 Y92.491 E1.87032
G1 F1142.9 X107.146 Y92.503 E1.88353
G1 F1041.2 X106.925 Y92.387 E1.88927
G1 F933.9 X106.843 Y92.22 E1.89404
G1 F1034.5 X106.904 Y92.047 E1.89829
G1 F1116.3 X107.006 Y91.754 E1.90494
G1 F987.7 X107.299 Y91.557 E1.9135
G1 F965.8 X107.579 Y91.476 E1.92073
G1 F1030 X107.894 Y91.416 E1.92818
G1 F1129.4 X108.181 Y91.243 E1.93529
G1 F1200 X108.443 Y90.945 E1.94321
G1 X108.502 Y90.653 E1.94915
G1 X108.38 Y90.313 E1.95636
G1 F1179.4 X108.164 Y90.045 E1.96335
G1 F1140.1 X107.879 Y89.849 E1.97062
G1 F1116.3 X107.615 Y89.735 E1.97679
G1 F1111.1 X107.459 Y89.739 E1.98015
G1 F1106 X106.906 Y89.72 E1.99213
G1 F1111.1 X106.542 Y89.743 E1.99999
G1 F1126.8 X106.312 Y89.828 E2.0052
G1 X106.312 Y90.198 E2.01307
G1 X106.617 Y90.164 E2.01959
G1 F1111.1 X106.908 Y90.159 E2.02586
G1 F1103.4 X107.548 Y90.169 E2.03975
G1 F1111.1 X107.676 Y90.232 E2.04283
G1 F1145.6 X107.73 Y90.347 E2.04548
G1 F1185.2 X107.675 Y90.724 E2.05318
G1 F1086 X107.439 Y91.014 E2.06143
G1 F965.8 X107.06 Y91.104 E2.07108
G1 F930.2 X106.733 Y91.31 E2.08103
G1 F991.7 X106.513 Y91.402 E2.08679
G1 F1100.9 X106.2 Y91.645 E2.09541
G1 F1165 X106.118 Y91.88 E2.10053
G1 F1200 X106.139 Y91.978 E2.10253
G1 F1116.3 X106.235 Y92.252 E2.10876
G1 F975.6 X106.441 Y92.609 E2.11887
G1 F989.7 X106.782 Y92.831 E2.12872
G1 F1095.9 X107.04 Y92.915 E2.13465
G1 F1113.7 X107.382 Y92.952 E2.14204
G0 F6000 X107.38 Y92.729
G0 X106.999 Y92.711
G0 X106.79 Y92.541
G0 X106.582 Y91.896
;TYPE:WALL-INNER
G1 F1188.1 X106.507 Y91.939 E2.14379
G1 X106.482 Y91.896 E2.14479
G1 X106.556 Y91.853 E2.14651
G1 F1500 E-4.35349
G0 F6000 X106.616 Y92.108
G0 X106.858 Y92.711
G0 X107.801 Y92.72
G0 X110.595 Y92.176
G0 X110.685 Y92.712
;TYPE:WALL-OUTER
G1 F1500 E2.14651
G1 F1043.5 X111.097 Y92.897 E2.15688
G1 F1088.4 X111.475 Y92.933 E2.16523
G1 F1100.9 X112.049 Y92.937 E2.17772
G1 F1106 X112.332 Y92.799 E2.18454
G1 X112.428 Y92.717 E2.18727
G1 X112.44 Y92.441 E2.19325
G1 X111.987 Y92.503 E2.20315
G1 F1116.3 X111.217 Y92.482 E2.21968
G1 F1083.5 X111.054 Y92.404 E2.22367
G1 F1004.2 X110.993 Y92.275 E2.22707
G1 F928.4 X110.975 Y91.953 E2.23539
G1 F924.9 X111.124 Y91.75 E2.24191
G1 F939.3 X111.246 Y91.649 E2.24595
G1 F912.5 X111.689 Y91.541 E2.25792
G1 F893.9 X111.949 Y91.43 E2.26549
G1 F887.2 X112.245 Y91.257 E2.27474
G1 F874.3 X112.511 Y91.057 E2.28386
G1 F861.8 X112.558 Y90.863 E2.28941
G1 F892.2 X112.57 Y90.579 E2.29704
G1 F902.3 X112.554 Y90.283 E2.3049
G1 F905.7 X112.323 Y90.033 E2.3139
G1 F948.6 X112.081 Y89.858 E2.32144
G1 F1016.9 X111.813 Y89.743 E2.32831
G1 F1090.9 X111.08 Y89.713 E2.34441
G1 F1145.6 X110.581 Y89.748 E2.35487
G1 F1170.7 X110.393 Y89.837 E2.35913
G1 X110.393 Y90.155 E2.36563
G1 F1145.6 X111.085 Y90.145 E2.3801
G1 F1057.3 X111.683 Y90.15 E2.39364
G1 F963.9 X112.034 Y90.476 E2.40554
G1 F897.2 X112.015 Y90.773 E2.41349
G1 F875.9 X111.701 Y90.945 E2.42328
G1 F897.2 X111.463 Y91.063 E2.43037
G1 F943 X111.144 Y91.176 E2.43896
G1 F954.3 X110.945 Y91.225 E2.4441
G1 F946.7 X110.762 Y91.407 E2.45063
G1 F924.9 X110.445 Y91.772 E2.46315
G1 F897.2 X110.441 Y92.237 E2.47556
G1 F935.7 X110.53 Y92.404 E2.4804
G1 F985.6 X110.685 Y92.712 E2.48878
G1 F1500 E-4.01122
G0 F6000 X110.796 Y92.511
G0 X110.928 Y93.761
G0 X112.251 Y93.819
G0 X112.815 Y93.544
G0 X113.06 Y93.336
G0 X113.776 Y92.562
G0 X114.641 Y92.774
G1 F1500 E2.48878
G1 F1200 X115.417 Y92.774 E2.50427
G1 X115.417 Y89.84 E2.56282
G1 X115.316 Y89.716 E2.56601
G1 X114.748 Y89.716 E2.57735
G1 X114.694 Y89.76 E2.57874
G1 X114.638 Y89.914 E2.58201
G1 X114.641 Y92.774 E2.63908
G0 F6000 X115.029 Y92.386
;TYPE:WALL-INNER
G1 F1273.2 X115.028 Y90.105 E2.68198
G1 F1500 E-3.81802
G0 F6000 X115.203 Y92.56
G0 X117.85 Y91.777
G0 X118.475 Y92.841
;TYPE:WALL-OUTER
G1 F1500 E2.68198
G1 F1043.5 X118.913 Y92.911 E2.69216
G1 F1078.7 X119.238 Y92.928 E2.69939
G1 F1052.6 X119.576 Y92.916 E2.70708
G1 F1021.3 X119.639 Y92.869 E2.70892
G1 F975.6 X120.02 Y92.664 E2.71954
G1 F905.7 X120.249 Y92.486 E2.72721
G1 F877.5 X120.469 Y92.153 E2.73811
G1 F864.9 X120.565 Y91.772 E2.74898
G1 F852.6 X120.574 Y91.702 E2.75097
G1 F916 X120.722 Y91.308 E2.76197
G1 F1086 X120.701 Y90.925 E2.77043
G1 F1103.4 X120.5 Y90.508 E2.78047
G1 F983.6 X120.299 Y90.232 E2.78879
G1 F1008.4 X120.119 Y89.986 E2.79603
G1 F1103.4 X119.948 Y89.859 E2.80065
G1 F1124.1 X119.678 Y89.748 E2.80687
G1 F1100.9 X119.18 Y89.722 E2.81771
G1 F1081.1 X118.624 Y89.728 E2.83003
G1 F1073.8 X118.375 Y89.847 E2.83619
G1 F1027.8 X118.086 Y90.077 E2.84479
G1 F969.7 X117.788 Y90.437 E2.85633
G1 F946.7 X117.658 Y90.968 E2.87016
G1 X117.625 Y91.314 E2.87895
G1 F944.9 X117.646 Y91.671 E2.88802
G1 F928.4 X117.781 Y92.085 E2.89925
G1 F958.1 X117.885 Y92.354 E2.90646
G1 F1010.5 X118.11 Y92.608 E2.9145
G1 F1016.9 X118.475 Y92.841 E2.92469
G0 F6000 X118.59 Y92.582
G0 X119.515 Y92.707
G0 X119.462 Y92.448
G1 F1043.5 X119.167 Y92.493 E2.93154
G1 F1050.3 X118.8 Y92.438 E2.94
G1 F1036.7 X118.449 Y92.281 E2.94889
G1 F1014.8 X118.315 Y92.142 E2.95344
G1 F952.4 X118.287 Y91.911 E2.95929
G1 F928.4 X118.154 Y91.575 E2.96861
G1 F944.9 X118.134 Y91.273 E2.97628
G1 F924.9 X118.208 Y90.948 E2.98492
G1 F905.7 X118.296 Y90.613 E2.99407
G1 F952.4 X118.377 Y90.47 E2.99821
G1 F1021.3 X118.629 Y90.211 E3.00668
G1 F1057.3 X118.725 Y90.168 E3.00906
G1 F1081.1 X119.181 Y90.164 E3.01916
G1 F1100.9 X119.612 Y90.172 E3.02854
G1 F1095.9 X119.782 Y90.27 E3.03283
G1 F1006.3 X119.845 Y90.39 E3.03605
G1 F944.9 X119.836 Y90.474 E3.03819
G1 F946.7 X119.965 Y90.643 E3.04357
G1 F1059.6 X119.93 Y91.005 E3.05179
G1 F1200 X119.929 Y91.26 E3.05688
G1 F995.9 X120.012 Y91.657 E3.06663
G1 F893.9 X119.96 Y91.994 E3.07577
G1 F967.7 X119.605 Y92.367 E3.08851
G1 F1010.5 X119.462 Y92.448 E3.09241
G0 F6000 X119.515 Y92.707
G0 X120.114 Y92.034
G0 X120.324 Y91.26
;TYPE:WALL-INNER
G1 F1240.3 X120.317 Y91.006 E3.09731
G1 F1500 E-3.40269
G0 F6000 X120.432 Y91.742
G0 X123.09 Y91.747
G0 X122.87 Y92.775
;TYPE:WALL-OUTER
G1 F1500 E3.09731
G1 F1200 X123.355 Y92.775 E3.10699
G1 F1140.1 X123.648 Y92.776 E3.11314
G1 F1036.7 X124.129 Y91.843 E3.13739
G1 F1016.9 X124.326 Y91.522 E3.14626
G1 F1064.3 X124.494 Y91.199 E3.15445
G1 F1108.5 X124.61 Y90.928 E3.16082
G1 F1165 X124.804 Y90.83 E3.16529
G1 F1200 X124.87 Y90.84 E3.16662
G1 F1185.2 X125.015 Y90.994 E3.17089
G1 F1140.1 X125.074 Y91.251 E3.17643
G1 F1126.8 X125.086 Y91.548 E3.18275
G1 F1140.1 X125.085 Y92.772 E3.20846
G1 F1137.4 X125.507 Y92.772 E3.21734
G1 F1140.1 X125.508 Y91.522 E3.2436
G1 F1126.8 X125.502 Y91.212 E3.25019
G1 F1140.1 X125.513 Y90.949 E3.25572
G1 F1185.2 X125.518 Y89.759 E3.27976
G1 F1200 X125.357 Y89.693 E3.28323
G1 X124.863 Y89.707 E3.2931
G1 X124.624 Y90.027 E3.30107
G1 X124.48 Y90.265 E3.30662
G1 F1140.1 X124.088 Y91.027 E3.32462
G1 F1061.9 X123.92 Y91.306 E3.33196
G1 F1014.8 X123.736 Y91.56 E3.33936
G1 F1086 X123.509 Y91.598 E3.34444
G1 F1137.4 X123.332 Y91.439 E3.34945
G1 F1088.4 X123.332 Y89.757 E3.38645
G1 F1093.4 X122.893 Y89.757 E3.39607
G1 F1088.4 X122.893 Y91.476 E3.43389
G1 F1137.4 X122.872 Y92.114 E3.44733
G1 F1200 X122.87 Y92.775 E3.46052
G0 F6000 X123.482 Y92.115
;TYPE:WALL-INNER
G1 F731.7 X123.44 Y92.186 E3.46322
G1 X123.359 Y92.186 E3.46587
G1 X123.318 Y92.115 E3.46855
