;FLAVOR:Marlin
;TIME:933
;Filament used: 0.502932m
;Layer height: 0.2
;MINX:87.7
;MINY:83.241
;MINZ:0.2
;MAXX:132.3
;MAXY:136.826
;MAXZ:2
;Generated with Cura_SteamEngine 5.2.2
M82 ;absolute extrusion mode
; Ender 3 Custom Start G-code
G92 E0 ; Reset Extruder
G28 ; Home all axes
M104 S175 ; Start heating up the nozzle most of the way
M190 S60 ; Start heating the bed, wait until target temperature reached
M109 S230.0 ; Finish heating the nozzle
G1 Z2.0 F3000 ; Move Z Axis up little to prevent scratching of Heat Bed
G1 X0.1 Y20 Z0.3 F5000.0 ; Move to start position
G1 X0.1 Y200.0 Z0.3 F1500.0 E15 ; Draw the first line
G1 X0.4 Y200.0 Z0.3 F5000.0 ; Move to side a little
G1 X0.4 Y20 Z0.3 F1500.0 E30 ; Draw the second line
G92 E0 ; Reset Extruder
G1 Z2.0 F3000 ; Move Z Axis up little to prevent scratching of Heat Bed
G1 X5 Y20 Z0.3 F5000.0 ; Move over to prevent blob squish
G92 E0
G92 E0
G1 F1500 E-6.5
;LAYER_COUNT:10
;LAYER:0
M107
;MESH:Cognito-TextOnly-Floating.stl
G0 F6000 X96.08 Y85.232 Z0.2
;TYPE:WALL-OUTER
G1 F1500 E0
G1 F724 X96.438 Y85.219 E0.01975
G1 F730.6 X96.74 Y85.228 E0.03625
G1 X97.012 Y85.248 E0.05115
G1 F727.3 X97.286 Y85.283 E0.06631
G1 F729.5 X97.687 Y85.371 E0.08878
G1 F1500 E-6.41122
G0 F6000 X97.482 Y86.342
G0 X96.9 Y89.609
G0 X97.089 Y90.768
G1 F1500 E0.08878
G1 F1399.4 X97.404 Y90.714 E0.09789
G1 F1359.8 X97.696 Y90.641 E0.10672
G1 F1337 X98.019 Y90.534 E0.11688
G1 F1333.3 X97.835 Y90.22 E0.12778
G1 F1359.8 X97.308 Y90.381 E0.14395
G1 F1403.5 X97.025 Y90.434 E0.15214
G1 F1428.6 X96.757 Y90.464 E0.15967
G1 F1437.1 X96.463 Y90.473 E0.16784
G1 X96.117 Y90.456 E0.17746
G1 F1424.3 X95.761 Y90.398 E0.18757
G1 F1383.3 X95.45 Y90.304 E0.19694
G1 F1326 X95.16 Y90.174 E0.20651
G1 F1259.8 X94.898 Y90.01 E0.2163
G1 F1194 X94.655 Y89.803 E0.22697
G1 F1134.8 X94.453 Y89.561 E0.23806
G1 F1090.9 X94.283 Y89.289 E0.24979
G1 F1059.6 X94.147 Y88.986 E0.2623
G1 F1041.2 X94.047 Y88.639 E0.27615
G1 F1032.3 X93.991 Y88.291 E0.28978
G1 F1030 X93.974 Y87.921 E0.30413
G1 X93.99 Y87.553 E0.3184
G1 F1034.5 X94.044 Y87.166 E0.33348
G1 F1043.5 X94.134 Y86.826 E0.34693
G1 F1054.9 X94.247 Y86.547 E0.35832
G1 F1076.2 X94.404 Y86.276 E0.36993
G1 F1113.7 X94.601 Y86.032 E0.38117
G1 F1165 X94.838 Y85.827 E0.39191
G1 F1224.5 X95.125 Y85.652 E0.40286
G1 F1286.9 X95.395 Y85.537 E0.41196
G1 F1352.1 X95.718 Y85.45 E0.42184
G1 F1326 X95.738 Y85.43 E0.42269
G1 F1066.7 X96.073 Y85.23 E0.43729
G1 F1103.4 X95.644 Y85.111 E0.45339
G1 F1352.1 X95.385 Y85.161 E0.46118
G1 F1286.9 X95.018 Y85.281 E0.47315
G1 F1227.6 X94.678 Y85.452 E0.48553
G1 F1170.7 X94.405 Y85.642 E0.49687
G1 F1121.5 X94.165 Y85.871 E0.50867
G1 F1086 X93.963 Y86.136 E0.52092
G1 F1059.6 X93.798 Y86.429 E0.53358
G1 F1043.5 X93.666 Y86.773 E0.54768
G1 F1036.7 X93.578 Y87.134 E0.56198
G1 F1032.3 X93.523 Y87.539 E0.57779
G1 F1030 X93.506 Y87.935 E0.59314
G1 X93.527 Y88.341 E0.6089
G1 F1032.3 X93.591 Y88.726 E0.62399
G1 F1036.7 X93.693 Y89.083 E0.63828
G1 F1048 X93.839 Y89.412 E0.65199
G1 F1071.4 X94.019 Y89.707 E0.66486
G1 F1103.4 X94.237 Y89.974 E0.67733
G1 F1148.3 X94.496 Y90.208 E0.68946
G1 F1209.1 X94.798 Y90.408 E0.70142
G1 F1276.6 X95.147 Y90.574 E0.7135
G1 F1340.8 X95.543 Y90.701 E0.72588
G1 F1395.3 X95.98 Y90.781 E0.73859
G1 F1428.6 X96.457 Y90.807 E0.75193
G1 F1437.1 X96.79 Y90.797 E0.76119
G1 F1424.3 X97.089 Y90.768 E0.7696
G1 F1500 E-5.7304
G0 F6000 X97.555 Y91.539
G0 X98.241 Y91.355
G0 X99.224 Y90.944
G0 X98.998 Y89.079
G0 X100.406 Y88.968
G1 F1500 E0.7696
G1 F745.3 X100.559 Y89.037 E0.77859
G1 F760.7 X100.914 Y89.151 E0.79816
G1 F780.5 X101.356 Y89.187 E0.82083
G1 F772.9 X101.67 Y89.164 E0.83709
G1 F769.2 X101.923 Y89.125 E0.85037
G1 F760.7 X102.182 Y89.036 E0.86474
G1 F750 X102.282 Y88.994 E0.87051
G1 F1500 E-5.62949
G0 F6000 X99.822 Y88.301
G0 X100.406 Y88.968
G1 F1500 E0.87051
G1 F778 X100.348 Y88.889 E0.87554
G1 F1008.4 X100.196 Y88.596 E0.88861
G1 F1311.5 X100.153 Y88.551 E0.8905
G1 F1227.6 X99.937 Y88.182 E0.9044
G1 F1132.1 X99.812 Y87.731 E0.9209
G1 F1086 X99.772 Y87.198 E0.94054
G1 F1076.2 X99.79 Y86.907 E0.95136
G1 F1090.9 X99.816 Y86.643 E0.96106
G1 F1145.6 X99.942 Y86.196 E0.97724
G1 F1283.4 X100.173 Y85.8 E0.9915
G1 F1441.4 X100.493 Y85.546 E1.00281
G1 F1519 X100.882 Y85.396 E1.01377
G1 F1568.6 X101.362 Y85.342 E1.02606
G1 F1563.5 X101.634 Y85.364 E1.03302
G1 F1548.4 X101.893 Y85.4 E1.03976
G1 F1514.2 X102.265 Y85.545 E1.05029
G1 F1359.8 X102.589 Y85.813 E1.06263
G1 F1218.3 X102.801 Y86.173 E1.07632
G1 F1159.4 X102.933 Y86.588 E1.09131
G1 F1103.4 X102.98 Y87.193 E1.11326
G1 F1083.5 X102.938 Y87.737 E1.13336
G1 F1176.5 X102.792 Y88.236 E1.15099
G1 F1304.3 X102.574 Y88.567 E1.16312
G1 F1253.3 X102.569 Y88.613 E1.1646
G1 F897.2 X102.403 Y88.928 E1.18043
G1 F930.2 X102.847 Y88.802 E1.20024
G1 F1263.2 X103.042 Y88.561 E1.21003
G1 F1215.2 X103.175 Y88.344 E1.21839
G1 F1159.4 X103.285 Y88.086 E1.22805
G1 F1113.7 X103.368 Y87.81 E1.23838
G1 F1083.5 X103.411 Y87.51 E1.24954
G1 F1069 X103.43 Y87.181 E1.26184
G1 F1066.7 X103.412 Y86.865 E1.27369
G1 F1078.7 X103.368 Y86.561 E1.28505
G1 F1103.4 X103.289 Y86.284 E1.29547
G1 F1140.1 X103.187 Y86.033 E1.30495
G1 F1194 X102.982 Y85.687 E1.3184
G1 F1276.6 X102.717 Y85.449 E1.32953
G1 F1379.3 X102.5 Y85.301 E1.33713
G1 F1450.2 X102.259 Y85.189 E1.34445
G1 F1514.2 X101.985 Y85.104 E1.35201
G1 F1548.4 X101.666 Y85.055 E1.36033
G1 F1563.5 X101.339 Y85.039 E1.36869
G1 F1558.4 X101.053 Y85.059 E1.37603
G1 F1543.4 X100.77 Y85.106 E1.38345
G1 F1519 X100.502 Y85.192 E1.39084
G1 F1472.4 X100.273 Y85.3 E1.39771
G1 F1411.8 X100.058 Y85.445 E1.40504
G1 F1307.9 X99.778 Y85.698 E1.41655
G1 F1218.3 X99.565 Y86.057 E1.43023
G1 F1156.6 X99.47 Y86.289 E1.43888
G1 F1118.9 X99.391 Y86.563 E1.44905
G1 F1090.9 X99.344 Y86.88 E1.46078
G1 F1076.2 X99.326 Y87.198 E1.47259
G1 F1073.8 X99.345 Y87.535 E1.48513
G1 F1086 X99.385 Y87.827 E1.49597
G1 F1106 X99.46 Y88.097 E1.50608
G1 F1140.1 X99.562 Y88.346 E1.5155
G1 F1185.2 X99.691 Y88.561 E1.52394
G1 F1073.8 X99.945 Y88.886 E1.53927
G1 F864.9 X100.346 Y88.965 E1.55813
G1 F764.3 X100.406 Y88.968 E1.56127
G1 F1500 E-4.93873
G0 F6000 X99.822 Y88.301
G0 X105.209 Y88.133
G0 X105.68 Y88.981
G1 F1500 E1.56127
G1 F1061.9 X105.575 Y88.606 E1.57591
G1 F1197 X105.467 Y88.329 E1.58582
G1 F1137.4 X105.428 Y87.984 E1.598
G1 F1142.9 X105.459 Y87.676 E1.60881
G1 F1173.6 X105.565 Y87.394 E1.61906
G1 F985.6 X105.671 Y87.109 E1.63137
G1 F801.3 X105.722 Y87.022 E1.6364
G1 F863.3 X105.465 Y87.088 E1.64866
G1 F1081.1 X105.263 Y87.217 E1.65751
G1 F1185.2 X105.132 Y87.404 E1.6652
G1 F1148.3 X105.003 Y87.837 E1.6809
G1 F1111.1 X105.007 Y88.157 E1.6924
G1 F1129.4 X105.087 Y88.519 E1.7055
G1 F1069 X105.265 Y88.836 E1.71907
G1 F910.8 X105.583 Y88.965 E1.73411
G1 F879.1 X105.68 Y88.981 E1.73858
G0 F6000 X105.701 Y88.985
G1 F783 X105.987 Y89.127 E1.75485
G1 F860.2 X106.282 Y89.204 E1.769
G1 F898.9 X106.599 Y89.227 E1.78311
G1 F895.5 X106.938 Y89.206 E1.79825
G1 F848.1 X107.229 Y89.134 E1.81236
G1 F866.4 X107.667 Y89.196 E1.83273
G1 F879.1 X108.113 Y89.131 E1.8532
G1 F954.3 X107.918 Y88.893 E1.86606
G1 F1132.1 X108.149 Y88.407 E1.88504
G1 F1129.4 X108.211 Y88.129 E1.8951
G1 F1103.4 X108.208 Y87.812 E1.90657
G1 F1126.8 X108.131 Y87.492 E1.91823
G1 F1153.8 X107.964 Y87.229 E1.929
G1 F1126.8 X107.646 Y86.98 E1.94331
G1 F958.1 X107.288 Y86.913 E1.95848
G1 F921.3 X107.459 Y87.086 E1.96902
G1 F1076.2 X107.659 Y87.398 E1.98276
G1 F1153.8 X107.742 Y87.646 E1.99181
G1 F1134.8 X107.783 Y87.986 E2.00386
G1 F1137.4 X107.747 Y88.312 E2.01536
G1 F1209.1 X107.637 Y88.602 E2.0256
G1 F1066.7 X107.502 Y88.878 E2.0371
G1 F866.4 X107.229 Y89.134 E2.05434
G0 F6000 X108.113 Y89.131
G1 F907.4 X108.813 Y89.174 E2.08519
G1 F1500 E-4.41481
G0 F6000 X107.288 Y86.913
G1 F1500 E2.08519
G1 F849.6 X107.244 Y86.896 E2.0874
G1 F895.5 X106.933 Y86.827 E2.1016
G1 F943 X106.565 Y86.804 E2.11721
G1 F926.6 X106.246 Y86.832 E2.131
G1 F778 X105.995 Y86.817 E2.1439
G1 F831.9 X105.836 Y86.549 E2.15885
G1 F1073.8 X105.785 Y86.502 E2.16143
G1 F1108.5 X105.643 Y86.225 E2.17264
G1 F1197 X105.644 Y85.881 E2.18411
G1 F1307.9 X105.774 Y85.697 E2.19098
G1 F1340.8 X105.96 Y85.553 E2.19798
G1 F1363.6 X106.416 Y85.519 E2.21137
G1 F1420.1 X107.376 Y85.517 E2.23835
G1 F1407.6 X107.649 Y85.502 E2.2461
G1 F1352.1 X108.03 Y85.448 E2.25746
G1 F1293.8 X108.464 Y85.231 E2.27243
G1 F1224.5 X108.658 Y84.988 E2.28256
G1 F1176.5 X108.751 Y84.759 E2.29095
G1 F1170.7 X108.785 Y84.494 E2.30006
G1 F1182.3 X108.728 Y84.123 E2.31273
G1 F1246.8 X108.606 Y83.875 E2.32158
G1 F1212.1 X108.519 Y83.797 E2.32542
G1 F1008.4 X108.198 Y83.669 E2.3391
G1 F1041.2 X108.286 Y84.039 E2.35368
G1 F1209.1 X108.374 Y84.422 E2.36665
G1 F1188.1 X108.349 Y84.67 E2.37502
G1 F1209.1 X108.221 Y84.918 E2.38424
G1 F1269.8 X107.961 Y85.099 E2.39419
G1 F1348.3 X107.604 Y85.163 E2.40493
G1 F1415.9 X107.249 Y85.182 E2.41495
G1 F1428.6 X106.399 Y85.182 E2.4387
G1 F1383.3 X106.029 Y85.192 E2.44938
G1 F1269.8 X105.895 Y85.207 E2.45362
G1 F1200 X105.565 Y85.094 E2.46522
G1 F1218.3 X105.663 Y85.329 E2.47356
G1 F1263.2 X105.339 Y85.636 E2.48766
G1 X105.259 Y85.82 E2.494
G1 F1253.3 X105.286 Y86.123 E2.50369
G1 F1246.8 X105.456 Y86.326 E2.51217
G1 F1148.3 X105.785 Y86.502 E2.52514
G0 F6000 X105.565 Y85.094
G1 F1185.2 X105.462 Y85.061 E2.52878
G0 F6000 X105.008 Y84.482
G1 F1233.9 X104.993 Y84.089 E2.5415
G1 F1159.4 X105.103 Y83.774 E2.55299
G1 F902.3 X105.228 Y83.48 E2.56712
G1 F869.6 X104.93 Y83.542 E2.58109
G1 F1108.5 X104.668 Y83.798 E2.59428
G1 F1191.1 X104.586 Y84.052 E2.60322
G1 F1182.3 X104.585 Y84.329 E2.61257
G1 F1212.1 X104.64 Y84.549 E2.62004
G1 F1300.8 X104.773 Y84.774 E2.62806
G1 F1355.9 X105.023 Y84.939 E2.63688
G1 F1300.8 X105.292 Y85.029 E2.64558
G1 F1212.1 X105.462 Y85.061 E2.65127
G1 F1240.3 X105.234 Y84.859 E2.66108
G1 F1297.3 X105.008 Y84.482 E2.6746
G0 F6000 X104.783 Y84.256
G0 X104.868 Y83.986
G0 X105.228 Y83.48
G1 F752.4 X105.25 Y83.463 E2.67607
G1 F797.3 X105.573 Y83.342 E2.69334
G1 F857.1 X105.904 Y83.269 E2.70912
G1 F885.6 X106.403 Y83.241 E2.73165
G1 F890.5 X107.028 Y83.269 E2.75969
G1 F871.1 X107.482 Y83.352 E2.78083
G1 F839.2 X107.879 Y83.486 E2.80076
G1 F768 X108.177 Y83.661 E2.81872
G1 F1500 E-3.68128
G0 F6000 X108.503 Y84.287
G0 X110.496 Y85.383
G0 X111.105 Y88.643
G1 F1500 E2.81872
G1 F1023.5 X111.366 Y88.899 E2.83298
G1 F952.4 X111.717 Y89.088 E2.84968
G1 F858.7 X112.066 Y89.156 E2.86621
G1 F792.1 X112.327 Y89.187 E2.87945
G1 F771.7 X112.716 Y89.157 E2.89963
G1 F750 X112.797 Y89.141 E2.90403
G1 F789.5 X112.935 Y89.171 E2.91117
G1 F997.9 X113.284 Y89.192 E2.92515
G1 F1176.5 X113.632 Y88.948 E2.93957
G1 F1121.5 X113.83 Y88.687 E2.95123
G1 F1098.4 X113.953 Y88.338 E2.96467
G1 X114.002 Y87.828 E2.98329
G1 F1103.4 X114.002 Y85.187 E3.07882
G1 X113.566 Y85.187 E3.09459
G1 F1106 X113.565 Y87.847 E3.19058
G1 F1103.4 X113.532 Y88.206 E3.20362
G1 X113.437 Y88.497 E3.21469
G1 F1145.6 X113.263 Y88.731 E3.22485
G1 F1243.5 X113.067 Y88.866 E3.23249
G1 F1106 X112.978 Y89 E3.2383
G1 F834.8 X112.797 Y89.141 E3.24927
G1 F1500 E-3.25073
G0 F6000 X113.482 Y88.795
G0 X112.61 Y88.151
G0 X111.689 Y87.894
G0 X110.346 Y89.153
G1 F1500 E3.24927
G1 F916 X110.57 Y89.153 E3.25902
G1 X110.654 Y88.759 E3.27658
G1 X110.762 Y88.596 E3.2851
G1 F944.9 X110.911 Y88.567 E3.29151
G1 F1019.1 X111.105 Y88.643 E3.29967
G1 F1045.8 X111.034 Y88.571 E3.30353
G1 F967.7 X110.841 Y88.274 E3.31814
G1 F979.6 X110.763 Y87.907 E3.33342
G1 F1078.7 X110.73 Y87.459 E3.35005
G1 F1111.1 X110.73 Y85.185 E3.43173
G1 X110.298 Y85.185 E3.44725
G1 X110.298 Y87.48 E3.52969
G1 F1078.7 X110.31 Y87.946 E3.54693
G1 F979.6 X110.344 Y88.387 E3.56496
G1 F916 X110.346 Y89.153 E3.59833
G1 F1500 E-2.90167
G0 F6000 X110.491 Y88.811
G0 X110.574 Y88.398
G0 X111.689 Y87.894
G0 X112.695 Y84.316
G0 X114.872 Y84.316
G0 X115.163 Y88.398
G0 X116.044 Y89.201
G1 F1500 E3.59833
G1 F1111.1 X116.476 Y89.201 E3.61385
G1 X116.476 Y85.185 E3.75811
G1 X116.044 Y85.185 E3.77363
G1 X116.044 Y89.201 E3.91788
G0 F6000 X116.242 Y88.947
G0 X116.269 Y90.583
G0 X116 Y90.691
G1 F1061.9 X116.059 Y90.783 E3.92199
G1 X116.182 Y90.839 E3.92707
G1 X116.445 Y90.8 E3.93706
G1 F1059.6 X116.511 Y90.727 E3.94077
G1 X116.521 Y90.53 E3.9482
G1 X116.467 Y90.443 E3.95206
G1 X116.349 Y90.39 E3.95693
G1 F1061.9 X116.174 Y90.389 E3.96351
G1 X116.058 Y90.439 E3.96825
G1 X116 Y90.531 E3.97234
G1 X116 Y90.691 E3.97836
G1 F1500 E-2.52164
G0 F6000 X116.269 Y90.614
G0 X118.881 Y89.568
G0 X119.03 Y90.177
G1 F1500 E3.97836
G1 F943 X119.033 Y89.371 E4.01247
G1 F933.9 X119.119 Y89.215 E4.02008
G1 F914.3 X119.261 Y89.151 E4.02688
G1 X119.119 Y89.089 E4.03365
G1 F937.5 X119.068 Y89.019 E4.03733
G1 F987.7 X119.069 Y87.548 E4.09678
G1 F1071.4 X119.071 Y86.077 E4.15157
G1 F1124.1 X119.149 Y85.774 E4.16268
G1 F1140.1 X119.266 Y85.562 E4.17116
G1 F1000 X119.456 Y85.327 E4.18322
G1 F812.2 X119.6 Y85.218 E4.1921
G1 F849.6 X119.325 Y85.188 E4.20509
G1 F1057.3 X119.052 Y85.256 E4.21571
G1 F1148.3 X118.864 Y85.422 E4.22443
G1 F1124.1 X118.695 Y85.738 E4.23715
G1 F1106 X118.636 Y86.115 E4.25092
G1 F1066.7 X118.636 Y87.567 E4.30525
G1 F985.6 X118.636 Y89.019 E4.36405
G1 F946.7 X118.516 Y89.122 E4.37072
G1 F943 X118.21 Y89.141 E4.38369
G1 X118.517 Y89.264 E4.39769
G1 X118.64 Y89.358 E4.40424
G1 X118.958 Y90.177 E4.44143
G1 X119.03 Y90.177 E4.44448
G0 F6000 X118.866 Y89.489
G0 X118.87 Y89.151
G0 X119.261 Y89.151
G1 F904 X120.339 Y89.152 E4.49207
G1 F1500 E-2.00793
G0 F6000 X120.339 Y88.221
G0 X120.24 Y86.184
G0 X120.356 Y85.237
G1 F1500 E4.49207
G1 F819.1 X119.992 Y85.19 E4.50996
G1 F785.6 X119.662 Y85.206 E4.52674
G1 F755.9 X119.6 Y85.218 E4.53008
G1 F1500 E-1.96992
G0 F6000 X119.031 Y85.555
G0 X118.863 Y85.989
G0 X118.864 Y88.301
G0 X122.089 Y88.301
G0 X122.179 Y88.844
G1 F1500 E4.53008
G1 F1212.1 X122.324 Y88.912 E4.53535
G1 F961.9 X122.569 Y88.963 E4.54573
G1 F783 X122.683 Y88.973 E4.55156
G1 X122.618 Y88.886 E4.5571
G1 F1016.9 X122.464 Y88.596 E4.56999
G1 F1315.1 X122.42 Y88.551 E4.5719
G1 F1227.6 X122.204 Y88.182 E4.5858
G1 F1132.1 X122.079 Y87.731 E4.6023
G1 F1086 X122.039 Y87.197 E4.62198
G1 F1076.2 X122.057 Y86.907 E4.63275
G1 F1090.9 X122.083 Y86.644 E4.64242
G1 F1145.6 X122.209 Y86.196 E4.65864
G1 F1283.4 X122.44 Y85.8 E4.67289
G1 F1441.4 X122.76 Y85.546 E4.68421
G1 F1519 X123.149 Y85.396 E4.69516
G1 F1568.6 X123.629 Y85.342 E4.70745
G1 F1573.8 X124.115 Y85.382 E4.71982
G1 F1523.8 X124.532 Y85.545 E4.73155
G1 F1403.5 X124.84 Y85.8 E4.74292
G1 F1273.2 X125.084 Y86.178 E4.75702
G1 F1153.8 X125.206 Y86.659 E4.77419
G1 F1081.1 X125.246 Y87.209 E4.79454
G1 F1086 X125.204 Y87.737 E4.81401
G1 F1145.6 X125.074 Y88.188 E4.83036
G1 F1230.8 X124.839 Y88.582 E4.84524
G1 F1218.3 X124.836 Y88.613 E4.84626
G1 F897.2 X124.67 Y88.928 E4.8621
G1 F930.2 X125.114 Y88.802 E4.8819
G1 F1263.2 X125.309 Y88.561 E4.8917
G1 F1215.2 X125.442 Y88.344 E4.90006
G1 F1159.4 X125.552 Y88.086 E4.90971
G1 F1113.7 X125.635 Y87.81 E4.92004
G1 F1083.5 X125.678 Y87.51 E4.9312
G1 F1069 X125.696 Y87.182 E4.94347
G1 F1066.7 X125.679 Y86.864 E4.95538
G1 F1076.2 X125.637 Y86.574 E4.96625
G1 F1100.9 X125.556 Y86.284 E4.97717
G1 F1140.1 X125.454 Y86.033 E4.98665
G1 F1194 X125.249 Y85.687 E5.0001
G1 F1276.6 X124.984 Y85.449 E5.01123
G1 F1379.3 X124.767 Y85.301 E5.01883
G1 F1450.2 X124.526 Y85.189 E5.02615
G1 F1509.4 X124.251 Y85.104 E5.03376
G1 F1548.4 X123.95 Y85.057 E5.04161
G1 F1568.6 X123.619 Y85.038 E5.05005
G1 F1563.5 X123.32 Y85.059 E5.0577
G1 F1543.4 X123.037 Y85.106 E5.06512
G1 F1519 X122.769 Y85.192 E5.07251
G1 F1472.4 X122.54 Y85.3 E5.07937
G1 F1411.8 X122.325 Y85.445 E5.08671
G1 F1307.9 X122.045 Y85.698 E5.09822
G1 F1218.3 X121.832 Y86.057 E5.1119
G1 F1156.6 X121.737 Y86.289 E5.12055
G1 F1118.9 X121.658 Y86.564 E5.13075
G1 F1090.9 X121.611 Y86.867 E5.14197
G1 F1076.2 X121.593 Y87.197 E5.15423
G1 F1073.8 X121.612 Y87.535 E5.16681
G1 F1086 X121.652 Y87.827 E5.17764
G1 F1106 X121.727 Y88.097 E5.18776
G1 F1140.1 X121.829 Y88.346 E5.19718
G1 F1185.2 X121.958 Y88.561 E5.20562
G1 F1233.9 X122.179 Y88.844 E5.21723
G0 F6000 X122.683 Y88.973
G1 F744.2 X122.826 Y89.036 E5.22561
G1 F755.9 X123.15 Y89.149 E5.24373
G1 F776.7 X123.623 Y89.187 E5.26812
