;FLAVOR:Marlin
;TIME:13918
;Filament used: 13.779m
;Layer height: 0.28
;MINX:31
;MINY:58.5
;MINZ:0.28
;MAXX:189
;MAXY:161.5
;MAXZ:14
;Generated with Cura_SteamEngine 5.2.2
M82 ;absolute extrusion mode
; Ender 3 Custom Start G-code
G92 E0 ; Reset Extruder
G28 ; Home all axes
M104 S175 ; Start heating up the nozzle most of the way
M190 S60 ; Start heating the bed, wait until target temperature reached
M109 S200 ; Finish heating the nozzle
G1 Z2.0 F3000 ; Move Z Axis up little to prevent scratching of Heat Bed
G1 X0.1 Y20 Z0.3 F5000.0 ; Move to start position
G1 X0.1 Y200.0 Z0.3 F1500.0 E15 ; Draw the first line
G1 X0.4 Y200.0 Z0.3 F5000.0 ; Move to side a little
G1 X0.4 Y20 Z0.3 F1500.0 E30 ; Draw the second line
G92 E0 ; Reset Extruder
G1 Z2.0 F3000 ; Move Z Axis up little to prevent scratching of Heat Bed
G1 X5 Y20 Z0.3 F5000.0 ; Move over to prevent blob squish
G92 E0
G92 E0
G1 F1500 E-6.5
;LAYER_COUNT:50
;LAYER:0
M107
G0 F6000 X36.412 Y60.039 Z0.28
;TYPE:SKIRT
G1 F1500 E0
G1 F1200 X37.239 Y59.597 E0.04366
G1 X38.101 Y59.227 E0.08734
G1 X38.991 Y58.931 E0.13102
G1 X39.903 Y58.713 E0.17468
G1 X40.83 Y58.572 E0.21834
G1 X41.701 Y58.513 E0.25899
G1 X42.33 Y58.5 E0.28829
G1 X177.451 Y58.501 E6.58009
G1 X178.149 Y58.511 E6.61259
G1 X179.085 Y58.565 E6.65625
G1 X180.013 Y58.697 E6.6999
G1 X180.927 Y58.909 E6.74358
G1 X181.819 Y59.198 E6.78725
G1 X182.684 Y59.561 E6.83093
G1 X183.514 Y59.997 E6.87458
G1 X184.305 Y60.502 E6.91828
G1 X185.049 Y61.073 E6.96195
G1 X185.742 Y61.705 E7.00562
G1 X186.379 Y62.393 E7.04928
G1 X186.954 Y63.134 E7.09296
G1 X187.465 Y63.92 E7.13661
G1 X187.907 Y64.748 E7.18032
G1 X188.276 Y65.61 E7.22398
G1 X188.571 Y66.5 E7.26764
G1 X188.789 Y67.412 E7.3113
G1 X188.929 Y68.34 E7.355
G1 X188.987 Y69.201 E7.39518
G1 X189 Y69.83 E7.42448
G1 X188.999 Y149.9 E11.15287
G1 X188.99 Y150.627 E11.18673
G1 X188.939 Y151.564 E11.23042
G1 X188.807 Y152.492 E11.27407
G1 X188.598 Y153.406 E11.31773
G1 X188.311 Y154.299 E11.3614
G1 X187.949 Y155.165 E11.40511
G1 X187.515 Y155.996 E11.44876
G1 X187.011 Y156.787 E11.49244
G1 X186.442 Y157.532 E11.53609
G1 X185.811 Y158.227 E11.5798
G1 X185.124 Y158.865 E11.62346
G1 X184.385 Y159.442 E11.66711
G1 X183.599 Y159.954 E11.71079
G1 X182.773 Y160.397 E11.75444
G1 X181.911 Y160.769 E11.79815
G1 X181.022 Y161.065 E11.84178
G1 X180.11 Y161.285 E11.88547
G1 X179.183 Y161.426 E11.92913
G1 X178.299 Y161.487 E11.97039
G1 X177.67 Y161.5 E11.99969
G1 X42.565 Y161.499 E18.29074
G1 X41.867 Y161.49 E18.32324
G1 X40.931 Y161.438 E18.3669
G1 X40.002 Y161.306 E18.41059
G1 X39.088 Y161.096 E18.45426
G1 X38.195 Y160.809 E18.49793
G1 X37.33 Y160.446 E18.54161
G1 X36.499 Y160.012 E18.58527
G1 X35.708 Y159.508 E18.62894
G1 X34.963 Y158.938 E18.67262
G1 X34.269 Y158.307 E18.7163
G1 X33.632 Y157.62 E18.75992
G1 X33.055 Y156.88 E18.80362
G1 X32.543 Y156.094 E18.8473
G1 X32.1 Y155.267 E18.89098
G1 X31.729 Y154.406 E18.93464
G1 X31.433 Y153.516 E18.97831
G1 X31.214 Y152.604 E19.02199
G1 X31.073 Y151.677 E19.06565
G1 X31.013 Y150.788 E19.10714
G1 X31 Y150.158 E19.13648
G1 X31.001 Y70.025 E22.86781
G1 X31.01 Y69.36 E22.89877
G1 X31.063 Y68.424 E22.94243
G1 X31.195 Y67.495 E22.98612
G1 X31.406 Y66.581 E23.0298
G1 X31.694 Y65.689 E23.07345
G1 X32.057 Y64.824 E23.11713
G1 X32.492 Y63.993 E23.1608
G1 X32.996 Y63.203 E23.20444
G1 X33.566 Y62.458 E23.24812
G1 X34.198 Y61.764 E23.29182
G1 X34.886 Y61.127 E23.33548
G1 X35.626 Y60.551 E23.37915
G1 X36.412 Y60.039 E23.42283
G0 F6000 X36.791 Y60.282
G1 F1200 X37.611 Y59.864 E23.46569
G1 X38.465 Y59.519 E23.50857
G1 X39.345 Y59.249 E23.55144
G1 X40.245 Y59.057 E23.59429
G1 X41.159 Y58.943 E23.63718
G1 X41.712 Y58.913 E23.66296
G1 X42.33 Y58.9 E23.69175
G1 X177.445 Y58.901 E29.98327
G1 X178.143 Y58.911 E30.01577
G1 X179.062 Y58.964 E30.05864
G1 X179.973 Y59.097 E30.10151
G1 X180.869 Y59.308 E30.14437
G1 X181.743 Y59.596 E30.18722
G1 X182.59 Y59.959 E30.23013
G1 X183.401 Y60.394 E30.27298
G1 X184.171 Y60.898 E30.31583
G1 X184.895 Y61.467 E30.35871
G1 X185.567 Y62.097 E30.4016
G1 X186.182 Y62.782 E30.44447
G1 X186.735 Y63.518 E30.48733
G1 X187.222 Y64.299 E30.53019
G1 X187.639 Y65.12 E30.57307
G1 X187.984 Y65.974 E30.61596
G1 X188.253 Y66.854 E30.65881
G1 X188.445 Y67.755 E30.7017
G1 X188.558 Y68.668 E30.74454
G1 X188.587 Y69.212 E30.76991
G1 X188.6 Y69.83 E30.79869
G1 X188.599 Y149.895 E34.52685
G1 X188.59 Y150.622 E34.56071
G1 X188.539 Y151.541 E34.60356
G1 X188.408 Y152.453 E34.64647
G1 X188.198 Y153.349 E34.68932
G1 X187.912 Y154.224 E34.73218
G1 X187.551 Y155.071 E34.77506
G1 X187.117 Y155.883 E34.81793
G1 X186.615 Y156.655 E34.86081
G1 X186.047 Y157.38 E34.90369
G1 X185.419 Y158.053 E34.94656
G1 X184.735 Y158.669 E34.98942
G1 X184 Y159.223 E35.03228
G1 X183.22 Y159.712 E35.07514
G1 X182.4 Y160.131 E35.11802
G1 X181.547 Y160.477 E35.16088
G1 X180.667 Y160.748 E35.20376
G1 X179.767 Y160.941 E35.24662
G1 X178.853 Y161.056 E35.28952
G1 X178.288 Y161.087 E35.31586
G1 X177.67 Y161.1 E35.34465
G1 X42.57 Y161.099 E41.63547
G1 X41.872 Y161.09 E41.66797
G1 X40.953 Y161.038 E41.71083
G1 X40.042 Y160.907 E41.75369
G1 X39.146 Y160.697 E41.79654
G1 X38.271 Y160.41 E41.83942
G1 X37.424 Y160.048 E41.88231
G1 X36.612 Y159.614 E41.92518
G1 X35.841 Y159.112 E41.96803
G1 X35.116 Y158.544 E42.01091
G1 X34.443 Y157.915 E42.0538
G1 X33.828 Y157.231 E42.09664
G1 X33.274 Y156.496 E42.13949
G1 X32.786 Y155.715 E42.18238
G1 X32.367 Y154.895 E42.22525
G1 X32.021 Y154.042 E42.26812
G1 X31.751 Y153.162 E42.31098
G1 X31.558 Y152.261 E42.35388
G1 X31.444 Y151.348 E42.39673
G1 X31.413 Y150.777 E42.42336
G1 X31.4 Y150.158 E42.45218
G1 X31.401 Y70.031 E46.18323
G1 X31.41 Y69.366 E46.2142
G1 X31.462 Y68.446 E46.25711
G1 X31.594 Y67.535 E46.29997
G1 X31.805 Y66.639 E46.34283
G1 X32.092 Y65.764 E46.38571
G1 X32.455 Y64.918 E46.42858
G1 X32.889 Y64.106 E46.47145
G1 X33.392 Y63.335 E46.51432
G1 X33.961 Y62.611 E46.5572
G1 X34.589 Y61.939 E46.60002
G1 X35.274 Y61.323 E46.64292
G1 X36.01 Y60.77 E46.68579
G1 X36.791 Y60.282 E46.72867
G0 F6000 X37.169 Y60.531
G1 F1200 X37.982 Y60.138 E46.77072
G1 X38.827 Y59.818 E46.81279
G1 X39.696 Y59.575 E46.85481
G1 X40.584 Y59.409 E46.89687
G1 X41.723 Y59.313 E46.9501
G1 X42.33 Y59.3 E46.97837
G1 X177.439 Y59.301 E53.26961
G1 X178.137 Y59.311 E53.30212
G1 X179.039 Y59.364 E53.34419
G1 X179.932 Y59.496 E53.38622
G1 X180.81 Y59.707 E53.42827
G1 X181.666 Y59.995 E53.47032
G1 X182.493 Y60.357 E53.51236
G1 X183.285 Y60.792 E53.55444
G1 X184.036 Y61.294 E53.5965
G1 X184.739 Y61.861 E53.63855
G1 X185.389 Y62.488 E53.68061
G1 X185.981 Y63.17 E53.72266
G1 X186.511 Y63.901 E53.7647
G1 X186.973 Y64.677 E53.80676
G1 X187.366 Y65.49 E53.8488
G1 X187.684 Y66.335 E53.89084
G1 X187.927 Y67.205 E53.9329
G1 X188.092 Y68.093 E53.97496
G1 X188.187 Y69.223 E54.02776
G1 X188.2 Y69.83 E54.05604
G1 X188.199 Y149.89 E57.78396
G1 X188.19 Y150.617 E57.81782
G1 X188.139 Y151.519 E57.85989
G1 X188.008 Y152.413 E57.90196
G1 X187.799 Y153.291 E57.94399
G1 X187.513 Y154.148 E57.98606
G1 X187.152 Y154.976 E58.02812
G1 X186.72 Y155.768 E58.07012
G1 X186.219 Y156.52 E58.1122
G1 X185.653 Y157.224 E58.15426
G1 X185.028 Y157.875 E58.19628
G1 X184.347 Y158.469 E58.23836
G1 X183.616 Y159 E58.28043
G1 X182.842 Y159.464 E58.32245
G1 X182.029 Y159.858 E58.36452
G1 X181.185 Y160.178 E58.40655
G1 X180.315 Y160.423 E58.44864
G1 X179.428 Y160.589 E58.49066
G1 X178.277 Y160.687 E58.54445
G1 X177.67 Y160.7 E58.57272
G1 X42.575 Y160.699 E64.86331
G1 X41.877 Y160.69 E64.89581
G1 X40.976 Y160.639 E64.93783
G1 X40.082 Y160.507 E64.97991
G1 X39.204 Y160.298 E65.02194
G1 X38.347 Y160.011 E65.06402
G1 X37.52 Y159.65 E65.10604
G1 X36.727 Y159.217 E65.14811
G1 X35.976 Y158.716 E65.19015
G1 X35.272 Y158.15 E65.23221
G1 X34.621 Y157.524 E65.27426
G1 X34.028 Y156.843 E65.31631
G1 X33.498 Y156.112 E65.35836
G1 X33.034 Y155.337 E65.40042
G1 X32.64 Y154.524 E65.44248
G1 X32.32 Y153.68 E65.48451
G1 X32.076 Y152.81 E65.52659
G1 X31.91 Y151.922 E65.56865
G1 X31.813 Y150.767 E65.62262
G1 X31.8 Y150.158 E65.65099
G1 X31.801 Y70.036 E69.3818
G1 X31.81 Y69.371 E69.41277
G1 X31.862 Y68.469 E69.45484
G1 X31.994 Y67.576 E69.49688
G1 X32.204 Y66.698 E69.53891
G1 X32.491 Y65.841 E69.581
G1 X32.853 Y65.014 E69.62303
G1 X33.286 Y64.222 E69.66506
G1 X33.788 Y63.471 E69.70713
G1 X34.355 Y62.767 E69.74922
G1 X34.981 Y62.117 E69.79124
G1 X35.662 Y61.524 E69.83329
G1 X36.394 Y60.994 E69.87537
G1 X37.169 Y60.531 E69.9174
G1 F1500 E63.4174
;MESH:Box.stl
G0 F6000 X42.42 Y68.835
G0 X42.6 Y149.9
;TYPE:WALL-INNER
G1 F1500 E69.9174
G1 F1200 X177.4 Y149.9 E76.19426
G1 X177.4 Y70.1 E79.91008
G1 X42.6 Y70.1 E86.18693
G1 X42.6 Y149.9 E89.90275
G0 F6000 X42.2 Y150.3
;TYPE:WALL-OUTER
G1 F1200 X177.8 Y150.3 E96.21686
G1 X177.8 Y69.7 E99.96993
G1 X42.2 Y69.7 E106.28404
G1 X42.2 Y150.3 E110.03711
G0 F6000 X42.47 Y150.03
G0 X42.7 Y149.54
G0 X42.96 Y149.54
;TYPE:SKIN
G1 F1200 X177.04 Y149.54 E116.28044
G1 X177.04 Y70.46 E119.96273
G1 X42.96 Y70.46 E126.20606
G1 X42.96 Y149.54 E129.88835
G0 F6000 X43.556 Y149.339
G1 F1200 X43.159 Y148.942 E129.9145
G0 F6000 X43.159 Y148.377
G1 F1200 X44.122 Y149.339 E129.97788
G0 F6000 X44.687 Y149.339
G1 F1200 X43.159 Y147.811 E130.0785
G0 F6000 X43.159 Y147.245
G1 F1200 X45.253 Y149.339 E130.21639
G0 F6000 X45.819 Y149.339
G1 F1200 X43.159 Y146.68 E130.39153
G0 F6000 X43.159 Y146.114
G1 F1200 X46.384 Y149.339 E130.6039
G0 F6000 X46.95 Y149.339
G1 F1200 X43.159 Y145.548 E130.85354
G0 F6000 X43.159 Y144.983
G1 F1200 X47.516 Y149.339 E131.14043
G0 F6000 X48.081 Y149.339
G1 F1200 X43.159 Y144.417 E131.46455
G0 F6000 X43.159 Y143.851
G1 F1200 X48.647 Y149.339 E131.82594
G0 F6000 X49.213 Y149.339
G1 F1200 X43.159 Y143.285 E132.22461
G0 F6000 X43.159 Y142.72
G1 F1200 X49.778 Y149.339 E132.66048
G0 F6000 X50.344 Y149.339
G1 F1200 X43.159 Y142.154 E133.13363
G0 F6000 X43.159 Y141.588
G1 F1200 X50.91 Y149.339 E133.64404
G0 F6000 X51.475 Y149.339
G1 F1200 X43.159 Y141.023 E134.19166
G0 F6000 X43.159 Y140.457
G1 F1200 X52.041 Y149.339 E134.77656
G0 F6000 X52.607 Y149.339
G1 F1200 X43.159 Y139.891 E135.39873
G0 F6000 X43.159 Y139.326
G1 F1200 X53.173 Y149.339 E136.05813
G0 F6000 X53.738 Y149.339
G1 F1200 X43.159 Y138.76 E136.75478
G0 F6000 X43.159 Y138.194
G1 F1200 X54.304 Y149.339 E137.48869
G0 F6000 X54.87 Y149.339
G1 F1200 X43.159 Y137.629 E138.25985
G0 F6000 X43.159 Y137.063
G1 F1200 X55.435 Y149.339 E139.06825
G0 F6000 X56.001 Y149.339
G1 F1200 X43.159 Y136.497 E139.91391
G0 F6000 X43.159 Y135.932
G1 F1200 X56.567 Y149.339 E140.79682
G0 F6000 X57.132 Y149.339
G1 F1200 X43.159 Y135.366 E141.71697
G0 F6000 X43.159 Y134.8
G1 F1200 X57.698 Y149.339 E142.67439
G0 F6000 X58.264 Y149.339
G1 F1200 X43.159 Y134.235 E143.66904
G0 F6000 X43.159 Y133.669
G1 F1200 X58.829 Y149.339 E144.70094
G0 F6000 X59.395 Y149.339
G1 F1200 X43.159 Y133.103 E145.77011
G0 F6000 X43.159 Y132.537
G1 F1200 X59.961 Y149.339 E146.87655
G0 F6000 X60.526 Y149.339
G1 F1200 X43.159 Y131.972 E148.02019
G0 F6000 X43.159 Y131.406
G1 F1200 X61.092 Y149.339 E149.20111
G0 F6000 X61.658 Y149.339
G1 F1200 X43.159 Y130.84 E150.4193
G0 F6000 X43.159 Y130.275
G1 F1200 X62.223 Y149.339 E151.6747
G0 F6000 X62.789 Y149.339
G1 F1200 X43.159 Y129.709 E152.96737
G0 F6000 X43.159 Y129.143
G1 F1200 X63.355 Y149.339 E154.29731
G0 F6000 X63.921 Y149.339
G1 F1200 X43.159 Y128.578 E155.66449
G0 F6000 X43.159 Y128.012
G1 F1200 X64.486 Y149.339 E157.06891
G0 F6000 X65.052 Y149.339
G1 F1200 X43.159 Y127.446 E158.5106
G0 F6000 X43.159 Y126.881
G1 F1200 X65.618 Y149.339 E159.98953
G0 F6000 X66.183 Y149.339
G1 F1200 X43.159 Y126.315 E161.5057
G0 F6000 X43.159 Y125.749
G1 F1200 X66.749 Y149.339 E163.05914
G0 F6000 X67.315 Y149.339
G1 F1200 X43.159 Y125.184 E164.64982
G0 F6000 X43.159 Y124.618
G1 F1200 X67.88 Y149.339 E166.27774
G0 F6000 X68.446 Y149.339
G1 F1200 X43.159 Y124.052 E167.94294
G0 F6000 X43.159 Y123.487
G1 F1200 X69.012 Y149.339 E169.64537
G0 F6000 X69.577 Y149.339
G1 F1200 X43.159 Y122.921 E171.38504
G0 F6000 X43.159 Y122.355
G1 F1200 X70.143 Y149.339 E173.16198
G0 F6000 X70.709 Y149.339
G1 F1200 X43.159 Y121.789 E174.9762
G0 F6000 X43.159 Y121.224
G1 F1200 X71.274 Y149.339 E176.82762
G0 F6000 X71.84 Y149.339
G1 F1200 X43.159 Y120.658 E178.71631
G0 F6000 X43.159 Y120.092
G1 F1200 X72.406 Y149.339 E180.64227
G0 F6000 X72.972 Y149.339
G1 F1200 X43.159 Y119.527 E182.60548
G0 F6000 X43.159 Y118.961
G1 F1200 X73.537 Y149.339 E184.60592
G0 F6000 X74.103 Y149.339
G1 F1200 X43.159 Y118.395 E186.64364
G0 F6000 X43.159 Y117.83
G1 F1200 X74.669 Y149.339 E188.71859
G0 F6000 X75.234 Y149.339
G1 F1200 X43.159 Y117.264 E190.83078
G0 F6000 X43.159 Y116.698
G1 F1200 X75.8 Y149.339 E192.98025
G0 F6000 X76.366 Y149.339
G1 F1200 X43.159 Y116.133 E195.16695
G0 F6000 X43.159 Y115.567
G1 F1200 X76.931 Y149.339 E197.3909
G0 F6000 X77.497 Y149.339
G1 F1200 X43.159 Y115.001 E199.65211
G0 F6000 X43.159 Y114.436
G1 F1200 X78.063 Y149.339 E201.95057
G0 F6000 X78.628 Y149.339
G1 F1200 X43.159 Y113.87 E204.28626
G0 F6000 X43.159 Y113.304
G1 F1200 X79.194 Y149.339 E206.65923
G0 F6000 X79.76 Y149.339
G1 F1200 X43.159 Y112.738 E209.06947
G0 F6000 X43.159 Y112.173
G1 F1200 X80.325 Y149.339 E211.51691
G0 F6000 X80.891 Y149.339
G1 F1200 X43.159 Y111.607 E214.00163
G0 F6000 X43.159 Y111.041
G1 F1200 X81.457 Y149.339 E216.52362
G0 F6000 X82.022 Y149.339
G1 F1200 X43.159 Y110.476 E219.08281
G0 F6000 X43.159 Y109.91
G1 F1200 X82.588 Y149.339 E221.67928
G0 F6000 X83.154 Y149.339
G1 F1200 X43.159 Y109.344 E224.31302
G0 F6000 X43.159 Y108.779
G1 F1200 X83.72 Y149.339 E226.984
G0 F6000 X84.285 Y149.339
G1 F1200 X43.159 Y108.213 E229.69221
G0 F6000 X43.159 Y107.647
G1 F1200 X84.851 Y149.339 E232.4377
G0 F6000 X85.417 Y149.339
G1 F1200 X43.159 Y107.082 E235.22043
G0 F6000 X43.159 Y106.516
G1 F1200 X85.982 Y149.339 E238.0404
G0 F6000 X86.548 Y149.339
G1 F1200 X43.159 Y105.95 E240.89764
G0 F6000 X43.159 Y105.385
G1 F1200 X87.114 Y149.339 E243.79212
G0 F6000 X87.679 Y149.339
G1 F1200 X43.159 Y104.819 E246.72384
G0 F6000 X43.159 Y104.253
G1 F1200 X88.245 Y149.339 E249.69283
G0 F6000 X88.811 Y149.339
G1 F1200 X43.159 Y103.688 E252.69906
G0 F6000 X43.159 Y103.122
G1 F1200 X89.376 Y149.339 E255.74252
G0 F6000 X89.942 Y149.339
G1 F1200 X43.159 Y102.556 E258.82327
G0 F6000 X43.159 Y101.99
G1 F1200 X90.508 Y149.339 E261.94128
G0 F6000 X91.073 Y149.339
G1 F1200 X43.159 Y101.425 E265.0965
G0 F6000 X43.159 Y100.859
G1 F1200 X91.639 Y149.339 E268.28899
G0 F6000 X92.205 Y149.339
G1 F1200 X43.159 Y100.293 E271.51875
G0 F6000 X43.159 Y99.728
G1 F1200 X92.77 Y149.339 E274.78572
G0 F6000 X93.336 Y149.339
G1 F1200 X43.159 Y99.162 E278.08996
G0 F6000 X43.159 Y98.596
G1 F1200 X93.902 Y149.339 E281.43147
G0 F6000 X94.468 Y149.339
G1 F1200 X43.159 Y98.031 E284.81023
G0 F6000 X43.159 Y97.465
G1 F1200 X95.033 Y149.339 E288.22622
G0 F6000 X95.599 Y149.339
G1 F1200 X43.159 Y96.899 E291.67948
G0 F6000 X43.159 Y96.334
G1 F1200 X96.165 Y149.339 E295.16998
G0 F6000 X96.73 Y149.339
G1 F1200 X43.159 Y95.768 E298.69773
G0 F6000 X43.159 Y95.202
G1 F1200 X97.296 Y149.339 E302.26274
G0 F6000 X97.862 Y149.339
G1 F1200 X43.159 Y94.637 E305.86499
G0 F6000 X43.159 Y94.071
G1 F1200 X98.427 Y149.339 E309.50448
G0 F6000 X98.993 Y149.339
G1 F1200 X43.159 Y93.505 E313.18125
G0 F6000 X43.159 Y92.939
G1 F1200 X99.559 Y149.339 E316.89528
G0 F6000 X100.124 Y149.339
G1 F1200 X43.159 Y92.374 E320.64653
G0 F6000 X43.159 Y91.808
G1 F1200 X100.69 Y149.339 E324.43504
G0 F6000 X101.256 Y149.339
G1 F1200 X43.159 Y91.242 E328.26083
G0 F6000 X43.159 Y90.677
G1 F1200 X101.821 Y149.339 E332.12382
G0 F6000 X102.387 Y149.339
G1 F1200 X43.159 Y90.111 E336.02409
G0 F6000 X43.159 Y89.545
G1 F1200 X102.953 Y149.339 E339.96162
G0 F6000 X103.519 Y149.339
G1 F1200 X43.159 Y88.98 E343.9364
G0 F6000 X43.159 Y88.414
G1 F1200 X104.084 Y149.339 E347.94842
G0 F6000 X104.65 Y149.339
G1 F1200 X43.159 Y87.848 E351.9977
G0 F6000 X43.159 Y87.283
G1 F1200 X105.216 Y149.339 E356.08423
G0 F6000 X105.781 Y149.339
G1 F1200 X43.159 Y86.717 E360.20799
G0 F6000 X43.159 Y86.151
G1 F1200 X106.347 Y149.339 E364.36903
G0 F6000 X106.913 Y149.339
G1 F1200 X43.159 Y85.586 E368.56731
G0 F6000 X43.159 Y85.02
