;FLAVOR:Marlin
;TIME:7112
;Filament used: 4.99232m
;Layer height: 0.2
;MINX:60.517
;MINY:61.017
;MINZ:0.2
;MAXX:159.483
;MAXY:158.983
;MAXZ:11
;Generated with Cura_SteamEngine 5.2.2
M82 ;absolute extrusion mode
; Ender 3 Custom Start G-code
G92 E0 ; Reset Extruder
G28 ; Home all axes
M104 S175 ; Start heating up the nozzle most of the way
M190 S60 ; Start heating the bed, wait until target temperature reached
M109 S200 ; Finish heating the nozzle
G1 Z2.0 F3000 ; Move Z Axis up little to prevent scratching of Heat Bed
G1 X0.1 Y20 Z0.3 F5000.0 ; Move to start position
G1 X0.1 Y200.0 Z0.3 F1500.0 E15 ; Draw the first line
G1 X0.4 Y200.0 Z0.3 F5000.0 ; Move to side a little
G1 X0.4 Y20 Z0.3 F1500.0 E30 ; Draw the second line
G92 E0 ; Reset Extruder
G1 Z2.0 F3000 ; Move Z Axis up little to prevent scratching of Heat Bed
G1 X5 Y20 Z0.3 F5000.0 ; Move over to prevent blob squish
G92 E0
G92 E0
G1 F1500 E-6.5
;LAYER_COUNT:55
;LAYER:0
M107
G0 F6000 X66.985 Y66.62 Z0.2
;TYPE:SKIRT
G1 F1500 E0
G1 F1200 X67.561 Y66.115 E0.02548
G1 X68.393 Y65.427 E0.06139
G1 X69.501 Y64.621 E0.10696
G1 X70.385 Y64.059 E0.1418
G1 X71.195 Y63.576 E0.17317
G1 X72.312 Y63.003 E0.21492
G1 X72.989 Y62.711 E0.23944
G1 X74.074 Y62.277 E0.27831
G1 X75.342 Y61.857 E0.32274
G1 X76.054 Y61.675 E0.34718
G1 X77.067 Y61.443 E0.38174
G1 X78.448 Y61.218 E0.42828
G1 X79.497 Y61.115 E0.46334
G1 X80.391 Y61.051 E0.49315
G1 X80.861 Y61.031 E0.5088
G1 X81.607 Y61.017 E0.53361
G1 X138.382 Y61.019 E2.42196
G1 X139.256 Y61.036 E2.45103
G1 X139.828 Y61.062 E2.47008
G1 X140.669 Y61.124 E2.49812
G1 X141.283 Y61.18 E2.51863
G1 X142.598 Y61.381 E2.56288
G1 X143.611 Y61.599 E2.59734
G1 X144.501 Y61.816 E2.62781
G1 X145.658 Y62.174 E2.66809
G1 X146.251 Y62.4 E2.6892
G1 X146.882 Y62.658 E2.71187
G1 X147.552 Y62.944 E2.7361
G1 X148.654 Y63.489 E2.77699
G1 X149.322 Y63.877 E2.80268
G1 X150.219 Y64.431 E2.83775
G1 X151.332 Y65.217 E2.88307
G1 X152.118 Y65.849 E2.91661
G1 X152.854 Y66.477 E2.94879
G1 X153.789 Y67.389 E2.99224
G1 X154.315 Y67.976 E3.01845
G1 X155.025 Y68.812 E3.05493
G1 X155.808 Y69.853 E3.09826
G1 X156.233 Y70.509 E3.12425
G1 X156.832 Y71.494 E3.1626
G1 X157.451 Y72.666 E3.20668
G1 X157.73 Y73.298 E3.22966
G1 X158.186 Y74.408 E3.26957
G1 X158.505 Y75.29 E3.30077
G1 X158.673 Y75.881 E3.3212
G1 X158.853 Y76.59 E3.34553
G1 X159.073 Y77.536 E3.37783
G1 X159.286 Y78.796 E3.42034
G1 X159.354 Y79.48 E3.4432
G1 X159.441 Y80.66 E3.48255
G1 X159.469 Y81.264 E3.50266
G1 X159.483 Y82.112 E3.53087
G1 X159.482 Y137.967 E5.38862
G1 X159.467 Y138.792 E5.41606
G1 X159.442 Y139.366 E5.43517
G1 X159.398 Y139.99 E5.45598
G1 X159.303 Y141.031 E5.49074
G1 X159.176 Y141.961 E5.52196
G1 X159.073 Y142.466 E5.5391
G1 X158.826 Y143.523 E5.57521
G1 X158.652 Y144.192 E5.5982
G1 X158.284 Y145.342 E5.63836
G1 X158.018 Y146.014 E5.6624
G1 X157.54 Y147.129 E5.70275
G1 X156.941 Y148.321 E5.74712
G1 X156.548 Y148.983 E5.77272
G1 X155.957 Y149.919 E5.80954
G1 X155.208 Y150.964 E5.8523
G1 X154.796 Y151.465 E5.87388
G1 X154.345 Y151.988 E5.89685
G1 X153.872 Y152.519 E5.9205
G1 X153.009 Y153.385 E5.96116
G1 X152.445 Y153.88 E5.98612
G1 X151.61 Y154.571 E6.02217
G1 X150.499 Y155.379 E6.06786
G1 X149.615 Y155.941 E6.1027
G1 X148.805 Y156.424 E6.13407
G1 X147.673 Y157.004 E6.17637
G1 X146.972 Y157.306 E6.20176
G1 X145.92 Y157.726 E6.23944
G1 X144.658 Y158.143 E6.28364
G1 X143.946 Y158.325 E6.30808
G1 X142.933 Y158.557 E6.34265
G1 X141.552 Y158.782 E6.38919
G1 X140.503 Y158.885 E6.42424
G1 X139.609 Y158.949 E6.45406
G1 X139.139 Y158.969 E6.4697
G1 X138.393 Y158.983 E6.49452
G1 X81.618 Y158.981 E8.38286
G1 X80.744 Y158.964 E8.41194
G1 X80.172 Y158.938 E8.43098
G1 X79.331 Y158.876 E8.45903
G1 X78.717 Y158.82 E8.47954
G1 X77.402 Y158.619 E8.52378
G1 X76.389 Y158.401 E8.55824
G1 X75.499 Y158.184 E8.58871
G1 X74.341 Y157.825 E8.62904
G1 X73.638 Y157.554 E8.6541
G1 X72.522 Y157.087 E8.69433
G1 X71.337 Y156.506 E8.73823
G1 X70.678 Y156.123 E8.76358
G1 X69.781 Y155.569 E8.79865
G1 X68.668 Y154.783 E8.84396
G1 X67.882 Y154.151 E8.87751
G1 X67.146 Y153.523 E8.90969
G1 X66.271 Y152.677 E8.95017
G1 X65.769 Y152.12 E8.97511
G1 X64.974 Y151.186 E9.0159
G1 X64.186 Y150.14 E9.05946
G1 X63.797 Y149.539 E9.08327
G1 X63.174 Y148.516 E9.12311
G1 X62.721 Y147.695 E9.1543
G1 X62.476 Y147.168 E9.17363
G1 X62.067 Y146.216 E9.20809
G1 X61.8 Y145.556 E9.23177
G1 X61.485 Y144.673 E9.26295
G1 X61.343 Y144.167 E9.28043
G1 X61.086 Y143.153 E9.31522
G1 X60.924 Y142.445 E9.33938
G1 X60.707 Y141.136 E9.38351
G1 X60.631 Y140.352 E9.40971
G1 X60.553 Y139.244 E9.44665
G1 X60.528 Y138.661 E9.46606
G1 X60.517 Y137.949 E9.48975
G1 X60.517 Y82.065 E11.34846
G1 X60.527 Y81.352 E11.37217
G1 X60.55 Y80.785 E11.39105
G1 X60.617 Y79.821 E11.42319
G1 X60.698 Y78.96 E11.45195
G1 X60.882 Y77.743 E11.49289
G1 X61.008 Y77.164 E11.5126
G1 X61.168 Y76.505 E11.53515
G1 X61.349 Y75.806 E11.55917
G1 X61.775 Y74.502 E11.60479
G1 X62.08 Y73.749 E11.63182
G1 X62.481 Y72.823 E11.66538
G1 X63.078 Y71.644 E11.70933
G1 X63.456 Y71.009 E11.73391
G1 X64.045 Y70.077 E11.77058
G1 X64.787 Y69.042 E11.81294
G1 X65.288 Y68.437 E11.83906
G1 X66.08 Y67.536 E11.87896
G1 X66.985 Y66.62 E11.92179
G0 F6000 X67.253 Y66.917
G1 F1200 X67.816 Y66.423 E11.9467
G1 X68.648 Y65.735 E11.98261
G1 X69.716 Y64.959 E12.02652
G1 X70.6 Y64.397 E12.06136
G1 X71.398 Y63.921 E12.09227
G1 X72.474 Y63.368 E12.1325
G1 X73.137 Y63.082 E12.15652
G1 X74.222 Y62.648 E12.19539
G1 X75.444 Y62.244 E12.23819
G1 X76.144 Y62.065 E12.26222
G1 X77.157 Y61.833 E12.29679
G1 X78.487 Y61.616 E12.34161
G1 X79.536 Y61.513 E12.37667
G1 X80.417 Y61.45 E12.40605
G1 X80.87 Y61.43 E12.42113
G1 X81.378 Y61.419 E12.43803
G1 X138.374 Y61.419 E14.33372
G1 X139.248 Y61.436 E14.3628
G1 X139.8 Y61.461 E14.38117
G1 X140.428 Y61.506 E14.40212
G1 X141.247 Y61.579 E14.42946
G1 X142.514 Y61.772 E14.47209
G1 X143.527 Y61.99 E14.50655
G1 X144.403 Y62.204 E14.53655
G1 X145.519 Y62.549 E14.5754
G1 X146.1 Y62.771 E14.59609
G1 X146.724 Y63.026 E14.61851
G1 X147.394 Y63.312 E14.64274
G1 X148.457 Y63.837 E14.68217
G1 X149.112 Y64.217 E14.70735
G1 X150.009 Y64.771 E14.74242
G1 X151.081 Y65.529 E14.78609
G1 X151.867 Y66.161 E14.81963
G1 X152.593 Y66.78 E14.85136
G1 X153.493 Y67.658 E14.89318
G1 X154.01 Y68.235 E14.91895
G1 X154.72 Y69.071 E14.95543
G1 X155.475 Y70.074 E14.99719
G1 X155.891 Y70.716 E15.02263
G1 X156.49 Y71.701 E15.06097
G1 X157.087 Y72.831 E15.10348
G1 X157.36 Y73.45 E15.12598
G1 X157.816 Y74.56 E15.16589
G1 X158.128 Y75.426 E15.19651
G1 X158.285 Y75.98 E15.21566
G1 X158.522 Y76.924 E15.24803
G1 X158.683 Y77.625 E15.27196
G1 X158.888 Y78.839 E15.31291
G1 X158.955 Y79.51 E15.33533
G1 X159.042 Y80.69 E15.37469
G1 X159.069 Y81.271 E15.39403
G1 X159.083 Y82.112 E15.42201
G1 X159.082 Y137.96 E17.27952
G1 X159.067 Y138.785 E17.30696
G1 X159.043 Y139.338 E17.32537
G1 X158.999 Y139.962 E17.34618
G1 X158.905 Y140.994 E17.38065
G1 X158.78 Y141.906 E17.41126
G1 X158.683 Y142.376 E17.42723
G1 X158.439 Y143.422 E17.46295
G1 X158.265 Y144.091 E17.48594
G1 X157.91 Y145.2 E17.52467
G1 X157.65 Y145.857 E17.54817
G1 X157.172 Y146.972 E17.58852
G1 X156.596 Y148.12 E17.63124
G1 X156.21 Y148.769 E17.65636
G1 X155.619 Y149.705 E17.69317
G1 X154.897 Y150.713 E17.73441
G1 X154.493 Y151.204 E17.75556
G1 X154.046 Y151.722 E17.77832
G1 X153.573 Y152.253 E17.80197
G1 X152.741 Y153.088 E17.84117
G1 X152.19 Y153.571 E17.86554
G1 X151.355 Y154.262 E17.90159
G1 X150.284 Y155.041 E17.94564
G1 X149.4 Y155.603 E17.98048
G1 X148.602 Y156.079 E18.01139
G1 X147.512 Y156.638 E18.05213
G1 X146.823 Y156.934 E18.07707
G1 X145.771 Y157.354 E18.11475
G1 X144.556 Y157.756 E18.15731
G1 X143.856 Y157.935 E18.18134
G1 X142.843 Y158.167 E18.21591
G1 X141.513 Y158.384 E18.26073
G1 X140.464 Y158.487 E18.29579
G1 X139.583 Y158.55 E18.32516
G1 X139.13 Y158.57 E18.34025
G1 X138.622 Y158.581 E18.35715
G1 X81.626 Y158.581 E20.25284
G1 X80.752 Y158.564 E20.28191
G1 X80.2 Y158.539 E20.30029
G1 X79.572 Y158.494 E20.32123
G1 X78.753 Y158.421 E20.34858
G1 X77.486 Y158.228 E20.39121
G1 X76.473 Y158.01 E20.42567
G1 X75.597 Y157.796 E20.45567
G1 X74.48 Y157.45 E20.49456
G1 X73.792 Y157.185 E20.51908
G1 X72.676 Y156.718 E20.55932
G1 X71.535 Y156.158 E20.60159
G1 X70.888 Y155.783 E20.62646
G1 X69.991 Y155.229 E20.66153
G1 X68.919 Y154.471 E20.7052
G1 X68.133 Y153.839 E20.73874
G1 X67.407 Y153.22 E20.77048
G1 X66.565 Y152.405 E20.80945
G1 X66.073 Y151.861 E20.83385
G1 X65.278 Y150.927 E20.87464
G1 X64.519 Y149.919 E20.91661
G1 X64.139 Y149.331 E20.93989
G1 X63.516 Y148.308 E20.97973
G1 X63.071 Y147.502 E21.01035
G1 X62.843 Y147.009 E21.02842
G1 X62.438 Y146.066 E21.06255
G1 X62.171 Y145.406 E21.08623
G1 X61.863 Y144.539 E21.11684
G1 X61.73 Y144.068 E21.13311
G1 X61.542 Y143.336 E21.15825
G1 X61.314 Y142.355 E21.19175
G1 X61.105 Y141.094 E21.23426
G1 X61.03 Y140.324 E21.25999
G1 X60.952 Y139.216 E21.29694
G1 X60.928 Y138.654 E21.31565
G1 X60.917 Y137.949 E21.3391
G1 X60.917 Y82.07 E23.19764
G1 X60.927 Y81.357 E23.22136
G1 X60.949 Y80.812 E23.2395
G1 X61.016 Y79.858 E23.27131
G1 X61.097 Y78.997 E23.30007
G1 X61.273 Y77.825 E23.33949
G1 X61.397 Y77.257 E23.35883
G1 X61.555 Y76.605 E23.38114
G1 X61.736 Y75.906 E23.40515
G1 X62.147 Y74.649 E23.44914
G1 X62.447 Y73.908 E23.47573
G1 X62.848 Y72.982 E23.50929
G1 X63.423 Y71.846 E23.55164
G1 X63.794 Y71.223 E23.57576
G1 X64.383 Y70.291 E23.61243
G1 X65.098 Y69.293 E23.65326
G1 X65.589 Y68.701 E23.67884
G1 X66.381 Y67.8 E23.71874
G1 X67.253 Y66.917 E23.76002
G0 F6000 X67.52 Y67.215
G1 F1200 X68.071 Y66.731 E23.78441
G1 X68.903 Y66.043 E23.82032
G1 X69.931 Y65.296 E23.86258
G1 X70.815 Y64.734 E23.89742
G1 X71.6 Y64.265 E23.92784
G1 X72.636 Y63.734 E23.96656
G1 X73.286 Y63.454 E23.9901
G1 X74.371 Y63.02 E24.02896
G1 X75.547 Y62.63 E24.07017
G1 X76.233 Y62.454 E24.09373
G1 X77.246 Y62.222 E24.12829
G1 X78.526 Y62.014 E24.17142
G1 X79.575 Y61.911 E24.20648
G1 X80.442 Y61.849 E24.23539
G1 X80.878 Y61.83 E24.24991
G1 X81.607 Y61.817 E24.27416
G1 X138.366 Y61.819 E26.16197
G1 X139.24 Y61.836 E26.19104
G1 X139.771 Y61.86 E26.20872
G1 X140.596 Y61.921 E26.23624
G1 X141.21 Y61.977 E26.25674
G1 X142.43 Y62.163 E26.29779
G1 X143.443 Y62.381 E26.33225
G1 X144.306 Y62.592 E26.3618
G1 X145.38 Y62.924 E26.39919
G1 X145.95 Y63.141 E26.41948
G1 X146.405 Y63.326 E26.43581
G1 X147.237 Y63.68 E26.46589
G1 X148.26 Y64.186 E26.50385
G1 X148.902 Y64.558 E26.52853
G1 X149.799 Y65.112 E26.56359
G1 X150.831 Y65.841 E26.60562
G1 X151.617 Y66.473 E26.63916
G1 X152.331 Y67.082 E26.67037
G1 X153.198 Y67.928 E26.71067
G1 X153.706 Y68.494 E26.73596
G1 X154.416 Y69.33 E26.77244
G1 X155.141 Y70.295 E26.81259
G1 X155.549 Y70.924 E26.83752
G1 X156.148 Y71.909 E26.87587
G1 X156.722 Y72.996 E26.91675
G1 X156.99 Y73.602 E26.93879
G1 X157.446 Y74.712 E26.9787
G1 X157.752 Y75.562 E27.00875
G1 X157.897 Y76.078 E27.02658
G1 X158.132 Y77.014 E27.05867
G1 X158.293 Y77.715 E27.0826
G1 X158.491 Y78.883 E27.122
G1 X158.556 Y79.539 E27.14392
G1 X158.643 Y80.719 E27.18328
G1 X158.669 Y81.279 E27.20192
G1 X158.683 Y82.112 E27.22963
G1 X158.682 Y137.952 E29.08688
G1 X158.667 Y138.777 E29.11432
G1 X158.644 Y139.309 E29.13203
G1 X158.581 Y140.165 E29.16058
G1 X158.507 Y140.957 E29.18704
G1 X158.293 Y142.287 E29.23184
G1 X158.052 Y143.321 E29.26716
G1 X157.878 Y143.99 E29.29015
G1 X157.537 Y145.057 E29.3274
G1 X157.283 Y145.699 E29.35037
G1 X156.805 Y146.814 E29.39072
G1 X156.25 Y147.919 E29.43184
G1 X155.872 Y148.556 E29.45648
G1 X155.281 Y149.492 E29.4933
G1 X154.586 Y150.461 E29.53296
G1 X154.19 Y150.944 E29.55373
G1 X153.864 Y151.323 E29.57036
G1 X153.274 Y151.987 E29.5999
G1 X152.474 Y152.79 E29.6376
G1 X151.935 Y153.263 E29.66146
G1 X151.1 Y153.954 E29.6975
G1 X150.069 Y154.704 E29.73991
G1 X149.185 Y155.266 E29.77475
G1 X148.4 Y155.735 E29.80516
G1 X147.35 Y156.272 E29.84439
G1 X146.675 Y156.563 E29.86884
G1 X145.623 Y156.983 E29.90651
G1 X144.453 Y157.37 E29.9475
G1 X143.767 Y157.546 E29.97106
G1 X142.754 Y157.778 E30.00562
G1 X141.474 Y157.986 E30.04875
G1 X140.425 Y158.089 E30.08381
G1 X139.558 Y158.151 E30.11272
G1 X139.122 Y158.17 E30.12724
G1 X138.393 Y158.183 E30.15149
G1 X81.634 Y158.181 E32.0393
G1 X80.76 Y158.164 E32.06837
G1 X80.229 Y158.14 E32.08605
G1 X79.404 Y158.079 E32.11357
G1 X78.79 Y158.023 E32.13407
G1 X77.57 Y157.837 E32.17512
G1 X76.557 Y157.619 E32.20958
G1 X75.694 Y157.408 E32.23913
G1 X74.62 Y157.075 E32.27653
G1 X73.947 Y156.816 E32.30052
G1 X72.831 Y156.349 E32.34075
G1 X71.732 Y155.81 E32.38146
G1 X71.098 Y155.442 E32.40585
G1 X70.201 Y154.888 E32.44091
G1 X69.169 Y154.159 E32.48294
G1 X68.383 Y153.527 E32.51648
G1 X67.669 Y152.918 E32.54769
G1 X66.858 Y152.134 E32.58521
G1 X66.378 Y151.601 E32.60907
G1 X65.583 Y150.667 E32.64986
G1 X64.852 Y149.697 E32.69026
G1 X64.48 Y149.123 E32.71301
G1 X63.857 Y148.1 E32.75285
G1 X63.422 Y147.309 E32.78287
G1 X63.21 Y146.85 E32.79969
G1 X62.808 Y145.916 E32.83351
G1 X62.541 Y145.256 E32.85719
G1 X62.24 Y144.405 E32.88721
G1 X62.118 Y143.968 E32.9023
G1 X61.866 Y142.974 E32.93641
G1 X61.704 Y142.266 E32.96057
G1 X61.502 Y141.052 E33.0015
G1 X61.429 Y140.296 E33.02676
G1 X61.351 Y139.188 E33.0637
G1 X61.328 Y138.647 E33.08171
G1 X61.317 Y137.949 E33.10493
G1 X61.317 Y82.076 E34.96328
G1 X61.327 Y81.363 E34.98699
G1 X61.348 Y80.838 E35.00447
G1 X61.414 Y79.896 E35.03588
G1 X61.495 Y79.035 E35.06464
G1 X61.665 Y77.907 E35.10258
G1 X61.786 Y77.351 E35.12151
G1 X61.943 Y76.705 E35.14362
G1 X62.124 Y76.006 E35.16763
G1 X62.519 Y74.797 E35.20994
G1 X62.814 Y74.067 E35.23612
G1 X63.215 Y73.141 E35.26969
G1 X63.769 Y72.047 E35.31047
G1 X64.133 Y71.437 E35.3341
G1 X64.722 Y70.505 E35.37077
G1 X65.41 Y69.544 E35.41008
G1 X65.889 Y68.965 E35.43507
G1 X66.681 Y68.064 E35.47497
G1 X67.52 Y67.215 E35.51467
G1 F1500 E29.01467
G0 F6000 X126.444 Y126.829
G1 F1500 E35.51467
G1 F1200 X126.556 Y126.829 E35.5184
G1 X126.646 Y126.895 E35.52211
G1 X126.681 Y127 E35.52579
G1 X126.605 Y127.146 E35.53127
G1 X126.5 Y127.181 E35.53495
G1 X126.395 Y127.146 E35.53863
G1 X126.329 Y127.056 E35.54234
G1 X126.329 Y126.944 E35.54606
G1 X126.444 Y126.829 E35.55147
G0 F6000 X126.319 Y126.444
G1 F1200 X126.5 Y126.416 E35.55757
G1 X126.681 Y126.444 E35.56366
G1 X126.844 Y126.527 E35.56974
G1 X126.973 Y126.656 E35.57581
G1 X127.057 Y126.822 E35.582
G1 X127.086 Y127 E35.588
G1 X127.057 Y127.178 E35.59399
G1 X126.973 Y127.344 E35.60018
G1 X126.844 Y127.473 E35.60625
G1 X126.678 Y127.557 E35.61244
G1 X126.5 Y127.586 E35.61844
G1 X126.322 Y127.557 E35.62443
G1 X126.156 Y127.473 E35.63062
G1 X126.027 Y127.344 E35.63669
G1 X125.944 Y127.181 E35.64277
G1 X125.916 Y127 E35.64886
G1 X125.944 Y126.819 E35.65496
G1 X126.027 Y126.656 E35.66104
G1 X126.156 Y126.527 E35.66711
G1 X126.319 Y126.444 E35.67319
G0 F6000 X126.193 Y126.059
G1 F1200 X126.5 Y126.011 E35.68353
G1 X126.807 Y126.059 E35.69386
G1 X127.083 Y126.2 E35.70417
G1 X127.3 Y126.417 E35.71438
G1 X127.442 Y126.696 E35.72479
G1 X127.491 Y127 E35.73503
G1 X127.442 Y127.304 E35.74527
G1 X127.3 Y127.583 E35.75568
G1 X127.083 Y127.8 E35.76589
G1 X126.804 Y127.942 E35.7763
G1 X126.5 Y127.991 E35.78655
G1 X126.196 Y127.942 E35.79679
G1 X125.917 Y127.8 E35.8072
G1 X125.7 Y127.583 E35.81741
G1 X125.559 Y127.307 E35.82771
G1 X125.511 Y127 E35.83805
G1 X125.559 Y126.693 E35.84838
G1 X125.7 Y126.417 E35.85869
G1 X125.917 Y126.2 E35.8689
G1 X126.193 Y126.059 E35.87921
G1 F1500 E29.37921
G0 F6000 X94.489 Y127
G1 F1500 E35.87921
G1 F1200 X94.441 Y127.307 E35.88954
G1 X94.3 Y127.583 E35.89985
G1 X94.083 Y127.8 E35.91006
G1 X93.804 Y127.942 E35.92047
G1 X93.5 Y127.991 E35.93071
G1 X93.196 Y127.942 E35.94095
G1 X92.917 Y127.8 E35.95137
G1 X92.7 Y127.583 E35.96157
G1 X92.558 Y127.304 E35.97199
G1 X92.509 Y127 E35.98223
G1 X92.558 Y126.696 E35.99247
G1 X92.7 Y126.417 E36.00288
G1 X92.917 Y126.2 E36.01309
G1 X93.193 Y126.059 E36.0234
G1 X93.5 Y126.011 E36.03373
G1 X93.807 Y126.059 E36.04407
G1 X94.083 Y126.2 E36.05437
G1 X94.3 Y126.417 E36.06458
G1 X94.441 Y126.693 E36.07489
G1 X94.489 Y127 E36.08523
G0 F6000 X94.084 Y127
G1 F1200 X94.056 Y127.181 E36.09132
G1 X93.973 Y127.344 E36.0974
G1 X93.844 Y127.473 E36.10347
