;FLAVOR:Marlin
;TIME:9682
;Filament used: 8.28582m
;Layer height: 0.2
;MINX:66.228
;MINY:66.653
;MINZ:0.2
;MAXX:153.772
;MAXY:153.347
;MAXZ:11
;Generated with Cura_SteamEngine 5.2.2
M82 ;absolute extrusion mode
; Ender 3 Custom Start G-code
G92 E0 ; Reset Extruder
G28 ; Home all axes
M104 S175 ; Start heating up the nozzle most of the way
M190 S60 ; Start heating the bed, wait until target temperature reached
M109 S200 ; Finish heating the nozzle
G1 Z2.0 F3000 ; Move Z Axis up little to prevent scratching of Heat Bed
G1 X0.1 Y20 Z0.3 F5000.0 ; Move to start position
G1 X0.1 Y200.0 Z0.3 F1500.0 E15 ; Draw the first line
G1 X0.4 Y200.0 Z0.3 F5000.0 ; Move to side a little
G1 X0.4 Y20 Z0.3 F1500.0 E30 ; Draw the second line
G92 E0 ; Reset Extruder
G1 Z2.0 F3000 ; Move Z Axis up little to prevent scratching of Heat Bed
G1 X5 Y20 Z0.3 F5000.0 ; Move over to prevent blob squish
G92 E0
G92 E0
G1 F1500 E-6.5
;LAYER_COUNT:55
;LAYER:0
M107
G0 F6000 X70.801 Y70.811 Z0.2
;TYPE:SKIRT
G1 F1500 E0
G1 F1200 X71.264 Y70.396 E0.02068
G1 X71.656 Y70.064 E0.03777
G1 X72.397 Y69.489 E0.06896
G1 X72.878 Y69.166 E0.08823
G1 X73.473 Y68.789 E0.11166
G1 X74.285 Y68.321 E0.14283
G1 X75.148 Y67.919 E0.1745
G1 X75.616 Y67.725 E0.19135
G1 X76.497 Y67.404 E0.22253
G1 X77.094 Y67.232 E0.2432
G1 X77.78 Y67.056 E0.26675
G1 X78.698 Y66.862 E0.29796
G1 X79.34 Y66.774 E0.31951
G1 X80.018 Y66.711 E0.34216
G1 X80.441 Y66.684 E0.35626
G1 X80.956 Y66.664 E0.3734
G1 X81.674 Y66.653 E0.39728
G1 X138.392 Y66.655 E2.28373
G1 X139.276 Y66.673 E2.31314
G1 X140.036 Y66.715 E2.33846
G1 X140.526 Y66.759 E2.35482
G1 X141.455 Y66.883 E2.38599
G1 X142.283 Y67.062 E2.41417
G1 X142.73 Y67.177 E2.42952
G1 X143.952 Y67.568 E2.47219
G1 X144.602 Y67.819 E2.49537
G1 X145.461 Y68.194 E2.52654
G1 X146.05 Y68.504 E2.54868
G1 X146.678 Y68.873 E2.57291
G1 X146.94 Y69.038 E2.5832
G1 X148.003 Y69.799 E2.62669
G1 X148.551 Y70.243 E2.65014
G1 X149.254 Y70.864 E2.68134
G1 X149.81 Y71.437 E2.7079
G1 X150.213 Y71.895 E2.72819
G1 X150.503 Y72.243 E2.74325
G1 X151.073 Y72.988 E2.77445
G1 X151.479 Y73.615 E2.7993
G1 X151.713 Y74.004 E2.8144
G1 X152.333 Y75.194 E2.85903
G1 X152.638 Y75.878 E2.88394
G1 X152.984 Y76.75 E2.91514
G1 X153.317 Y77.915 E2.95544
G1 X153.453 Y78.512 E2.9758
G1 X153.622 Y79.434 E3.00698
G1 X153.705 Y80.246 E3.03413
G1 X153.741 Y80.803 E3.05269
G1 X153.763 Y81.344 E3.0707
G1 X153.772 Y81.932 E3.09026
G1 X153.772 Y137.949 E4.95339
G1 X153.762 Y138.654 E4.97684
G1 X153.735 Y139.309 E4.99865
G1 X153.701 Y139.773 E5.01412
G1 X153.659 Y140.211 E5.02876
G1 X153.53 Y141.14 E5.05995
G1 X153.348 Y141.958 E5.08782
G1 X153.195 Y142.54 E5.10784
G1 X152.918 Y143.436 E5.13903
G1 X152.643 Y144.131 E5.16389
G1 X152.469 Y144.531 E5.1784
G1 X151.851 Y145.741 E5.22359
G1 X151.491 Y146.35 E5.24712
G1 X150.98 Y147.136 E5.2783
G1 X150.545 Y147.706 E5.30215
G1 X150.118 Y148.214 E5.32422
G1 X149.859 Y148.506 E5.3372
G1 X149.208 Y149.181 E5.36839
G1 X148.745 Y149.596 E5.38907
G1 X148.35 Y149.931 E5.4063
G1 X147.609 Y150.507 E5.43752
G1 X147.122 Y150.834 E5.45703
G1 X146.527 Y151.211 E5.48045
G1 X145.715 Y151.679 E5.51163
G1 X144.852 Y152.081 E5.54329
G1 X144.384 Y152.275 E5.56014
G1 X143.503 Y152.596 E5.59133
G1 X142.906 Y152.768 E5.61199
G1 X142.22 Y152.944 E5.63555
G1 X141.302 Y153.138 E5.66675
G1 X140.66 Y153.226 E5.68831
G1 X139.982 Y153.289 E5.71095
G1 X139.559 Y153.316 E5.72505
G1 X139.044 Y153.336 E5.74219
G1 X138.326 Y153.347 E5.76608
G1 X81.608 Y153.345 E7.65253
G1 X80.723 Y153.327 E7.68197
G1 X79.951 Y153.284 E7.70768
G1 X79.522 Y153.245 E7.72201
G1 X78.288 Y153.061 E7.76351
G1 X77.595 Y152.906 E7.78713
G1 X77.286 Y152.827 E7.79773
G1 X76.048 Y152.432 E7.84096
G1 X75.398 Y152.181 E7.86413
G1 X74.539 Y151.806 E7.89531
G1 X73.95 Y151.496 E7.91744
G1 X73.322 Y151.127 E7.94167
G1 X73.06 Y150.962 E7.95197
G1 X71.99 Y150.195 E7.99575
G1 X71.438 Y149.747 E8.0194
G1 X70.736 Y149.126 E8.05057
G1 X70.302 Y148.683 E8.0712
G1 X69.779 Y148.096 E8.09735
G1 X69.495 Y147.755 E8.11211
G1 X68.926 Y147.009 E8.14331
G1 X68.521 Y146.385 E8.16806
G1 X68.287 Y145.996 E8.18316
G1 X67.664 Y144.799 E8.22804
G1 X67.36 Y144.116 E8.2529
G1 X67.015 Y143.244 E8.28409
G1 X66.689 Y142.111 E8.32331
G1 X66.552 Y141.516 E8.34361
G1 X66.381 Y140.594 E8.3748
G1 X66.295 Y139.754 E8.40289
G1 X66.259 Y139.194 E8.42155
G1 X66.237 Y138.656 E8.43946
G1 X66.228 Y138.068 E8.45902
G1 X66.228 Y82.051 E10.32215
G1 X66.238 Y81.345 E10.34564
G1 X66.265 Y80.689 E10.36747
G1 X66.341 Y79.789 E10.39751
G1 X66.47 Y78.86 E10.42871
G1 X66.652 Y78.042 E10.45658
G1 X66.805 Y77.46 E10.4766
G1 X67.082 Y76.564 E10.50779
G1 X67.357 Y75.869 E10.53265
G1 X67.531 Y75.469 E10.54716
G1 X68.152 Y74.255 E10.59251
G1 X68.513 Y73.645 E10.61609
G1 X69.024 Y72.859 E10.64727
G1 X69.451 Y72.299 E10.67069
G1 X69.886 Y71.78 E10.69321
G1 X70.148 Y71.485 E10.70634
G1 X70.801 Y70.811 E10.73755
G0 F6000 X71.088 Y71.09
G1 F1200 X71.522 Y70.701 E10.75693
G1 X71.914 Y70.369 E10.77402
G1 X72.642 Y69.805 E10.80465
G1 X73.092 Y69.504 E10.82266
G1 X73.687 Y69.127 E10.84608
G1 X74.485 Y68.669 E10.87669
G1 X75.301 Y68.289 E10.90662
G1 X75.769 Y68.095 E10.92347
G1 X76.634 Y67.78 E10.95409
G1 X77.194 Y67.62 E10.97346
G1 X77.88 Y67.444 E10.99702
G1 X78.781 Y67.254 E11.02765
G1 X79.383 Y67.172 E11.04785
G1 X80.044 Y67.111 E11.06993
G1 X80.467 Y67.084 E11.08403
G1 X80.963 Y67.064 E11.10054
G1 X81.674 Y67.053 E11.12419
G1 X138.384 Y67.055 E13.01037
G1 X139.268 Y67.073 E13.03978
G1 X140 Y67.113 E13.06416
G1 X140.49 Y67.157 E13.08053
G1 X141.403 Y67.28 E13.11117
G1 X142.183 Y67.449 E13.13771
G1 X142.63 Y67.564 E13.15306
G1 X143.807 Y67.942 E13.19418
G1 X144.457 Y68.193 E13.21736
G1 X145.301 Y68.561 E13.24798
G1 X145.853 Y68.852 E13.26873
G1 X146.465 Y69.212 E13.29235
G1 X146.727 Y69.377 E13.30265
G1 X147.751 Y70.11 E13.34453
G1 X148.299 Y70.554 E13.36799
G1 X148.988 Y71.164 E13.3986
G1 X149.517 Y71.71 E13.42388
G1 X149.906 Y72.151 E13.44344
G1 X150.196 Y72.499 E13.45851
G1 X150.754 Y73.231 E13.48912
G1 X151.136 Y73.821 E13.5125
G1 X151.37 Y74.21 E13.5276
G1 X151.968 Y75.357 E13.57062
G1 X152.273 Y76.041 E13.59553
G1 X152.611 Y76.897 E13.62614
G1 X152.927 Y78.004 E13.66443
G1 X153.063 Y78.601 E13.68479
G1 X153.229 Y79.506 E13.7154
G1 X153.306 Y80.271 E13.74097
G1 X153.342 Y80.828 E13.75953
G1 X153.363 Y81.35 E13.77691
G1 X153.372 Y81.938 E13.79647
G1 X153.372 Y137.943 E15.6592
G1 X153.362 Y138.648 E15.68265
G1 X153.336 Y139.288 E15.70396
G1 X153.261 Y140.173 E15.7335
G1 X153.133 Y141.085 E15.76413
G1 X152.961 Y141.856 E15.7904
G1 X152.808 Y142.438 E15.81042
G1 X152.535 Y143.317 E15.84103
G1 X152.276 Y143.971 E15.86443
G1 X152.102 Y144.371 E15.87894
G1 X151.507 Y145.537 E15.92247
G1 X151.147 Y146.146 E15.946
G1 X150.644 Y146.917 E15.97662
G1 X150.235 Y147.453 E15.99905
G1 X149.819 Y147.949 E16.02058
G1 X149.56 Y148.241 E16.03356
G1 X148.92 Y148.902 E16.06416
G1 X148.486 Y149.291 E16.08355
G1 X148.091 Y149.626 E16.10077
G1 X147.364 Y150.191 E16.1314
G1 X146.908 Y150.496 E16.14964
G1 X146.313 Y150.873 E16.17307
G1 X145.515 Y151.331 E16.20367
G1 X144.699 Y151.711 E16.23361
G1 X144.231 Y151.905 E16.25046
G1 X143.366 Y152.22 E16.28108
G1 X142.806 Y152.38 E16.30045
G1 X142.12 Y152.556 E16.32401
G1 X141.219 Y152.746 E16.35463
G1 X140.617 Y152.828 E16.37484
G1 X139.956 Y152.889 E16.39692
G1 X139.533 Y152.916 E16.41102
G1 X139.037 Y152.936 E16.42753
G1 X138.326 Y152.947 E16.45118
G1 X81.616 Y152.945 E18.33736
G1 X80.731 Y152.927 E18.3668
G1 X79.987 Y152.885 E18.39159
G1 X79.558 Y152.846 E18.40591
G1 X78.369 Y152.67 E18.44589
G1 X77.694 Y152.519 E18.4689
G1 X77.385 Y152.44 E18.47951
G1 X76.193 Y152.058 E18.52114
G1 X75.543 Y151.807 E18.54431
G1 X74.699 Y151.439 E18.57494
G1 X74.147 Y151.148 E18.59569
G1 X73.535 Y150.788 E18.61931
G1 X73.273 Y150.623 E18.6296
G1 X72.242 Y149.884 E18.6718
G1 X71.69 Y149.436 E18.69544
G1 X71.001 Y148.826 E18.72605
G1 X70.595 Y148.411 E18.74536
G1 X70.086 Y147.84 E18.7708
G1 X69.802 Y147.499 E18.78556
G1 X69.244 Y146.766 E18.8162
G1 X68.864 Y146.179 E18.83946
G1 X68.63 Y145.79 E18.85456
G1 X68.029 Y144.636 E18.89783
G1 X67.725 Y143.953 E18.9227
G1 X67.387 Y143.097 E18.95331
G1 X67.079 Y142.021 E18.99053
G1 X66.942 Y141.426 E19.01084
G1 X66.775 Y140.521 E19.04145
G1 X66.694 Y139.728 E19.06796
G1 X66.658 Y139.168 E19.08662
G1 X66.637 Y138.65 E19.10387
G1 X66.628 Y138.062 E19.12343
G1 X66.628 Y82.057 E20.98616
G1 X66.638 Y81.351 E21.00964
G1 X66.664 Y80.71 E21.03098
G1 X66.739 Y79.827 E21.06046
G1 X66.867 Y78.915 E21.09109
G1 X67.039 Y78.144 E21.11736
G1 X67.192 Y77.562 E21.13738
G1 X67.465 Y76.683 E21.16799
G1 X67.724 Y76.029 E21.19138
G1 X67.898 Y75.629 E21.20589
G1 X68.496 Y74.458 E21.24962
G1 X68.857 Y73.848 E21.2732
G1 X69.36 Y73.077 E21.30382
G1 X69.762 Y72.551 E21.32584
G1 X70.185 Y72.046 E21.34775
G1 X70.447 Y71.751 E21.36087
G1 X71.088 Y71.09 E21.3915
G0 F6000 X71.376 Y71.369
G1 F1200 X71.781 Y71.006 E21.40958
G1 X72.173 Y70.674 E21.42667
G1 X72.887 Y70.122 E21.45669
G1 X73.306 Y69.842 E21.47345
G1 X73.901 Y69.465 E21.49688
G1 X74.684 Y69.016 E21.5269
G1 X75.454 Y68.658 E21.55514
G1 X75.922 Y68.464 E21.57199
G1 X76.771 Y68.156 E21.60203
G1 X77.293 Y68.007 E21.62008
G1 X77.979 Y67.831 E21.64364
G1 X78.863 Y67.645 E21.67369
G1 X79.426 Y67.569 E21.69258
G1 X80.069 Y67.51 E21.71406
G1 X80.969 Y67.463 E21.74403
G1 X81.501 Y67.454 E21.76173
G1 X138.376 Y67.455 E23.6534
G1 X139.26 Y67.473 E23.68281
G1 X139.964 Y67.512 E23.70626
G1 X140.454 Y67.556 E23.72262
G1 X141.349 Y67.676 E23.75265
G1 X142.083 Y67.837 E23.77765
G1 X142.53 Y67.952 E23.793
G1 X143.663 Y68.315 E23.83257
G1 X144.313 Y68.566 E23.85575
G1 X145.141 Y68.928 E23.8858
G1 X145.656 Y69.2 E23.90517
G1 X146.252 Y69.55 E23.92816
G1 X146.514 Y69.715 E23.93846
G1 X147.499 Y70.421 E23.97877
G1 X148.047 Y70.865 E24.00222
G1 X148.723 Y71.464 E24.03227
G1 X149.225 Y71.983 E24.05628
G1 X149.599 Y72.407 E24.07509
G1 X149.889 Y72.755 E24.09015
G1 X150.436 Y73.474 E24.1202
G1 X150.793 Y74.027 E24.14209
G1 X151.027 Y74.416 E24.15719
G1 X151.603 Y75.52 E24.19861
G1 X151.908 Y76.204 E24.22352
G1 X152.239 Y77.044 E24.25355
G1 X152.537 Y78.092 E24.28979
G1 X152.673 Y78.689 E24.31015
G1 X152.835 Y79.578 E24.34021
G1 X152.907 Y80.297 E24.36424
G1 X152.943 Y80.854 E24.3828
G1 X152.963 Y81.356 E24.39951
G1 X152.972 Y81.944 E24.41907
G1 X152.972 Y137.938 E26.28144
G1 X152.962 Y138.643 E26.30489
G1 X152.937 Y139.266 E26.32563
G1 X152.862 Y140.135 E26.35464
G1 X152.737 Y141.029 E26.38466
G1 X152.574 Y141.754 E26.40938
G1 X152.421 Y142.336 E26.42939
G1 X152.153 Y143.199 E26.45945
G1 X151.909 Y143.812 E26.48139
G1 X151.735 Y144.212 E26.4959
G1 X151.163 Y145.333 E26.53776
G1 X150.803 Y145.942 E26.56129
G1 X150.309 Y146.699 E26.59135
G1 X149.925 Y147.2 E26.61235
G1 X149.52 Y147.683 E26.63331
G1 X149.261 Y147.975 E26.6463
G1 X148.632 Y148.624 E26.67636
G1 X148.227 Y148.986 E26.69442
G1 X147.832 Y149.321 E26.71165
G1 X147.118 Y149.874 E26.74169
G1 X146.694 Y150.158 E26.75866
G1 X146.099 Y150.535 E26.78209
G1 X145.316 Y150.984 E26.81211
G1 X144.546 Y151.342 E26.84035
G1 X144.078 Y151.536 E26.8572
G1 X143.229 Y151.844 E26.88724
G1 X142.707 Y151.993 E26.9053
G1 X142.021 Y152.169 E26.92885
G1 X141.137 Y152.355 E26.9589
G1 X140.574 Y152.431 E26.97779
G1 X139.931 Y152.49 E26.99927
G1 X139.031 Y152.537 E27.02924
G1 X138.499 Y152.546 E27.04694
G1 X81.625 Y152.545 E28.93858
G1 X80.74 Y152.527 E28.96802
G1 X80.024 Y152.487 E28.99187
G1 X79.595 Y152.448 E29.0062
G1 X78.45 Y152.278 E29.0447
G1 X77.793 Y152.131 E29.06709
G1 X77.484 Y152.052 E29.0777
G1 X76.337 Y151.685 E29.11775
G1 X75.687 Y151.434 E29.14093
G1 X74.859 Y151.072 E29.17098
G1 X74.344 Y150.8 E29.19036
G1 X73.748 Y150.45 E29.21334
G1 X73.486 Y150.285 E29.22364
G1 X72.494 Y149.574 E29.26424
G1 X71.942 Y149.126 E29.28788
G1 X71.267 Y148.526 E29.31792
G1 X70.888 Y148.139 E29.33593
G1 X70.393 Y147.584 E29.36067
G1 X70.109 Y147.243 E29.37543
G1 X69.563 Y146.524 E29.40546
G1 X69.207 Y145.973 E29.42728
G1 X68.973 Y145.584 E29.44237
G1 X68.394 Y144.474 E29.48401
G1 X68.09 Y143.791 E29.50888
G1 X67.76 Y142.95 E29.53893
G1 X67.469 Y141.932 E29.57414
G1 X67.332 Y141.337 E29.59445
G1 X67.169 Y140.449 E29.62448
G1 X67.093 Y139.702 E29.64945
G1 X67.057 Y139.142 E29.66812
G1 X67.037 Y138.644 E29.68469
G1 X67.028 Y138.056 E29.70425
G1 X67.028 Y82.063 E31.56659
G1 X67.038 Y81.357 E31.59007
G1 X67.064 Y80.731 E31.61091
G1 X67.138 Y79.865 E31.63982
G1 X67.263 Y78.971 E31.66984
G1 X67.426 Y78.246 E31.69456
G1 X67.579 Y77.664 E31.71457
G1 X67.847 Y76.801 E31.74463
G1 X68.091 Y76.188 E31.76657
G1 X68.265 Y75.788 E31.78108
G1 X68.84 Y74.662 E31.82313
G1 X69.201 Y74.052 E31.84671
G1 X69.695 Y73.296 E31.87674
G1 X70.072 Y72.804 E31.89736
G1 X70.485 Y72.312 E31.91873
G1 X70.747 Y72.017 E31.93185
G1 X71.376 Y71.369 E31.96188
G1 F1500 E25.46188
;MESH:sns.stl
G0 F6000 X92.182 Y123.019
G0 X94.305 Y129.683
G1 F1500 E31.96188
G0 F6000 X94.5 Y129.608
;TYPE:WALL-INNER
G1 F1200 X93.376 Y129.431 E31.99973
G1 X92.387 Y128.926 E32.03666
G1 X91.588 Y128.132 E32.07413
G1 X91.07 Y127.126 E32.11176
G1 X90.904 Y126.094 E32.14653
G1 X90.897 Y125.968 E32.15073
G1 X91.069 Y124.876 E32.1875
G1 X91.574 Y123.887 E32.22443
G1 X92.376 Y123.08 E32.26227
G1 X93.399 Y122.563 E32.30039
G1 X94.503 Y122.392 E32.33755
G1 X95.622 Y122.568 E32.37523
G1 X96.62 Y123.081 E32.41255
G1 X97.408 Y123.865 E32.44952
G1 X97.934 Y124.884 E32.48766
G1 X98.107 Y126 E32.52522
G1 X97.937 Y127.101 E32.56228
G1 X97.421 Y128.123 E32.60036
G1 X96.633 Y128.911 E32.63742
G1 X95.614 Y129.432 E32.67549
G1 X94.5 Y129.608 E32.713
G0 F6000 X94.511 Y129.203
;TYPE:WALL-OUTER
G1 F1200 X93.52 Y129.051 E32.74634
G1 X92.625 Y128.597 E32.77972
G1 X91.902 Y127.874 E32.81373
G1 X91.449 Y126.98 E32.84706
G1 X91.299 Y126.032 E32.87899
G1 X91.297 Y125.989 E32.88042
G1 X91.449 Y125.02 E32.91304
G1 X91.903 Y124.125 E32.94642
G1 X92.617 Y123.406 E32.98012
G1 X93.509 Y122.95 E33.01344
G1 X94.488 Y122.798 E33.04639
G1 X95.501 Y122.956 E33.08049
G1 X96.391 Y123.414 E33.11378
G1 X97.085 Y124.109 E33.14645
G1 X97.544 Y124.999 E33.17976
G1 X97.705 Y126 E33.21348
G1 X97.55 Y126.991 E33.24684
G1 X97.092 Y127.882 E33.28016
G1 X96.375 Y128.597 E33.31384
G1 X95.48 Y129.051 E33.34722
G1 X94.511 Y129.203 E33.37984
G1 F1500 E26.87984
G0 F6000 X94.696 Y129.682
G0 X93.451 Y129.629
G0 X85.847 Y141.546
G0 X80.612 Y141.705
;TYPE:WALL-INNER
G1 F1500 E33.37984
G1 F1200 X81.15 Y141.747 E33.39779
G1 X138.85 Y141.747 E35.3169
G1 X139.388 Y141.705 E35.33485
G1 X139.882 Y141.587 E35.35174
G1 X140.376 Y141.389 E35.36944
G1 X140.815 Y141.123 E35.38651
G1 X141.209 Y140.791 E35.40365
G1 X141.544 Y140.403 E35.4207
G1 X141.813 Y139.969 E35.43768
G1 X142.012 Y139.487 E35.45503
G1 X142.13 Y139.004 E35.47156
G1 X142.173 Y138.475 E35.48922
G1 X142.173 Y81.525 E37.38338
G1 X142.13 Y80.992 E37.40117
G1 X142.013 Y80.513 E37.41757
G1 X141.811 Y80.028 E37.43504
G1 X141.543 Y79.595 E37.45198
G1 X141.207 Y79.207 E37.46905
G1 X140.815 Y78.877 E37.48609
G1 X140.373 Y78.609 E37.50328
G1 X139.882 Y78.413 E37.52087
G1 X139.388 Y78.295 E37.53776
G1 X138.85 Y78.253 E37.55571
G1 X81.15 Y78.253 E39.47482
G1 X80.612 Y78.295 E39.49277
G1 X80.118 Y78.413 E39.50966
G1 X79.624 Y78.611 E39.52736
G1 X79.185 Y78.877 E39.54443
G1 X78.791 Y79.209 E39.56157
G1 X78.456 Y79.597 E39.57862
G1 X78.187 Y80.031 E39.5956
G1 X77.988 Y80.512 E39.61292
G1 X77.87 Y80.996 E39.62949
G1 X77.827 Y81.525 E39.64714
G1 X77.828 Y138.475 E41.5413
G1 X77.87 Y139.004 E41.55895
G1 X77.988 Y139.488 E41.57552
G1 X78.187 Y139.969 E41.59284
G1 X78.456 Y140.403 E41.60982
G1 X78.791 Y140.791 E41.62687
G1 X79.185 Y141.123 E41.644
G1 X79.624 Y141.389 E41.66108
G1 X80.118 Y141.587 E41.67878
G1 X80.612 Y141.705 E41.69567
G0 F6000 X80.55 Y142.101
;TYPE:WALL-OUTER
G1 F1200 X81.134 Y142.147 E41.71515
G1 X138.866 Y142.147 E43.63533
G1 X139.45 Y142.101 E43.65481
G1 X140.004 Y141.969 E43.67376
G1 X140.556 Y141.748 E43.69353
G1 X141.049 Y141.449 E43.71271
G1 X141.491 Y141.077 E43.73192
G1 X141.868 Y140.641 E43.75109
G1 X142.17 Y140.152 E43.77021
G1 X142.394 Y139.612 E43.78965
G1 X142.526 Y139.068 E43.80827
G1 X142.573 Y138.491 E43.82753
