;FLAVOR:Marlin
;TIME:9355
;Filament used: 8.02376m
;Layer height: 0.2
;MINX:66.653
;MINY:66.653
;MINZ:0.2
;MAXX:153.345
;MAXY:153.347
;MAXZ:9
;POSTPROCESSED
;Generated with Cura_SteamEngine 5.2.2
M82 ;absolute extrusion mode
; Ender 3 Custom Start G-code
G92 E0 ; Reset Extruder
G28 ; Home all axes
M104 S175 ; Start heating up the nozzle most of the way
M190 S60 ; Start heating the bed, wait until target temperature reached
M109 S215 ; Finish heating the nozzle
G1 Z2.0 F3000 ; Move Z Axis up little to prevent scratching of Heat Bed
G1 X0.1 Y20 Z0.3 F5000.0 ; Move to start position
G1 X0.1 Y200.0 Z0.3 F1500.0 E15 ; Draw the first line
G1 X0.4 Y200.0 Z0.3 F5000.0 ; Move to side a little
G1 X0.4 Y20 Z0.3 F1500.0 E30 ; Draw the second line
G92 E0 ; Reset Extruder
G1 Z2.0 F3000 ; Move Z Axis up little to prevent scratching of Heat Bed
G1 X5 Y20 Z0.3 F5000.0 ; Move over to prevent blob squish
G92 E0
G92 E0
G1 F1500 E-6.5
;LAYER_COUNT:45
;LAYER:0
M107
G0 F6000 X71.173 Y70.848 Z0.2
;TYPE:SKIRT
G1 F1500 E0
G1 F1200 X71.658 Y70.409 E0.02176
G1 X72.106 Y70.027 E0.04134
G1 X72.845 Y69.449 E0.07254
G1 X73.254 Y69.17 E0.08901
G1 X73.78 Y68.839 E0.10968
G1 X74.169 Y68.607 E0.12475
G1 X74.994 Y68.161 E0.15594
G1 X75.724 Y67.838 E0.18249
G1 X76.28 Y67.616 E0.2024
G1 X77.165 Y67.306 E0.23359
G1 X77.935 Y67.102 E0.26008
G1 X78.475 Y66.98 E0.2785
G1 X79.725 Y66.773 E0.32064
G1 X80.402 Y66.71 E0.34325
G1 X80.793 Y66.685 E0.35628
G1 X81.286 Y66.665 E0.3727
G1 X82.021 Y66.653 E0.39714
G1 X138.014 Y66.655 E2.25948
G1 X138.909 Y66.673 E2.28925
G1 X139.711 Y66.719 E2.31597
G1 X140.107 Y66.756 E2.3292
G1 X141.221 Y66.918 E2.36664
G1 X142.032 Y67.096 E2.39426
G1 X142.478 Y67.211 E2.40958
G1 X143.376 Y67.484 E2.44079
G1 X144.076 Y67.757 E2.46578
G1 X144.646 Y68.002 E2.48642
G1 X145.491 Y68.409 E2.51761
G1 X146.21 Y68.829 E2.54531
G1 X146.667 Y69.12 E2.56333
G1 X147.436 Y69.657 E2.59453
G1 X147.912 Y70.042 E2.61489
G1 X148.377 Y70.44 E2.63525
G1 X149.063 Y71.08 E2.66645
G1 X149.613 Y71.682 E2.69357
G1 X150.026 Y72.169 E2.71481
G1 X150.602 Y72.91 E2.74602
G1 X151.097 Y73.67 E2.77619
G1 X151.405 Y74.189 E2.79626
G1 X151.848 Y75.015 E2.82744
G1 X152.151 Y75.7 E2.85235
G1 X152.356 Y76.21 E2.87063
G1 X152.669 Y77.095 E2.90185
G1 X152.846 Y77.745 E2.92426
G1 X152.986 Y78.328 E2.9442
G1 X153.166 Y79.248 E2.97538
G1 X153.251 Y79.947 E2.9988
G1 X153.294 Y80.475 E3.01642
G1 X153.325 Y81.016 E3.03445
G1 X153.343 Y81.644 E3.05534
G1 X153.345 Y138.014 E4.93021
G1 X153.327 Y138.909 E4.95999
G1 X153.281 Y139.711 E4.98671
G1 X153.244 Y140.107 E4.99994
G1 X153.082 Y141.221 E5.03738
G1 X152.906 Y142.023 E5.06469
G1 X152.803 Y142.424 E5.07846
G1 X152.531 Y143.321 E5.10963
G1 X152.307 Y143.907 E5.1305
G1 X152.076 Y144.463 E5.15052
G1 X151.462 Y145.712 E5.19681
G1 X151.097 Y146.325 E5.22054
G1 X150.854 Y146.707 E5.2356
G1 X150.318 Y147.476 E5.26678
G1 X149.816 Y148.086 E5.29305
G1 X149.414 Y148.541 E5.31325
G1 X148.764 Y149.217 E5.34444
G1 X148.213 Y149.708 E5.36899
G1 X147.799 Y150.053 E5.38691
G1 X146.746 Y150.83 E5.43044
G1 X146.22 Y151.161 E5.45111
G1 X145.831 Y151.393 E5.46617
G1 X145.006 Y151.839 E5.49736
G1 X144.276 Y152.162 E5.52391
G1 X143.72 Y152.384 E5.54383
G1 X142.835 Y152.694 E5.57501
G1 X142.065 Y152.898 E5.60151
G1 X141.525 Y153.02 E5.61992
G1 X140.275 Y153.227 E5.66206
G1 X139.598 Y153.29 E5.68468
G1 X139.207 Y153.315 E5.69771
G1 X138.714 Y153.335 E5.71412
G1 X137.978 Y153.347 E5.7386
G1 X82.052 Y153.347 E7.59871
G1 X81.347 Y153.337 E7.62216
G1 X80.723 Y153.312 E7.64293
G1 X80.252 Y153.278 E7.65864
G1 X79.809 Y153.236 E7.67344
G1 X78.88 Y153.108 E7.70463
G1 X78.136 Y152.946 E7.72995
G1 X77.558 Y152.799 E7.74979
G1 X76.659 Y152.529 E7.78101
G1 X75.917 Y152.24 E7.80749
G1 X75.346 Y151.994 E7.82817
G1 X74.501 Y151.587 E7.85937
G1 X73.792 Y151.172 E7.88669
G1 X73.297 Y150.857 E7.90621
G1 X72.528 Y150.32 E7.9374
G1 X71.947 Y149.844 E7.96238
G1 X71.522 Y149.471 E7.98119
G1 X70.844 Y148.823 E8.01239
G1 X70.401 Y148.334 E8.03433
G1 X70.018 Y147.884 E8.05399
G1 X69.441 Y147.144 E8.0852
G1 X69.167 Y146.741 E8.1014
G1 X68.828 Y146.202 E8.12258
G1 X68.597 Y145.813 E8.13763
G1 X68.153 Y144.987 E8.16882
G1 X67.847 Y144.296 E8.19396
G1 X67.641 Y143.783 E8.21234
G1 X67.329 Y142.899 E8.24352
G1 X67.149 Y142.235 E8.2664
G1 X67.01 Y141.652 E8.28634
G1 X66.773 Y140.275 E8.33281
G1 X66.71 Y139.598 E8.35542
G1 X66.685 Y139.207 E8.36846
G1 X66.665 Y138.714 E8.38487
G1 X66.653 Y137.979 E8.40932
G1 X66.655 Y81.986 E10.27165
G1 X66.673 Y81.091 E10.30142
G1 X66.719 Y80.289 E10.32814
G1 X66.756 Y79.893 E10.34137
G1 X66.918 Y78.779 E10.37881
G1 X67.1 Y77.952 E10.40698
G1 X67.217 Y77.501 E10.42247
G1 X67.491 Y76.604 E10.45367
G1 X67.762 Y75.913 E10.47836
G1 X67.982 Y75.402 E10.49686
G1 X68.541 Y74.283 E10.53846
G1 X68.888 Y73.698 E10.56109
G1 X69.118 Y73.334 E10.57541
G1 X69.652 Y72.563 E10.6066
G1 X70.147 Y71.957 E10.63263
G1 X70.525 Y71.526 E10.65169
G1 X71.173 Y70.848 E10.68289
G0 F6000 X71.462 Y71.125
G1 F1200 X71.917 Y70.713 E10.7033
G1 X72.365 Y70.331 E10.72288
G1 X73.472 Y69.506 E10.7688
G1 X73.984 Y69.182 E10.78896
G1 X74.373 Y68.95 E10.80402
G1 X75.184 Y68.513 E10.83466
G1 X75.872 Y68.21 E10.85967
G1 X76.428 Y67.988 E10.87958
G1 X77.297 Y67.684 E10.9102
G1 X78.023 Y67.493 E10.93517
G1 X78.563 Y67.371 E10.95358
G1 X79.768 Y67.171 E10.99421
G1 X80.428 Y67.11 E11.01625
G1 X81.294 Y67.065 E11.04509
G1 X82.021 Y67.053 E11.06928
G1 X138.006 Y67.055 E12.93135
G1 X138.901 Y67.073 E12.96112
G1 X139.674 Y67.117 E12.98687
G1 X140.07 Y67.154 E13.0001
G1 X141.143 Y67.31 E13.03616
G1 X141.933 Y67.484 E13.06307
G1 X142.379 Y67.599 E13.07839
G1 X143.259 Y67.867 E13.10898
G1 X143.918 Y68.124 E13.13251
G1 X144.488 Y68.369 E13.15315
G1 X145.317 Y68.769 E13.18376
G1 X145.995 Y69.167 E13.20991
G1 X146.452 Y69.458 E13.22793
G1 X147.207 Y69.986 E13.25857
G1 X147.652 Y70.346 E13.27761
G1 X148.117 Y70.744 E13.29797
G1 X148.789 Y71.372 E13.32856
G1 X149.308 Y71.941 E13.35417
G1 X149.721 Y72.428 E13.37541
G1 X150.286 Y73.155 E13.40603
G1 X150.753 Y73.874 E13.43455
G1 X151.061 Y74.393 E13.45462
G1 X151.496 Y75.205 E13.48526
G1 X151.78 Y75.85 E13.5087
G1 X151.985 Y76.36 E13.52698
G1 X152.291 Y77.228 E13.5576
G1 X152.457 Y77.838 E13.57862
G1 X152.597 Y78.421 E13.59856
G1 X152.831 Y79.781 E13.64446
G1 X152.895 Y80.498 E13.6684
G1 X152.926 Y81.039 E13.68643
G1 X152.943 Y81.644 E13.70656
G1 X152.945 Y138.006 E15.58117
G1 X152.927 Y138.901 E15.61094
G1 X152.883 Y139.674 E15.63669
G1 X152.846 Y140.07 E15.64992
G1 X152.69 Y141.143 E15.68598
G1 X152.519 Y141.923 E15.71254
G1 X152.416 Y142.324 E15.72631
G1 X152.148 Y143.205 E15.75694
G1 X151.938 Y143.754 E15.77649
G1 X151.707 Y144.31 E15.79652
G1 X151.115 Y145.513 E15.84111
G1 X150.76 Y146.11 E15.86421
G1 X150.517 Y146.492 E15.87927
G1 X149.989 Y147.247 E15.90991
G1 X149.517 Y147.821 E15.93463
G1 X149.115 Y148.276 E15.95482
G1 X148.476 Y148.939 E15.98545
G1 X147.957 Y149.401 E16.00856
G1 X147.543 Y149.746 E16.02648
G1 X146.528 Y150.494 E16.06842
G1 X146.016 Y150.818 E16.08857
G1 X145.627 Y151.05 E16.10364
G1 X144.816 Y151.487 E16.13428
G1 X144.128 Y151.79 E16.15928
G1 X143.572 Y152.012 E16.17919
G1 X142.703 Y152.316 E16.20981
G1 X141.977 Y152.507 E16.23478
G1 X141.437 Y152.629 E16.2532
G1 X140.232 Y152.829 E16.29382
G1 X139.572 Y152.89 E16.31587
G1 X138.706 Y152.935 E16.34471
G1 X137.978 Y152.947 E16.36893
G1 X82.058 Y152.947 E18.22883
G1 X81.353 Y152.937 E18.25228
G1 X80.743 Y152.913 E18.27259
G1 X79.847 Y152.838 E18.30249
G1 X78.935 Y152.711 E18.33312
G1 X78.234 Y152.558 E18.35698
G1 X77.656 Y152.411 E18.37682
G1 X76.775 Y152.146 E18.40742
G1 X76.075 Y151.873 E18.43241
G1 X75.504 Y151.627 E18.45309
G1 X74.675 Y151.226 E18.48372
G1 X74.007 Y150.835 E18.50946
G1 X73.512 Y150.52 E18.52898
G1 X72.758 Y149.992 E18.55959
G1 X72.211 Y149.544 E18.58311
G1 X71.786 Y149.171 E18.60192
G1 X71.121 Y148.534 E18.63254
G1 X70.706 Y148.074 E18.65315
G1 X70.323 Y147.624 E18.6728
G1 X69.503 Y146.523 E18.71846
G1 X69.172 Y145.998 E18.73911
G1 X68.941 Y145.609 E18.75415
G1 X68.506 Y144.798 E18.78476
G1 X68.218 Y144.147 E18.80844
G1 X68.012 Y143.634 E18.82683
G1 X67.707 Y142.766 E18.85743
G1 X67.538 Y142.142 E18.87893
G1 X67.399 Y141.559 E18.89886
G1 X67.171 Y140.232 E18.94365
G1 X67.11 Y139.572 E18.96569
G1 X67.065 Y138.706 E18.99453
G1 X67.053 Y137.979 E19.01872
G1 X67.055 Y81.994 E20.88078
G1 X67.073 Y81.099 E20.91056
G1 X67.117 Y80.326 E20.93631
G1 X67.154 Y79.93 E20.94954
G1 X67.31 Y78.857 E20.9856
G1 X67.488 Y78.052 E21.01302
G1 X67.605 Y77.601 E21.02852
G1 X67.874 Y76.721 E21.05913
G1 X68.129 Y76.071 E21.08235
G1 X68.349 Y75.56 E21.10085
G1 X68.888 Y74.482 E21.14094
G1 X69.226 Y73.912 E21.16298
G1 X69.456 Y73.548 E21.1773
G1 X69.981 Y72.792 E21.20791
G1 X70.448 Y72.221 E21.23245
G1 X70.826 Y71.79 E21.25152
G1 X71.462 Y71.125 E21.28212
G0 F6000 X71.751 Y71.401
G1 F1200 X72.177 Y71.017 E21.3012
G1 X72.625 Y70.635 E21.32078
G1 X73.689 Y69.841 E21.36494
G1 X74.189 Y69.526 E21.38459
G1 X74.578 Y69.294 E21.39965
G1 X75.374 Y68.866 E21.42971
G1 X76.021 Y68.581 E21.45323
G1 X76.577 Y68.359 E21.47314
G1 X77.429 Y68.062 E21.50315
G1 X78.111 Y67.883 E21.5266
G1 X78.651 Y67.761 E21.54502
G1 X79.811 Y67.568 E21.58413
G1 X80.453 Y67.509 E21.60557
G1 X81.301 Y67.465 E21.63381
G1 X82.021 Y67.453 E21.65776
G1 X137.998 Y67.455 E23.51957
G1 X138.893 Y67.473 E23.54934
G1 X139.637 Y67.515 E23.57413
G1 X140.033 Y67.552 E23.58735
G1 X141.065 Y67.702 E23.62204
G1 X141.833 Y67.871 E23.64819
G1 X142.279 Y67.986 E23.66351
G1 X143.142 Y68.25 E23.69353
G1 X143.76 Y68.492 E23.7156
G1 X144.33 Y68.737 E23.73624
G1 X145.143 Y69.13 E23.76627
G1 X145.781 Y69.504 E23.79087
G1 X146.238 Y69.795 E23.80889
G1 X146.977 Y70.314 E23.83893
G1 X147.392 Y70.65 E23.85669
G1 X147.857 Y71.048 E23.87704
G1 X148.516 Y71.665 E23.90707
G1 X149.003 Y72.2 E23.93113
G1 X149.416 Y72.687 E23.95237
G1 X149.969 Y73.401 E23.98241
G1 X150.409 Y74.078 E24.00926
G1 X150.717 Y74.597 E24.02933
G1 X151.143 Y75.394 E24.05939
G1 X151.409 Y75.999 E24.08137
G1 X151.614 Y76.509 E24.09966
G1 X151.913 Y77.361 E24.12969
G1 X152.068 Y77.931 E24.14933
G1 X152.208 Y78.514 E24.16928
G1 X152.433 Y79.823 E24.21345
G1 X152.495 Y80.52 E24.23673
G1 X152.526 Y81.061 E24.25475
G1 X152.543 Y81.644 E24.27415
G1 X152.545 Y137.998 E26.14849
G1 X152.527 Y138.893 E26.17826
G1 X152.485 Y139.637 E26.20305
G1 X152.448 Y140.033 E26.21628
G1 X152.298 Y141.065 E26.25096
G1 X152.131 Y141.824 E26.27681
G1 X152.028 Y142.225 E26.29058
G1 X151.765 Y143.088 E26.32059
G1 X151.568 Y143.6 E26.33883
G1 X151.337 Y144.156 E26.35886
G1 X150.768 Y145.314 E26.40177
G1 X150.422 Y145.896 E26.42429
G1 X150.179 Y146.278 E26.43935
G1 X149.661 Y147.017 E26.46937
G1 X149.217 Y147.557 E26.49262
G1 X148.815 Y148.012 E26.51281
G1 X148.188 Y148.661 E26.54283
G1 X147.701 Y149.094 E26.5645
G1 X147.287 Y149.439 E26.58242
G1 X146.311 Y150.159 E26.62276
G1 X145.811 Y150.474 E26.64242
G1 X145.422 Y150.706 E26.65748
G1 X144.626 Y151.134 E26.68754
G1 X143.979 Y151.419 E26.71106
G1 X143.423 Y151.641 E26.73097
G1 X142.571 Y151.938 E26.76098
G1 X141.889 Y152.117 E26.78443
G1 X141.349 Y152.239 E26.80284
G1 X140.189 Y152.432 E26.84196
G1 X139.547 Y152.491 E26.8634
G1 X138.699 Y152.535 E26.89164
G1 X137.978 Y152.547 E26.91563
G1 X82.063 Y152.547 E28.77537
G1 X81.358 Y152.537 E28.79882
G1 X80.764 Y152.513 E28.81859
G1 X79.884 Y152.439 E28.84796
G1 X78.99 Y152.315 E28.87798
G1 X78.333 Y152.17 E28.90036
G1 X77.755 Y152.023 E28.9202
G1 X76.89 Y151.762 E28.95025
G1 X76.233 Y151.506 E28.9737
G1 X75.662 Y151.26 E28.99438
G1 X74.849 Y150.866 E29.02443
G1 X74.222 Y150.497 E29.04862
G1 X73.727 Y150.182 E29.06814
G1 X72.987 Y149.664 E29.09818
G1 X72.475 Y149.243 E29.12023
G1 X72.05 Y148.87 E29.13904
G1 X71.398 Y148.245 E29.16908
G1 X71.01 Y147.815 E29.18834
G1 X70.627 Y147.365 E29.20799
G1 X69.838 Y146.306 E29.25192
G1 X69.516 Y145.794 E29.27203
G1 X69.285 Y145.405 E29.28708
G1 X68.859 Y144.609 E29.31711
G1 X68.59 Y143.998 E29.33931
G1 X68.384 Y143.485 E29.3577
G1 X68.085 Y142.633 E29.38773
G1 X67.927 Y142.05 E29.40782
G1 X67.788 Y141.467 E29.42776
G1 X67.568 Y140.189 E29.47089
G1 X67.509 Y139.547 E29.49233
G1 X67.465 Y138.699 E29.52057
G1 X67.453 Y137.979 E29.54453
G1 X67.455 Y82.002 E31.40633
G1 X67.473 Y81.107 E31.4361
G1 X67.515 Y80.363 E31.46089
G1 X67.552 Y79.967 E31.47411
G1 X67.702 Y78.935 E31.5088
G1 X67.875 Y78.153 E31.53544
G1 X67.992 Y77.702 E31.55094
G1 X68.257 Y76.838 E31.58099
G1 X68.496 Y76.23 E31.60272
G1 X68.716 Y75.719 E31.62123
G1 X69.235 Y74.681 E31.65982
G1 X69.564 Y74.125 E31.68131
G1 X69.794 Y73.761 E31.69563
G1 X70.31 Y73.02 E31.72567
G1 X70.748 Y72.484 E31.74869
G1 X71.126 Y72.053 E31.76776
G1 X71.751 Y71.401 E31.7978
G1 F1500 E25.2978
;MESH:Base-ElasticBeanstalk.stl
G0 F6000 X76.992 Y81.434
G0 X80.996 Y141.705
;TYPE:WALL-INNER
G1 F1500 E31.7978
G1 F1200 X81.525 Y141.747 E31.81545
G1 X138.475 Y141.747 E33.70961
G1 X139.005 Y141.705 E33.72729
G1 X139.49 Y141.589 E33.74388
G1 X139.975 Y141.391 E33.7613
G1 X140.408 Y141.125 E33.77821
G1 X140.796 Y140.794 E33.79517
G1 X141.126 Y140.406 E33.81211
G1 X141.392 Y139.972 E33.82904
G1 X141.588 Y139.49 E33.84635
G1 X141.705 Y139.005 E33.86294
G1 X141.747 Y138.475 E33.88062
G1 X141.747 Y81.525 E35.77479
G1 X141.705 Y80.992 E35.79257
G1 X141.589 Y80.51 E35.80906
G1 X141.391 Y80.025 E35.82648
G1 X141.125 Y79.592 E35.84339
G1 X140.794 Y79.204 E35.86035
G1 X140.408 Y78.876 E35.8772
G1 X139.971 Y78.608 E35.89425
G1 X139.49 Y78.411 E35.91153
G1 X139.005 Y78.295 E35.92812
G1 X138.475 Y78.253 E35.9458
G1 X81.525 Y78.253 E37.83997
G1 X80.995 Y78.295 E37.85765
G1 X80.51 Y78.411 E37.87424
G1 X80.025 Y78.609 E37.89166
G1 X79.592 Y78.875 E37.90856
G1 X79.204 Y79.206 E37.92553
G1 X78.874 Y79.594 E37.94247
G1 X78.608 Y80.028 E37.9594
G1 X78.411 Y80.51 E37.97672
G1 X78.295 Y80.995 E37.9933
G1 X78.253 Y81.525 E38.01099
G1 X78.253 Y138.475 E39.90515
G1 X78.295 Y139.005 E39.92283
G1 X78.411 Y139.49 E39.93942
G1 X78.608 Y139.972 E39.95674
G1 X78.874 Y140.406 E39.97367
G1 X79.204 Y140.794 E39.99061
G1 X79.592 Y141.125 E40.00757
G1 X80.025 Y141.391 E40.02447
G1 X80.51 Y141.588 E40.04189
G1 X80.996 Y141.705 E40.05851
G0 F6000 X80.933 Y142.101
;TYPE:WALL-OUTER
G1 F1200 X81.509 Y142.147 E40.07773
G1 X138.491 Y142.147 E41.97296
G1 X139.067 Y142.101 E41.99218
G1 X139.613 Y141.971 E42.01085
G1 X140.157 Y141.749 E42.03039
G1 X140.644 Y141.449 E42.04941
G1 X141.08 Y141.078 E42.06845
G1 X141.451 Y140.642 E42.08749
G1 X141.75 Y140.153 E42.10656
G1 X141.97 Y139.613 E42.12595
G1 X142.101 Y139.067 E42.14463
G1 X142.147 Y138.491 E42.16385
G1 X142.147 Y81.509 E44.05908
G1 X142.101 Y80.929 E44.07843
G1 X141.971 Y80.387 E44.09696
G1 X141.749 Y79.843 E44.11651
G1 X141.449 Y79.356 E44.13553
G1 X141.078 Y78.92 E44.15457
G1 X140.644 Y78.551 E44.17352
G1 X140.153 Y78.25 E44.19267
G1 X139.613 Y78.029 E44.21208
G1 X139.067 Y77.899 E44.23075
G1 X138.491 Y77.853 E44.24997
G1 X81.509 Y77.853 E46.1452
G1 X80.933 Y77.899 E46.16442
G1 X80.387 Y78.029 E46.18308
G1 X79.843 Y78.251 E46.20262
G1 X79.356 Y78.551 E46.22165
G1 X78.92 Y78.922 E46.24069
G1 X78.549 Y79.358 E46.25973
G1 X78.25 Y79.847 E46.27879
G1 X78.029 Y80.387 E46.2982
G1 X77.899 Y80.933 E46.31687
G1 X77.853 Y81.509 E46.33609
G1 X77.853 Y138.491 E48.23132
G1 X77.899 Y139.067 E48.25054
G1 X78.029 Y139.613 E48.2692
G1 X78.25 Y140.153 E48.28861
G1 X78.549 Y140.642 E48.30767
G1 X78.92 Y141.078 E48.32671
G1 X79.356 Y141.449 E48.34575
G1 X79.843 Y141.749 E48.36478
G1 X80.387 Y141.97 E48.38431
G1 X80.933 Y142.101 E48.40298
G0 F6000 X81.056 Y141.348
;TYPE:SKIN
G1 F1200 X81.54 Y141.387 E48.41913
G1 X138.46 Y141.387 E50.3123
G1 X138.944 Y141.348 E50.32845
G1 X139.366 Y141.246 E50.34289
G1 X139.813 Y141.068 E50.35889
G1 X140.196 Y140.831 E50.37387
G1 X140.542 Y140.538 E50.38895
G1 X140.835 Y140.193 E50.40401
G1 X141.071 Y139.807 E50.41906
G1 X141.245 Y139.366 E50.43482
G1 X141.348 Y138.945 E50.44924
G1 X141.387 Y138.46 E50.46542
G1 X141.387 Y81.541 E52.35856
G1 X141.348 Y81.047 E52.37504
G1 X141.248 Y80.636 E52.38911
G1 X141.068 Y80.187 E52.4052
G1 X140.831 Y79.804 E52.42018
G1 X140.538 Y79.458 E52.43526
