;FLAVOR:Marlin
;TIME:8843
;Filament used: 7.88115m
;Layer height: 0.2
;MINX:66.653
;MINY:66.652
;MINZ:0.2
;MAXX:153.345
;MAXY:153.347
;MAXZ:9
;POSTPROCESSED
;Generated with Cura_SteamEngine 5.2.2
M82 ;absolute extrusion mode
; Ender 3 Custom Start G-code
G92 E0 ; Reset Extruder
G28 ; Home all axes
M104 S175 ; Start heating up the nozzle most of the way
M190 S60 ; Start heating the bed, wait until target temperature reached
M109 S215 ; Finish heating the nozzle
G1 Z2.0 F3000 ; Move Z Axis up little to prevent scratching of Heat Bed
G1 X0.1 Y20 Z0.3 F5000.0 ; Move to start position
G1 X0.1 Y200.0 Z0.3 F1500.0 E15 ; Draw the first line
G1 X0.4 Y200.0 Z0.3 F5000.0 ; Move to side a little
G1 X0.4 Y20 Z0.3 F1500.0 E30 ; Draw the second line
G92 E0 ; Reset Extruder
G1 Z2.0 F3000 ; Move Z Axis up little to prevent scratching of Heat Bed
G1 X5 Y20 Z0.3 F5000.0 ; Move over to prevent blob squish
G92 E0
G92 E0
G1 F1500 E-6.5
;LAYER_COUNT:45
;LAYER:0
M107
G0 F6000 X71.173 Y70.848 Z0.2
;TYPE:SKIRT
G1 F1500 E0
G1 F1200 X71.658 Y70.409 E0.02176
G1 X72.106 Y70.027 E0.04134
G1 X72.845 Y69.449 E0.07254
G1 X73.254 Y69.17 E0.08901
G1 X73.78 Y68.839 E0.10968
G1 X74.169 Y68.607 E0.12475
G1 X74.994 Y68.161 E0.15594
G1 X75.724 Y67.838 E0.18249
G1 X76.28 Y67.616 E0.2024
G1 X77.165 Y67.306 E0.23359
G1 X77.935 Y67.102 E0.26008
G1 X78.475 Y66.98 E0.2785
G1 X79.725 Y66.773 E0.32064
G1 X80.402 Y66.71 E0.34325
G1 X80.793 Y66.685 E0.35628
G1 X81.286 Y66.665 E0.3727
G1 X82.022 Y66.653 E0.39718
G1 X137.792 Y66.652 E2.2521
G1 X138.653 Y66.663 E2.28074
G1 X139.277 Y66.688 E2.30151
G1 X139.748 Y66.722 E2.31721
G1 X140.191 Y66.764 E2.33201
G1 X141.12 Y66.892 E2.3632
G1 X141.864 Y67.054 E2.38853
G1 X142.442 Y67.201 E2.40836
G1 X143.341 Y67.471 E2.43959
G1 X144.083 Y67.76 E2.46607
G1 X144.654 Y68.006 E2.48675
G1 X145.499 Y68.413 E2.51794
G1 X146.21 Y68.829 E2.54534
G1 X146.667 Y69.12 E2.56336
G1 X147.436 Y69.657 E2.59456
G1 X147.912 Y70.042 E2.61492
G1 X148.377 Y70.44 E2.63528
G1 X149.063 Y71.08 E2.66648
G1 X149.613 Y71.682 E2.6936
G1 X150.026 Y72.169 E2.71484
G1 X150.602 Y72.91 E2.74606
G1 X151.097 Y73.67 E2.77622
G1 X151.405 Y74.189 E2.7963
G1 X151.848 Y75.015 E2.82747
G1 X152.151 Y75.7 E2.85238
G1 X152.356 Y76.21 E2.87067
G1 X152.669 Y77.095 E2.90189
G1 X152.846 Y77.745 E2.92429
G1 X152.986 Y78.328 E2.94424
G1 X153.166 Y79.248 E2.97541
G1 X153.251 Y79.947 E2.99883
G1 X153.294 Y80.475 E3.01645
G1 X153.325 Y81.016 E3.03448
G1 X153.343 Y81.644 E3.05537
G1 X153.345 Y138.014 E4.93025
G1 X153.327 Y138.909 E4.96002
G1 X153.281 Y139.711 E4.98674
G1 X153.244 Y140.107 E4.99997
G1 X153.082 Y141.221 E5.03741
G1 X152.906 Y142.023 E5.06472
G1 X152.803 Y142.424 E5.07849
G1 X152.531 Y143.321 E5.10967
G1 X152.307 Y143.907 E5.13053
G1 X152.076 Y144.463 E5.15056
G1 X151.462 Y145.712 E5.19685
G1 X151.097 Y146.325 E5.22058
G1 X150.854 Y146.707 E5.23563
G1 X150.318 Y147.476 E5.26681
G1 X149.816 Y148.086 E5.29309
G1 X149.414 Y148.541 E5.31328
G1 X148.764 Y149.217 E5.34447
G1 X148.213 Y149.708 E5.36902
G1 X147.799 Y150.053 E5.38694
G1 X146.746 Y150.83 E5.43047
G1 X146.22 Y151.161 E5.45114
G1 X145.831 Y151.393 E5.4662
G1 X145.006 Y151.839 E5.4974
G1 X144.276 Y152.162 E5.52395
G1 X143.72 Y152.384 E5.54386
G1 X142.835 Y152.694 E5.57505
G1 X142.065 Y152.898 E5.60154
G1 X141.525 Y153.02 E5.61995
G1 X140.275 Y153.227 E5.6621
G1 X139.598 Y153.29 E5.68471
G1 X139.207 Y153.315 E5.69774
G1 X138.714 Y153.335 E5.71415
G1 X137.979 Y153.347 E5.7386
G1 X81.986 Y153.345 E7.60094
G1 X81.091 Y153.327 E7.63071
G1 X80.289 Y153.281 E7.65743
G1 X79.893 Y153.244 E7.67066
G1 X78.779 Y153.082 E7.7081
G1 X77.968 Y152.904 E7.73571
G1 X77.522 Y152.789 E7.75103
G1 X76.624 Y152.516 E7.78225
G1 X75.918 Y152.24 E7.80746
G1 X75.349 Y151.995 E7.82807
G1 X74.504 Y151.588 E7.85926
G1 X73.802 Y151.178 E7.8863
G1 X73.306 Y150.863 E7.90584
G1 X72.536 Y150.327 E7.93705
G1 X71.947 Y149.844 E7.96238
G1 X71.522 Y149.471 E7.98119
G1 X70.844 Y148.823 E8.01238
G1 X70.401 Y148.334 E8.03433
G1 X70.018 Y147.884 E8.05398
G1 X69.441 Y147.144 E8.08519
G1 X69.167 Y146.741 E8.1014
G1 X68.828 Y146.202 E8.12258
G1 X68.597 Y145.813 E8.13763
G1 X68.153 Y144.987 E8.16882
G1 X67.847 Y144.296 E8.19395
G1 X67.641 Y143.783 E8.21234
G1 X67.329 Y142.899 E8.24352
G1 X67.149 Y142.235 E8.2664
G1 X67.01 Y141.652 E8.28634
G1 X66.773 Y140.275 E8.33281
G1 X66.71 Y139.591 E8.35566
G1 X66.665 Y138.711 E8.38496
G1 X66.653 Y137.978 E8.40935
G1 X66.653 Y82.052 E10.26945
G1 X66.663 Y81.345 E10.29297
G1 X66.688 Y80.716 E10.31391
G1 X66.764 Y79.812 E10.34408
G1 X66.892 Y78.883 E10.37527
G1 X67.059 Y78.118 E10.40131
G1 X67.208 Y77.536 E10.4213
G1 X67.479 Y76.638 E10.45249
G1 X67.765 Y75.905 E10.47866
G1 X67.986 Y75.393 E10.49721
G1 X68.541 Y74.283 E10.53849
G1 X68.888 Y73.698 E10.56111
G1 X69.118 Y73.334 E10.57543
G1 X69.652 Y72.563 E10.60662
G1 X70.147 Y71.957 E10.63265
G1 X70.525 Y71.526 E10.65172
G1 X71.173 Y70.848 E10.68291
G0 F6000 X71.462 Y71.125
G1 F1200 X71.917 Y70.713 E10.70333
G1 X72.365 Y70.331 E10.72291
G1 X73.472 Y69.506 E10.76883
G1 X73.984 Y69.182 E10.78898
G1 X74.373 Y68.95 E10.80404
G1 X75.184 Y68.513 E10.83468
G1 X75.872 Y68.21 E10.85969
G1 X76.428 Y67.988 E10.8796
G1 X77.297 Y67.684 E10.91022
G1 X78.023 Y67.493 E10.93519
G1 X78.563 Y67.371 E10.9536
G1 X79.768 Y67.171 E10.99423
G1 X80.428 Y67.11 E11.01628
G1 X81.294 Y67.065 E11.04512
G1 X82.022 Y67.053 E11.06933
G1 X137.792 Y67.052 E12.92425
G1 X138.647 Y67.063 E12.95269
G1 X139.257 Y67.087 E12.973
G1 X140.153 Y67.162 E13.0029
G1 X141.065 Y67.289 E13.03353
G1 X141.766 Y67.442 E13.05739
G1 X142.344 Y67.589 E13.07723
G1 X143.225 Y67.854 E13.10783
G1 X143.925 Y68.127 E13.13282
G1 X144.496 Y68.373 E13.1535
G1 X145.325 Y68.774 E13.18412
G1 X145.995 Y69.167 E13.20996
G1 X146.452 Y69.458 E13.22798
G1 X147.207 Y69.986 E13.25862
G1 X147.652 Y70.346 E13.27766
G1 X148.117 Y70.744 E13.29802
G1 X148.789 Y71.372 E13.32861
G1 X149.308 Y71.941 E13.35422
G1 X149.721 Y72.428 E13.37546
G1 X150.286 Y73.155 E13.40609
G1 X150.753 Y73.874 E13.4346
G1 X151.061 Y74.393 E13.45467
G1 X151.496 Y75.205 E13.48531
G1 X151.78 Y75.85 E13.50875
G1 X151.985 Y76.36 E13.52703
G1 X152.291 Y77.228 E13.55765
G1 X152.457 Y77.838 E13.57867
G1 X152.597 Y78.421 E13.59861
G1 X152.831 Y79.781 E13.64451
G1 X152.895 Y80.498 E13.66846
G1 X152.926 Y81.039 E13.68648
G1 X152.943 Y81.644 E13.70661
G1 X152.945 Y138.006 E15.58122
G1 X152.927 Y138.901 E15.61099
G1 X152.883 Y139.674 E15.63674
G1 X152.846 Y140.07 E15.64997
G1 X152.69 Y141.143 E15.68603
G1 X152.519 Y141.923 E15.71259
G1 X152.416 Y142.324 E15.72636
G1 X152.148 Y143.205 E15.75699
G1 X151.938 Y143.754 E15.77654
G1 X151.707 Y144.31 E15.79657
G1 X151.115 Y145.513 E15.84116
G1 X150.76 Y146.11 E15.86426
G1 X150.517 Y146.492 E15.87932
G1 X149.989 Y147.247 E15.90996
G1 X149.517 Y147.821 E15.93468
G1 X149.115 Y148.276 E15.95487
G1 X148.476 Y148.939 E15.9855
G1 X147.957 Y149.401 E16.00861
G1 X147.543 Y149.746 E16.02654
G1 X146.528 Y150.494 E16.06847
G1 X146.016 Y150.818 E16.08862
G1 X145.627 Y151.05 E16.10369
G1 X144.816 Y151.487 E16.13433
G1 X144.128 Y151.79 E16.15933
G1 X143.572 Y152.012 E16.17924
G1 X142.703 Y152.316 E16.20987
G1 X141.977 Y152.507 E16.23483
G1 X141.437 Y152.629 E16.25325
G1 X140.232 Y152.829 E16.29387
G1 X139.572 Y152.89 E16.31592
G1 X138.706 Y152.935 E16.34476
G1 X137.979 Y152.947 E16.36894
G1 X81.994 Y152.945 E18.23101
G1 X81.099 Y152.927 E18.26079
G1 X80.326 Y152.883 E18.28654
G1 X79.93 Y152.846 E18.29977
G1 X78.857 Y152.69 E18.33583
G1 X78.067 Y152.516 E18.36274
G1 X77.621 Y152.401 E18.37805
G1 X76.741 Y152.133 E18.40865
G1 X76.076 Y151.873 E18.4324
G1 X75.507 Y151.628 E18.453
G1 X74.678 Y151.227 E18.48363
G1 X74.016 Y150.84 E18.50914
G1 X73.52 Y150.525 E18.52868
G1 X72.765 Y149.998 E18.5593
G1 X72.211 Y149.544 E18.58313
G1 X71.786 Y149.171 E18.60193
G1 X71.121 Y148.534 E18.63256
G1 X70.706 Y148.074 E18.65317
G1 X70.323 Y147.624 E18.67282
G1 X69.503 Y146.523 E18.71848
G1 X69.172 Y145.998 E18.73913
G1 X68.941 Y145.609 E18.75417
G1 X68.506 Y144.798 E18.78478
G1 X68.218 Y144.147 E18.80846
G1 X68.012 Y143.634 E18.82685
G1 X67.707 Y142.766 E18.85745
G1 X67.538 Y142.142 E18.87895
G1 X67.399 Y141.559 E18.89888
G1 X67.171 Y140.232 E18.94366
G1 X67.109 Y139.566 E18.96591
G1 X67.065 Y138.704 E18.99462
G1 X67.053 Y137.978 E19.01877
G1 X67.053 Y82.058 E20.87868
G1 X67.063 Y81.351 E20.90219
G1 X67.088 Y80.737 E20.92263
G1 X67.162 Y79.85 E20.95224
G1 X67.288 Y78.938 E20.98286
G1 X67.446 Y78.217 E21.00741
G1 X67.595 Y77.635 E21.02739
G1 X67.862 Y76.754 E21.05801
G1 X68.132 Y76.063 E21.08268
G1 X68.353 Y75.551 E21.10123
G1 X68.888 Y74.482 E21.14099
G1 X69.226 Y73.912 E21.16303
G1 X69.456 Y73.548 E21.17735
G1 X69.981 Y72.792 E21.20796
G1 X70.448 Y72.221 E21.2325
G1 X70.826 Y71.79 E21.25157
G1 X71.462 Y71.125 E21.28217
G0 F6000 X71.751 Y71.401
G1 F1200 X72.177 Y71.017 E21.30125
G1 X72.625 Y70.635 E21.32083
G1 X73.689 Y69.841 E21.36498
G1 X74.189 Y69.526 E21.38464
G1 X74.578 Y69.294 E21.3997
G1 X75.374 Y68.866 E21.42976
G1 X76.021 Y68.581 E21.45328
G1 X76.577 Y68.359 E21.47319
G1 X77.429 Y68.062 E21.5032
G1 X78.111 Y67.883 E21.52665
G1 X78.651 Y67.761 E21.54507
G1 X79.811 Y67.568 E21.58418
G1 X80.453 Y67.509 E21.60562
G1 X81.301 Y67.465 E21.63386
G1 X82.022 Y67.453 E21.65785
G1 X137.792 Y67.452 E23.51276
G1 X138.642 Y67.463 E23.54104
G1 X139.236 Y67.487 E23.56081
G1 X140.116 Y67.561 E23.59018
G1 X141.01 Y67.685 E23.6202
G1 X141.667 Y67.83 E23.64258
G1 X142.245 Y67.977 E23.66242
G1 X143.11 Y68.238 E23.69247
G1 X143.767 Y68.494 E23.71592
G1 X144.338 Y68.74 E23.7366
G1 X145.151 Y69.134 E23.76665
G1 X145.781 Y69.504 E23.79095
G1 X146.238 Y69.795 E23.80897
G1 X146.977 Y70.314 E23.839
G1 X147.392 Y70.65 E23.85676
G1 X147.857 Y71.048 E23.87712
G1 X148.516 Y71.665 E23.90715
G1 X149.003 Y72.2 E23.93121
G1 X149.416 Y72.687 E23.95245
G1 X149.969 Y73.401 E23.98248
G1 X150.409 Y74.078 E24.00934
G1 X150.717 Y74.597 E24.02941
G1 X151.143 Y75.394 E24.05947
G1 X151.409 Y75.999 E24.08145
G1 X151.614 Y76.509 E24.09973
G1 X151.913 Y77.361 E24.12976
G1 X152.068 Y77.931 E24.14941
G1 X152.208 Y78.514 E24.16935
G1 X152.433 Y79.823 E24.21353
G1 X152.495 Y80.52 E24.2368
G1 X152.526 Y81.061 E24.25483
G1 X152.543 Y81.644 E24.27422
G1 X152.545 Y137.998 E26.14857
G1 X152.527 Y138.893 E26.17834
G1 X152.485 Y139.637 E26.20313
G1 X152.448 Y140.033 E26.21635
G1 X152.298 Y141.065 E26.25104
G1 X152.131 Y141.824 E26.27689
G1 X152.028 Y142.225 E26.29066
G1 X151.765 Y143.088 E26.32066
G1 X151.568 Y143.6 E26.33891
G1 X151.337 Y144.156 E26.35894
G1 X150.768 Y145.314 E26.40185
G1 X150.422 Y145.896 E26.42437
G1 X150.179 Y146.278 E26.43943
G1 X149.661 Y147.017 E26.46944
G1 X149.217 Y147.557 E26.4927
G1 X148.815 Y148.012 E26.51289
G1 X148.188 Y148.661 E26.5429
G1 X147.701 Y149.094 E26.56458
G1 X147.287 Y149.439 E26.5825
G1 X146.311 Y150.159 E26.62284
G1 X145.811 Y150.474 E26.6425
G1 X145.422 Y150.706 E26.65756
G1 X144.626 Y151.134 E26.68762
G1 X143.979 Y151.419 E26.71113
G1 X143.423 Y151.641 E26.73105
G1 X142.571 Y151.938 E26.76106
G1 X141.889 Y152.117 E26.78451
G1 X141.349 Y152.239 E26.80292
G1 X140.189 Y152.432 E26.84203
G1 X139.547 Y152.491 E26.86348
G1 X138.699 Y152.535 E26.89172
G1 X137.979 Y152.547 E26.91567
G1 X82.002 Y152.545 E28.77747
G1 X81.107 Y152.527 E28.80725
G1 X80.363 Y152.485 E28.83203
G1 X79.967 Y152.448 E28.84526
G1 X78.935 Y152.298 E28.87994
G1 X78.167 Y152.129 E28.9061
G1 X77.721 Y152.014 E28.92142
G1 X76.858 Y151.75 E28.95144
G1 X76.234 Y151.505 E28.97373
G1 X75.665 Y151.26 E28.99434
G1 X74.852 Y150.867 E29.02437
G1 X74.231 Y150.502 E29.04833
G1 X73.735 Y150.187 E29.06787
G1 X72.995 Y149.67 E29.0979
G1 X72.475 Y149.243 E29.12028
G1 X72.05 Y148.87 E29.13908
G1 X71.398 Y148.245 E29.16912
G1 X71.01 Y147.815 E29.18839
G1 X70.627 Y147.365 E29.20804
G1 X69.838 Y146.306 E29.25196
G1 X69.516 Y145.794 E29.27208
G1 X69.285 Y145.405 E29.28713
G1 X68.859 Y144.609 E29.31716
G1 X68.59 Y143.998 E29.33936
G1 X68.384 Y143.485 E29.35775
G1 X68.085 Y142.633 E29.38778
G1 X67.927 Y142.05 E29.40787
G1 X67.788 Y141.467 E29.4278
G1 X67.568 Y140.189 E29.47094
G1 X67.508 Y139.54 E29.49261
G1 X67.465 Y138.696 E29.52072
G1 X67.453 Y137.978 E29.5446
G1 X67.453 Y82.064 E31.40431
G1 X67.463 Y81.357 E31.42783
G1 X67.487 Y80.757 E31.4478
G1 X67.56 Y79.888 E31.47681
G1 X67.685 Y78.993 E31.50686
G1 X67.834 Y78.316 E31.52992
G1 X67.983 Y77.734 E31.5499
G1 X68.245 Y76.87 E31.57993
G1 X68.499 Y76.222 E31.60308
G1 X68.72 Y75.71 E31.62163
G1 X69.235 Y74.681 E31.6599
G1 X69.564 Y74.125 E31.68139
G1 X69.794 Y73.761 E31.69571
G1 X70.31 Y73.02 E31.72574
G1 X70.748 Y72.484 E31.74876
G1 X71.126 Y72.053 E31.76783
G1 X71.751 Y71.401 E31.79787
G1 F1500 E25.29787
;MESH:Base-4Holes-Inset.stl
G0 F6000 X76.99 Y81.435
G0 X80.995 Y141.705
;TYPE:WALL-INNER
G1 F1500 E31.79787
G1 F1200 X81.525 Y141.747 E31.81555
G1 X138.475 Y141.747 E33.70972
G1 X139.005 Y141.705 E33.7274
G1 X139.49 Y141.589 E33.74399
G1 X139.975 Y141.391 E33.76141
G1 X140.408 Y141.125 E33.77831
G1 X140.796 Y140.794 E33.79528
G1 X141.126 Y140.406 E33.81222
G1 X141.392 Y139.972 E33.82915
G1 X141.588 Y139.49 E33.84645
G1 X141.705 Y139.005 E33.86305
G1 X141.747 Y138.475 E33.88073
G1 X141.747 Y81.525 E35.77489
G1 X141.705 Y80.992 E35.79268
G1 X141.589 Y80.51 E35.80917
G1 X141.391 Y80.025 E35.82659
G1 X141.125 Y79.592 E35.84349
G1 X140.794 Y79.204 E35.86045
G1 X140.408 Y78.876 E35.8773
G1 X139.971 Y78.608 E35.89435
G1 X139.49 Y78.411 E35.91164
G1 X139.004 Y78.295 E35.92826
G1 X138.475 Y78.252 E35.94591
G1 X81.525 Y78.253 E37.84008
G1 X80.995 Y78.295 E37.85776
G1 X80.51 Y78.411 E37.87435
G1 X80.025 Y78.609 E37.89177
G1 X79.592 Y78.875 E37.90867
G1 X79.204 Y79.206 E37.92563
G1 X78.874 Y79.594 E37.94258
G1 X78.608 Y80.028 E37.95951
G1 X78.411 Y80.51 E37.97682
G1 X78.295 Y80.996 E37.99344
G1 X78.252 Y81.525 E38.0111
G1 X78.253 Y138.475 E39.90526
G1 X78.295 Y139.005 E39.92294
G1 X78.411 Y139.49 E39.93953
G1 X78.608 Y139.972 E39.95685
G1 X78.874 Y140.406 E39.97378
G1 X79.204 Y140.794 E39.99072
G1 X79.592 Y141.125 E40.00768
G1 X80.025 Y141.391 E40.02459
G1 X80.51 Y141.589 E40.04201
G1 X80.995 Y141.705 E40.05859
G0 F6000 X81.509 Y142.147
;TYPE:WALL-OUTER
G1 F1200 X138.491 Y142.147 E41.95382
G1 X139.067 Y142.101 E41.97304
G1 X139.613 Y141.971 E41.99171
G1 X140.157 Y141.749 E42.01125
G1 X140.644 Y141.449 E42.03028
G1 X141.08 Y141.078 E42.04932
G1 X141.451 Y140.642 E42.06836
G1 X141.75 Y140.153 E42.08742
G1 X141.97 Y139.613 E42.10682
G1 X142.101 Y139.067 E42.12549
G1 X142.147 Y138.491 E42.14471
G1 X142.147 Y81.509 E44.03994
G1 X142.101 Y80.929 E44.05929
G1 X141.971 Y80.387 E44.07783
G1 X141.749 Y79.843 E44.09737
G1 X141.449 Y79.356 E44.1164
G1 X141.078 Y78.92 E44.13544
G1 X140.644 Y78.551 E44.15438
G1 X140.153 Y78.25 E44.17354
G1 X139.613 Y78.029 E44.19295
G1 X139.067 Y77.899 E44.21161
G1 X138.491 Y77.852 E44.23083
G1 X81.509 Y77.853 E46.12606
G1 X80.933 Y77.899 E46.14528
G1 X80.387 Y78.029 E46.16395
G1 X79.843 Y78.251 E46.18349
G1 X79.356 Y78.551 E46.20252
G1 X78.92 Y78.922 E46.22156
G1 X78.549 Y79.358 E46.2406
G1 X78.25 Y79.847 E46.25966
G1 X78.029 Y80.387 E46.27907
G1 X77.899 Y80.933 E46.29774
G1 X77.852 Y81.509 E46.31696
G1 X77.853 Y138.491 E48.21219
G1 X77.899 Y139.067 E48.23141
G1 X78.029 Y139.613 E48.25007
G1 X78.25 Y140.153 E48.26948
G1 X78.549 Y140.642 E48.28854
G1 X78.92 Y141.078 E48.30758
G1 X79.356 Y141.449 E48.32662
G1 X79.843 Y141.749 E48.34565
G1 X80.387 Y141.971 E48.36519
G1 X80.933 Y142.101 E48.38386
G1 X81.509 Y142.147 E48.40308
G0 F6000 X81.055 Y141.348
;TYPE:SKIN
G1 F1200 X81.54 Y141.387 E48.41926
G1 X138.46 Y141.387 E50.31243
G1 X138.944 Y141.348 E50.32858
G1 X139.366 Y141.246 E50.34302
G1 X139.813 Y141.068 E50.35902
G1 X140.196 Y140.831 E50.374
G1 X140.542 Y140.538 E50.38908
G1 X140.835 Y140.193 E50.40414
G1 X141.071 Y139.807 E50.41918
G1 X141.245 Y139.366 E50.43495
G1 X141.348 Y138.945 E50.44937
G1 X141.387 Y138.46 E50.46555
G1 X141.387 Y81.541 E52.35868
G1 X141.348 Y81.047 E52.37517
G1 X141.248 Y80.635 E52.38927
G1 X141.068 Y80.187 E52.40532
G1 X140.831 Y79.804 E52.4203
G1 X140.538 Y79.458 E52.43538
G1 X140.197 Y79.168 E52.45027
G1 X139.807 Y78.929 E52.46549
