;FLAVOR:Marlin
;TIME:8746
;Filament used: 7.78963m
;Layer height: 0.2
;MINX:72.2
;MINY:72.2
;MINZ:0.2
;MAXX:147.8
;MAXY:147.8
;MAXZ:9
;Generated with Cura_SteamEngine 5.2.2
M82 ;absolute extrusion mode
; Ender 3 Custom Start G-code
G92 E0 ; Reset Extruder
G28 ; Home all axes
M104 S175 ; Start heating up the nozzle most of the way
M190 S60 ; Start heating the bed, wait until target temperature reached
M109 S215 ; Finish heating the nozzle
G1 Z2.0 F3000 ; Move Z Axis up little to prevent scratching of Heat Bed
G1 X0.1 Y20 Z0.3 F5000.0 ; Move to start position
G1 X0.1 Y200.0 Z0.3 F1500.0 E15 ; Draw the first line
G1 X0.4 Y200.0 Z0.3 F5000.0 ; Move to side a little
G1 X0.4 Y20 Z0.3 F1500.0 E30 ; Draw the second line
G92 E0 ; Reset Extruder
G1 Z2.0 F3000 ; Move Z Axis up little to prevent scratching of Heat Bed
G1 X5 Y20 Z0.3 F5000.0 ; Move over to prevent blob squish
G92 E0
G92 E0
G1 F1500 E-6.5
;LAYER_COUNT:45
;LAYER:0
M107
;MESH:Base-4holes.stl
G0 F6000 X94.999 Y94.611 Z0.2
;TYPE:WALL-INNER
G1 F1500 E0
G1 F1200 X93.899 Y94.437 E0.03704
G1 X92.877 Y93.921 E0.07512
G1 X92.089 Y93.133 E0.11218
G1 X91.562 Y92.104 E0.15064
G1 X91.404 Y91.094 E0.18464
G1 X91.397 Y90.968 E0.18884
G1 X91.569 Y89.875 E0.22564
G1 X92.087 Y88.869 E0.26327
G1 X92.876 Y88.08 E0.30038
G1 X93.886 Y87.564 E0.33811
G1 X95.002 Y87.389 E0.37568
G1 X96.115 Y87.565 E0.41316
G1 X97.125 Y88.08 E0.45086
G1 X97.926 Y88.887 E0.48868
G1 X98.433 Y89.881 E0.52579
G1 X98.609 Y90.997 E0.56337
G1 X98.434 Y92.116 E0.60104
G1 X97.907 Y93.137 E0.63926
G1 X97.124 Y93.916 E0.67599
G1 X96.114 Y94.435 E0.71376
G1 X94.999 Y94.611 E0.75131
G0 F6000 X94.999 Y94.206
;TYPE:WALL-OUTER
G1 F1200 X94.008 Y94.05 E0.78467
G1 X93.118 Y93.592 E0.81796
G1 X92.403 Y92.875 E0.85164
G1 X91.949 Y91.98 E0.88502
G1 X91.799 Y91.032 E0.91694
G1 X91.797 Y90.989 E0.91838
G1 X91.949 Y90.02 E0.951
G1 X92.403 Y89.125 E0.98438
G1 X93.116 Y88.409 E1.01799
G1 X94.01 Y87.952 E1.05138
G1 X95 Y87.794 E1.08472
G1 X95.99 Y87.952 E1.11807
G1 X96.884 Y88.409 E1.15146
G1 X97.586 Y89.109 E1.18444
G1 X98.043 Y89.997 E1.21765
G1 X98.205 Y90.999 E1.25141
G1 X98.044 Y92.001 E1.28517
G1 X97.593 Y92.881 E1.31806
G1 X96.892 Y93.585 E1.3511
G1 X95.983 Y94.05 E1.38506
G1 X94.999 Y94.206 E1.41819
G1 F1500 E-5.08181
G0 F6000 X94.919 Y94.7
G0 X97.12 Y94.125
G0 X125.88 Y94.125
G0 X126.883 Y94.435
;TYPE:WALL-INNER
G1 F1500 E1.41819
G1 F1200 X125.884 Y93.924 E1.45552
G1 X125.092 Y93.135 E1.4927
G1 X124.566 Y92.117 E1.53081
G1 X124.404 Y91.094 E1.56526
G1 X124.399 Y90.941 E1.57035
G1 X124.567 Y89.88 E1.60608
G1 X125.074 Y88.887 E1.64316
G1 X125.875 Y88.08 E1.68098
G1 X126.886 Y87.564 E1.71873
G1 X128.002 Y87.389 E1.75631
G1 X129.115 Y87.565 E1.79378
G1 X130.124 Y88.08 E1.83146
G1 X130.92 Y88.877 E1.86893
G1 X131.435 Y89.885 E1.90658
G1 X131.609 Y91.001 E1.94414
G1 X131.436 Y92.114 E1.98161
G1 X130.913 Y93.132 E2.01967
G1 X130.113 Y93.926 E2.05716
G1 X129.119 Y94.433 E2.09427
G1 X127.996 Y94.61 E2.13208
G1 X126.883 Y94.435 E2.16956
G0 F6000 X127.002 Y94.045
;TYPE:WALL-OUTER
G1 F1200 X126.114 Y93.592 E2.20271
G1 X125.415 Y92.891 E2.23564
G1 X124.956 Y92.001 E2.26895
G1 X124.799 Y91.032 E2.3016
G1 X124.797 Y90.98 E2.30333
G1 X124.957 Y89.997 E2.33645
G1 X125.414 Y89.109 E2.36967
G1 X126.116 Y88.409 E2.40264
G1 X127.01 Y87.952 E2.43604
G1 X128 Y87.794 E2.46938
G1 X128.99 Y87.952 E2.50272
G1 X129.884 Y88.409 E2.53612
G1 X130.593 Y89.115 E2.5694
G1 X131.048 Y90.01 E2.60279
G1 X131.203 Y90.999 E2.63609
G1 X131.048 Y91.99 E2.66945
G1 X130.597 Y92.875 E2.70249
G1 X129.891 Y93.586 E2.73581
G1 X129.003 Y94.043 E2.76903
G1 X128 Y94.206 E2.80283
G1 X127.002 Y94.045 E2.83645
G1 F1500 E-3.66355
G0 F6000 X126.772 Y94.487
G0 X127.876 Y94.775
G0 X127.98 Y124.217
G0 X126.884 Y131.435
;TYPE:WALL-INNER
G1 F1500 E2.83645
G1 F1200 X125.868 Y130.913 E2.87444
G1 X125.074 Y130.113 E2.91193
G1 X124.567 Y129.12 E2.94901
G1 X124.404 Y128.094 E2.98356
G1 X124.397 Y127.971 E2.98766
G1 X124.566 Y126.884 E3.02425
G1 X125.093 Y125.863 E3.06247
G1 X125.876 Y125.084 E3.0992
G1 X126.886 Y124.565 E3.13697
G1 X128.002 Y124.391 E3.17454
G1 X129.119 Y124.567 E3.21215
G1 X130.113 Y125.074 E3.24926
G1 X130.91 Y125.866 E3.28663
G1 X131.435 Y126.884 E3.32473
G1 X131.609 Y128.001 E3.36233
G1 X131.436 Y129.114 E3.39979
G1 X130.913 Y130.131 E3.43783
G1 X130.133 Y130.911 E3.47451
G1 X129.116 Y131.435 E3.51257
G1 X127.999 Y131.611 E3.55018
G1 X126.884 Y131.435 E3.58772
G0 F6000 X127.01 Y131.048
;TYPE:WALL-OUTER
G1 F1200 X126.125 Y130.597 E3.62076
G1 X125.414 Y129.891 E3.65408
G1 X124.957 Y129.003 E3.6873
G1 X124.799 Y128.032 E3.72002
G1 X124.799 Y127.968 E3.72215
G1 X124.956 Y126.999 E3.7548
G1 X125.407 Y126.119 E3.78769
G1 X126.108 Y125.415 E3.82073
G1 X127.017 Y124.95 E3.85469
G1 X128.001 Y124.795 E3.88782
G1 X129.003 Y124.957 E3.92158
G1 X129.891 Y125.414 E3.9548
G1 X130.597 Y126.125 E3.98812
G1 X131.048 Y127.01 E4.02116
G1 X131.203 Y127.999 E4.05446
G1 X131.048 Y128.99 E4.08782
G1 X130.597 Y129.875 E4.12085
G1 X129.875 Y130.597 E4.15482
G1 X128.99 Y131.048 E4.18785
G1 X128 Y131.206 E4.2212
G1 X127.01 Y131.048 E4.25454
G1 F1500 E-2.24546
G0 F6000 X126.873 Y131.315
G0 X125.88 Y131.125
G0 X97.12 Y131.125
G0 X94.998 Y131.611
;TYPE:WALL-INNER
G1 F1500 E4.25454
G1 F1200 X93.885 Y131.435 E4.29202
G1 X92.888 Y130.927 E4.32924
G1 X92.088 Y130.133 E4.36672
G1 X91.562 Y129.104 E4.40516
G1 X91.404 Y128.094 E4.43916
G1 X91.397 Y127.968 E4.44336
G1 X91.569 Y126.876 E4.48013
G1 X92.074 Y125.887 E4.51706
G1 X92.876 Y125.08 E4.5549
G1 X93.899 Y124.563 E4.59303
G1 X94.999 Y124.39 E4.63006
G1 X96.117 Y124.565 E4.6677
G1 X97.116 Y125.076 E4.70502
G1 X97.908 Y125.865 E4.7422
G1 X98.434 Y126.883 E4.78032
G1 X98.61 Y127.999 E4.81789
G1 X98.433 Y129.12 E4.85564
G1 X97.926 Y130.113 E4.89272
G1 X97.134 Y130.91 E4.93009
G1 X96.116 Y131.435 E4.96819
G1 X94.998 Y131.611 E5.00583
G0 F6000 X95 Y131.206
;TYPE:WALL-OUTER
G1 F1200 X94.01 Y131.048 E5.03918
G1 X93.125 Y130.597 E5.07221
G1 X92.403 Y129.875 E5.10618
G1 X91.949 Y128.98 E5.13955
G1 X91.799 Y128.032 E5.17148
G1 X91.797 Y127.989 E5.17291
G1 X91.949 Y127.02 E5.20553
G1 X92.403 Y126.125 E5.23891
G1 X93.117 Y125.406 E5.27261
G1 X94.009 Y124.95 E5.30593
G1 X95 Y124.795 E5.33929
G1 X95.998 Y124.955 E5.37291
G1 X96.886 Y125.408 E5.40607
G1 X97.585 Y126.109 E5.43899
G1 X98.044 Y126.999 E5.4723
G1 X98.202 Y128.013 E5.50643
G1 X98.043 Y129.003 E5.53978
G1 X97.586 Y129.891 E5.573
G1 X96.875 Y130.597 E5.60632
G1 X95.99 Y131.048 E5.63936
G1 X95 Y131.206 E5.67271
G1 F1500 E-0.82729
G0 F6000 X94.953 Y131.501
G0 X92.879 Y131.125
G0 X92.88 Y141.947
G0 X80.996 Y141.705
;TYPE:WALL-INNER
G1 F1500 E5.67271
G1 F1200 X81.525 Y141.747 E5.69036
G1 X138.475 Y141.747 E7.58452
G1 X139.005 Y141.705 E7.6022
G1 X139.49 Y141.589 E7.61879
G1 X139.975 Y141.391 E7.63621
G1 X140.408 Y141.125 E7.65312
G1 X140.796 Y140.794 E7.67008
G1 X141.126 Y140.406 E7.68702
G1 X141.392 Y139.972 E7.70395
G1 X141.589 Y139.49 E7.72127
G1 X141.705 Y139.004 E7.73789
G1 X141.747 Y138.475 E7.75554
G1 X141.747 Y81.525 E9.6497
G1 X141.705 Y80.992 E9.66748
G1 X141.589 Y80.51 E9.68397
G1 X141.391 Y80.025 E9.7014
G1 X141.125 Y79.592 E9.7183
G1 X140.794 Y79.204 E9.73526
G1 X140.408 Y78.876 E9.75211
G1 X139.971 Y78.608 E9.76916
G1 X139.49 Y78.411 E9.78645
G1 X139.004 Y78.295 E9.80307
G1 X138.475 Y78.252 E9.82072
G1 X81.525 Y78.253 E11.71488
G1 X80.995 Y78.295 E11.73257
G1 X80.51 Y78.411 E11.74915
G1 X80.025 Y78.609 E11.76658
G1 X79.592 Y78.875 E11.78348
G1 X79.204 Y79.206 E11.80044
G1 X78.874 Y79.594 E11.81738
G1 X78.608 Y80.028 E11.83431
G1 X78.411 Y80.51 E11.85163
G1 X78.295 Y80.996 E11.86825
G1 X78.252 Y81.525 E11.8859
G1 X78.252 Y81.661 E11.89043
G1 X78.253 Y138.475 E13.78007
G1 X78.295 Y139.005 E13.79775
G1 X78.411 Y139.49 E13.81434
G1 X78.608 Y139.972 E13.83166
G1 X78.874 Y140.406 E13.84859
G1 X79.204 Y140.794 E13.86553
G1 X79.592 Y141.125 E13.88249
G1 X80.025 Y141.391 E13.89939
G1 X80.51 Y141.588 E13.9168
G1 X80.996 Y141.705 E13.93343
G0 F6000 X80.933 Y142.101
;TYPE:WALL-OUTER
G1 F1200 X81.509 Y142.147 E13.95265
G1 X138.491 Y142.147 E15.84788
G1 X139.067 Y142.101 E15.8671
G1 X139.613 Y141.971 E15.88576
G1 X140.157 Y141.749 E15.90531
G1 X140.644 Y141.449 E15.92433
G1 X141.08 Y141.078 E15.94337
G1 X141.451 Y140.642 E15.96241
G1 X141.75 Y140.153 E15.98148
G1 X141.971 Y139.613 E16.00088
G1 X142.101 Y139.067 E16.01955
G1 X142.147 Y138.491 E16.03877
G1 X142.147 Y81.509 E17.934
G1 X142.101 Y80.929 E17.95335
G1 X141.971 Y80.387 E17.97189
G1 X141.749 Y79.843 E17.99143
G1 X141.449 Y79.356 E18.01045
G1 X141.078 Y78.92 E18.02949
G1 X140.644 Y78.551 E18.04844
G1 X140.153 Y78.25 E18.0676
G1 X139.613 Y78.029 E18.087
G1 X139.067 Y77.899 E18.10567
G1 X138.491 Y77.852 E18.12489
G1 X81.509 Y77.853 E20.02012
G1 X80.933 Y77.899 E20.03934
G1 X80.387 Y78.029 E20.05801
G1 X79.843 Y78.251 E20.07755
G1 X79.356 Y78.551 E20.09657
G1 X78.92 Y78.922 E20.11562
G1 X78.549 Y79.358 E20.13466
G1 X78.25 Y79.847 E20.15372
G1 X78.029 Y80.387 E20.17313
G1 X77.899 Y80.933 E20.19179
G1 X77.852 Y81.509 E20.21102
G1 X77.852 Y81.661 E20.21607
G1 X77.853 Y138.491 E22.10624
G1 X77.899 Y139.067 E22.12546
G1 X78.029 Y139.613 E22.14413
G1 X78.25 Y140.153 E22.16354
G1 X78.549 Y140.642 E22.1826
G1 X78.92 Y141.078 E22.20164
G1 X79.356 Y141.449 E22.22068
G1 X79.843 Y141.749 E22.23971
G1 X80.387 Y141.97 E22.25924
G1 X80.933 Y142.101 E22.27791
G0 F6000 X81.056 Y141.348
;TYPE:SKIN
G1 F1200 X81.54 Y141.387 E22.29406
G1 X138.46 Y141.386 E24.18723
G1 X138.944 Y141.348 E24.20338
G1 X139.366 Y141.246 E24.21782
G1 X139.813 Y141.068 E24.23382
G1 X140.196 Y140.831 E24.2488
G1 X140.542 Y140.538 E24.26388
G1 X140.835 Y140.193 E24.27893
G1 X141.071 Y139.807 E24.29398
G1 X141.246 Y139.366 E24.30976
G1 X141.348 Y138.944 E24.3242
G1 X141.386 Y138.459 E24.34038
G1 X141.387 Y81.54 E26.23352
G1 X141.348 Y81.047 E26.24997
G1 X141.248 Y80.635 E26.26407
G1 X141.068 Y80.187 E26.28012
G1 X140.831 Y79.804 E26.2951
G1 X140.538 Y79.458 E26.31018
G1 X140.197 Y79.168 E26.32507
G1 X139.807 Y78.929 E26.34029
G1 X139.366 Y78.754 E26.35607
G1 X138.945 Y78.652 E26.37047
G1 X138.461 Y78.612 E26.38663
G1 X81.54 Y78.613 E28.27983
G1 X81.056 Y78.652 E28.29598
G1 X80.634 Y78.754 E28.31042
G1 X80.187 Y78.932 E28.32642
G1 X79.804 Y79.169 E28.3414
G1 X79.458 Y79.462 E28.35648
G1 X79.165 Y79.807 E28.37153
G1 X78.929 Y80.193 E28.38658
G1 X78.754 Y80.634 E28.40236
G1 X78.652 Y81.055 E28.41677
G1 X78.612 Y81.541 E28.43299
G1 X78.613 Y138.46 E30.32612
G1 X78.652 Y138.944 E30.34227
G1 X78.754 Y139.366 E30.35671
G1 X78.929 Y139.807 E30.37249
G1 X79.164 Y140.193 E30.38752
G1 X79.458 Y140.537 E30.40258
G1 X79.804 Y140.831 E30.41768
G1 X80.187 Y141.068 E30.43266
G1 X80.634 Y141.245 E30.44865
G1 X81.056 Y141.348 E30.4631
G1 F1500 E23.9631
G0 F6000 X81.037 Y141.608
G0 X94.802 Y141.947
G0 X95.001 Y131.783
G0 X94.999 Y131.976
G1 F1500 E30.4631
G1 F1200 X93.919 Y131.806 E30.49946
G1 X93.629 Y131.71 E30.50962
G1 X92.654 Y131.206 E30.54612
G1 X91.773 Y130.315 E30.5878
G1 X91.22 Y129.214 E30.62878
G1 X91.032 Y128.013 E30.66921
G1 X91.03 Y127.971 E30.67061
G1 X91.219 Y126.784 E30.71059
G1 X91.771 Y125.688 E30.7514
G1 X92.669 Y124.78 E30.79388
G1 X93.772 Y124.218 E30.83505
G1 X95.007 Y124.027 E30.87661
G1 X96.209 Y124.213 E30.91707
G1 X97.337 Y124.783 E30.9591
G1 X98.223 Y125.676 E31.00094
G1 X98.785 Y126.79 E31.04244
G1 X98.969 Y128.023 E31.08391
G1 X98.78 Y129.231 E31.12457
G1 X98.207 Y130.34 E31.16609
G1 X97.326 Y131.219 E31.20748
G1 X96.224 Y131.781 E31.24863
G1 X94.999 Y131.976 E31.28989
G1 F1500 E24.78989
G0 F6000 X94.801 Y131.682
G0 X97.12 Y131.125
G0 X125.88 Y131.125
G0 X126.919 Y131.806
G1 F1500 E31.28989
G1 F1200 X126.629 Y131.71 E31.30005
G1 X125.656 Y131.205 E31.33651
G1 X124.787 Y130.336 E31.37738
G1 X124.216 Y129.223 E31.41899
G1 X124.033 Y128.035 E31.45897
G1 X124.031 Y127.984 E31.46066
G1 X124.213 Y126.809 E31.50021
G1 X124.733 Y125.763 E31.53906
G1 X124.871 Y125.576 E31.54679
G1 X125.659 Y124.793 E31.58374
G1 X126.772 Y124.222 E31.62535
G1 X128.003 Y124.026 E31.66681
G1 X129.231 Y124.22 E31.70816
G1 X130.34 Y124.793 E31.74967
G1 X131.219 Y125.674 E31.79107
G1 X131.784 Y126.78 E31.83237
G1 X131.973 Y127.999 E31.8734
G1 X131.805 Y129.093 E31.91022
G1 X131.722 Y129.344 E31.91901
G1 X131.221 Y130.324 E31.95562
G1 X130.326 Y131.219 E31.99771
G1 X129.224 Y131.781 E32.03886
G1 X127.999 Y131.976 E32.08011
G1 X126.919 Y131.806 E32.11648
G1 F1500 E25.61648
G0 F6000 X126.966 Y131.551
G0 X125.974 Y130.789
G0 X125.211 Y130.026
G0 X124.721 Y129.065
G0 X124.552 Y128
G0 X124.721 Y126.935
G0 X125.211 Y125.974
G0 X125.897 Y125.288
G0 X127.862 Y124.229
G0 X127.876 Y94.775
G0 X126.791 Y94.785
G1 F1500 E32.11648
G1 F1200 X125.784 Y94.278 E32.15398
G1 X125.571 Y94.125 E32.1627
G1 X124.776 Y93.324 E32.20023
G1 X124.213 Y92.201 E32.24202
G1 X124.031 Y91.028 E32.2815
G1 X124.029 Y90.983 E32.283
G1 X124.215 Y89.795 E32.32299
G1 X124.793 Y88.662 E32.36529
G1 X125.664 Y87.786 E32.40638
G1 X126.664 Y87.276 E32.44372
G1 X126.907 Y87.196 E32.45223
G1 X128.001 Y87.024 E32.48906
G1 X129.081 Y87.194 E32.52542
G1 X129.371 Y87.29 E32.53558
G1 X130.341 Y87.79 E32.57188
G1 X131.215 Y88.661 E32.61292
G1 X131.784 Y89.78 E32.65467
G1 X131.973 Y90.999 E32.6957
G1 X131.805 Y92.093 E32.73251
G1 X131.711 Y92.371 E32.74227
G1 X131.226 Y93.32 E32.77772
G1 X130.354 Y94.199 E32.8189
G1 X129.24 Y94.777 E32.86064
G1 X127.998 Y94.976 E32.90248
G1 X126.791 Y94.785 E32.94313
G1 F1500 E26.44313
G0 F6000 X127.007 Y94.558
G0 X125.88 Y94.125
G0 X97.12 Y94.125
G0 X94.99 Y94.974
G1 F1500 E32.94313
G1 F1200 X93.769 Y94.782 E32.98424
G1 X92.671 Y94.219 E33.02528
G1 X91.793 Y93.34 E33.0666
G1 X91.22 Y92.214 E33.10862
G1 X91.032 Y91.013 E33.14905
G1 X91.03 Y90.971 E33.15045
G1 X91.228 Y89.752 E33.19152
G1 X91.795 Y88.658 E33.23251
G1 X92.664 Y87.786 E33.27345
G1 X93.664 Y87.276 E33.31079
G1 X93.907 Y87.196 E33.3193
G1 X95.001 Y87.024 E33.35613
G1 X96.081 Y87.194 E33.3925
G1 X96.371 Y87.29 E33.40266
G1 X97.341 Y87.79 E33.43895
G1 X98.199 Y88.647 E33.47929
G1 X98.784 Y89.774 E33.52152
G1 X98.971 Y91.021 E33.56346
G1 X98.787 Y92.192 E33.60288
G1 X98.233 Y93.305 E33.64423
G1 X97.337 Y94.211 E33.68662
G1 X96.225 Y94.784 E33.72822
G1 X94.99 Y94.974 E33.76978
G1 F1500 E27.26978
G0 F6000 X94.831 Y94.687
G0 X96.065 Y94.279
G0 X96.929 Y93.838
G0 X98.553 Y92.282
G0 X133.339 Y78.452
G0 X139.585 Y79.057
G1 F1500 E33.76978
G1 F1200 X140.944 Y80.415 E33.83368
G0 F6000 X141.159 Y81.196
G1 F1200 X138.804 Y78.841 E33.94445
G0 F6000 X138.209 Y78.812
G1 F1200 X141.186 Y81.789 E34.08448
G0 F6000 X141.186 Y82.355
G1 F1200 X137.643 Y78.812 E34.25113
G0 F6000 X137.078 Y78.812
G1 F1200 X141.186 Y82.92 E34.44436
G0 F6000 X141.186 Y83.486
G1 F1200 X136.512 Y78.812 E34.66421
G0 F6000 X135.946 Y78.812
G1 F1200 X141.186 Y84.052 E34.91069
G0 F6000 X141.186 Y84.618
G1 F1200 X135.381 Y78.812 E35.18376
G0 F6000 X134.815 Y78.812
G1 F1200 X141.186 Y85.183 E35.48343
G0 F6000 X141.186 Y85.749
G1 F1200 X134.249 Y78.812 E35.80973
G0 F6000 X133.684 Y78.812
G1 F1200 X141.186 Y86.315 E36.16262
G0 F6000 X141.186 Y86.88
G1 F1200 X133.118 Y78.812 E36.54212
G0 F6000 X132.552 Y78.812
G1 F1200 X141.186 Y87.446 E36.94823
G0 F6000 X141.186 Y88.012
G1 F1200 X131.987 Y78.812 E37.38095
G0 F6000 X131.421 Y78.812
G1 F1200 X141.186 Y88.577 E37.84026
G0 F6000 X141.186 Y89.143
G1 F1200 X130.855 Y78.812 E38.3262
G0 F6000 X130.29 Y78.812
G1 F1200 X141.186 Y89.709 E38.83874
G0 F6000 X141.186 Y90.274
G1 F1200 X129.724 Y78.812 E39.37788
G0 F6000 X129.158 Y78.812
G1 F1200 X141.186 Y90.84 E39.94364
G0 F6000 X141.186 Y91.406
G1 F1200 X128.593 Y78.812 E40.536
G0 F6000 X128.027 Y78.812
G1 F1200 X141.186 Y91.971 E41.15496
G0 F6000 X141.186 Y92.537
G1 F1200 X127.461 Y78.812 E41.80054
G0 F6000 X126.895 Y78.812
G1 F1200 X141.186 Y93.103 E42.47274
G0 F6000 X141.186 Y93.669
G1 F1200 X126.33 Y78.812 E43.17155
G0 F6000 X125.764 Y78.812
G1 F1200 X141.186 Y94.234 E43.89695
G0 F6000 X141.186 Y94.8
G1 F1200 X125.198 Y78.812 E44.64898
G0 F6000 X124.633 Y78.812
G1 F1200 X141.186 Y95.366 E45.4276
G0 F6000 X141.186 Y95.931
G1 F1200 X124.067 Y78.812 E46.23283
G0 F6000 X123.501 Y78.812
G1 F1200 X141.186 Y96.497 E47.06468
