;FLAVOR:Marlin
;TIME:8857
;Filament used: 7.95158m
;Layer height: 0.2
;MINX:69.852
;MINY:69.852
;MINZ:0.2
;MAXX:150.148
;MAXY:150.148
;MAXZ:9
;Generated with Cura_SteamEngine 5.2.2
M82 ;absolute extrusion mode
; Ender 3 Custom Start G-code
G92 E0 ; Reset Extruder
G28 ; Home all axes
M104 S175 ; Start heating up the nozzle most of the way
M190 S60 ; Start heating the bed, wait until target temperature reached
M109 S215.0 ; Finish heating the nozzle
G1 Z2.0 F3000 ; Move Z Axis up little to prevent scratching of Heat Bed
G1 X0.1 Y20 Z0.3 F5000.0 ; Move to start position
G1 X0.1 Y200.0 Z0.3 F1500.0 E15 ; Draw the first line
G1 X0.4 Y200.0 Z0.3 F5000.0 ; Move to side a little
G1 X0.4 Y20 Z0.3 F1500.0 E30 ; Draw the second line
G92 E0 ; Reset Extruder
G1 Z2.0 F3000 ; Move Z Axis up little to prevent scratching of Heat Bed
G1 X5 Y20 Z0.3 F5000.0 ; Move over to prevent blob squish
G92 E0
G92 E0
G1 F1500 E-6.5
;LAYER_COUNT:45
;LAYER:0
M107
G0 F6000 X73.39 Y73.142 Z0.2
;TYPE:SKIRT
G1 F1500 E0
G1 F1200 X73.711 Y72.852 E0.01439
G1 X74.172 Y72.458 E0.03456
G1 X74.798 Y71.976 E0.06084
G1 X75.159 Y71.74 E0.07518
G1 X75.672 Y71.425 E0.0952
G1 X76.365 Y71.046 E0.12147
G1 X76.77 Y70.865 E0.13623
G1 X77.328 Y70.634 E0.15632
G1 X78.072 Y70.369 E0.18258
G1 X78.486 Y70.257 E0.19685
G1 X79.072 Y70.116 E0.21689
G1 X79.848 Y69.971 E0.24315
G1 X80.292 Y69.924 E0.258
G1 X80.896 Y69.877 E0.27815
G1 X81.501 Y69.853 E0.29829
G1 X138.499 Y69.852 E2.19405
G1 X139.117 Y69.877 E2.21462
G1 X139.721 Y69.925 E2.23477
G1 X140.504 Y70.027 E2.26104
G1 X140.928 Y70.116 E2.27545
G1 X141.514 Y70.257 E2.29549
G1 X142.271 Y70.481 E2.32175
G1 X142.671 Y70.633 E2.33598
G1 X143.227 Y70.863 E2.356
G1 X143.94 Y71.202 E2.38225
G1 X144.324 Y71.423 E2.39699
G1 X144.839 Y71.739 E2.41709
G1 X145.491 Y72.185 E2.44336
G1 X145.826 Y72.456 E2.45769
G1 X146.285 Y72.848 E2.47777
G1 X146.858 Y73.39 E2.504
G1 X147.148 Y73.711 E2.51839
G1 X147.542 Y74.172 E2.53856
G1 X148.024 Y74.798 E2.56484
G1 X148.26 Y75.159 E2.57918
G1 X148.575 Y75.672 E2.5992
G1 X148.954 Y76.365 E2.62548
G1 X149.133 Y76.765 E2.64005
G1 X149.364 Y77.322 E2.66011
G1 X149.629 Y78.066 E2.68638
G1 X149.743 Y78.488 E2.70091
G1 X149.884 Y79.075 E2.72099
G1 X150.03 Y79.851 E2.74726
G1 X150.076 Y80.29 E2.76194
G1 X150.123 Y80.892 E2.78202
G1 X150.147 Y81.499 E2.80223
G1 X150.148 Y138.499 E4.69805
G1 X150.123 Y139.117 E4.71862
G1 X150.075 Y139.721 E4.73878
G1 X149.973 Y140.504 E4.76504
G1 X149.885 Y140.921 E4.77921
G1 X149.745 Y141.505 E4.79919
G1 X149.522 Y142.263 E4.82547
G1 X149.367 Y142.67 E4.83995
G1 X149.136 Y143.228 E4.86004
G1 X148.797 Y143.942 E4.88633
G1 X148.577 Y144.324 E4.90099
G1 X148.261 Y144.839 E4.92109
G1 X147.815 Y145.491 E4.94736
G1 X147.544 Y145.826 E4.96169
G1 X147.152 Y146.285 E4.98177
G1 X146.61 Y146.858 E5.008
G1 X146.288 Y147.149 E5.02244
G1 X145.828 Y147.542 E5.04256
G1 X145.202 Y148.024 E5.06884
G1 X144.846 Y148.257 E5.08299
G1 X144.332 Y148.573 E5.10306
G1 X143.639 Y148.952 E5.12933
G1 X143.23 Y149.135 E5.14423
G1 X142.672 Y149.366 E5.16432
G1 X141.928 Y149.631 E5.19059
G1 X141.514 Y149.743 E5.20485
G1 X140.928 Y149.884 E5.2249
G1 X140.152 Y150.029 E5.25115
G1 X139.708 Y150.076 E5.266
G1 X139.104 Y150.123 E5.28615
G1 X138.499 Y150.147 E5.30629
G1 X81.501 Y150.148 E7.20205
G1 X80.883 Y150.123 E7.22262
G1 X80.279 Y150.075 E7.24278
G1 X79.496 Y149.973 E7.26904
G1 X79.072 Y149.884 E7.28345
G1 X78.486 Y149.743 E7.3035
G1 X77.729 Y149.519 E7.32975
G1 X77.328 Y149.366 E7.34403
G1 X76.77 Y149.135 E7.36411
G1 X76.056 Y148.796 E7.3904
G1 X75.668 Y148.573 E7.40529
G1 X75.154 Y148.257 E7.42536
G1 X74.503 Y147.81 E7.45162
G1 X74.172 Y147.542 E7.46579
G1 X73.712 Y147.149 E7.48591
G1 X73.139 Y146.607 E7.51214
G1 X72.848 Y146.285 E7.52658
G1 X72.456 Y145.826 E7.54665
G1 X71.974 Y145.2 E7.57293
G1 X71.739 Y144.839 E7.58726
G1 X71.423 Y144.324 E7.60736
G1 X71.044 Y143.631 E7.63363
G1 X70.864 Y143.228 E7.64831
G1 X70.633 Y142.67 E7.66839
G1 X70.368 Y141.926 E7.69466
G1 X70.255 Y141.505 E7.70916
G1 X70.115 Y140.921 E7.72913
G1 X69.97 Y140.145 E7.75539
G1 X69.924 Y139.71 E7.76994
G1 X69.877 Y139.108 E7.79002
G1 X69.853 Y138.501 E7.81023
G1 X69.852 Y81.501 E9.70605
G1 X69.877 Y80.883 E9.72663
G1 X69.925 Y80.279 E9.74678
G1 X70.027 Y79.496 E9.77304
G1 X70.115 Y79.079 E9.78722
G1 X70.255 Y78.495 E9.80719
G1 X70.478 Y77.737 E9.83347
G1 X70.633 Y77.33 E9.84796
G1 X70.864 Y76.772 E9.86804
G1 X71.203 Y76.058 E9.89433
G1 X71.423 Y75.676 E9.90899
G1 X71.739 Y75.161 E9.92909
G1 X72.185 Y74.509 E9.95536
G1 X72.456 Y74.174 E9.96969
G1 X72.848 Y73.715 E9.98977
G1 X73.39 Y73.142 E10.016
G0 F6000 X73.681 Y73.417
G1 F1200 X73.971 Y73.156 E10.02898
G1 X74.432 Y72.762 E10.04915
G1 X75.042 Y72.293 E10.07474
G1 X75.368 Y72.081 E10.08768
G1 X75.881 Y71.766 E10.1077
G1 X76.556 Y71.398 E10.13327
G1 X76.923 Y71.235 E10.14663
G1 X77.481 Y71.004 E10.16671
G1 X78.206 Y70.747 E10.1923
G1 X78.58 Y70.646 E10.20518
G1 X79.166 Y70.505 E10.22523
G1 X79.922 Y70.365 E10.2508
G1 X80.323 Y70.322 E10.26421
G1 X80.927 Y70.275 E10.28436
G1 X81.501 Y70.253 E10.30347
G1 X138.499 Y70.252 E12.19923
G1 X139.085 Y70.275 E12.21873
G1 X139.689 Y70.323 E12.23889
G1 X140.452 Y70.424 E12.26449
G1 X140.834 Y70.505 E12.27747
G1 X141.42 Y70.646 E12.29752
G1 X142.158 Y70.865 E12.32312
G1 X142.518 Y71.003 E12.33595
G1 X143.074 Y71.233 E12.35596
G1 X143.768 Y71.564 E12.38153
G1 X144.115 Y71.764 E12.39485
G1 X144.63 Y72.08 E12.41495
G1 X145.264 Y72.515 E12.44052
G1 X145.566 Y72.76 E12.45346
G1 X146.025 Y73.152 E12.47353
G1 X146.583 Y73.681 E12.49911
G1 X146.844 Y73.971 E12.51209
G1 X147.238 Y74.432 E12.53226
G1 X147.707 Y75.042 E12.55785
G1 X147.919 Y75.368 E12.57078
G1 X148.234 Y75.881 E12.5908
G1 X148.602 Y76.556 E12.61637
G1 X148.763 Y76.918 E12.62955
G1 X148.994 Y77.475 E12.64961
G1 X149.252 Y78.2 E12.6752
G1 X149.354 Y78.582 E12.68835
G1 X149.495 Y79.169 E12.70843
G1 X149.636 Y79.925 E12.73401
G1 X149.678 Y80.321 E12.74725
G1 X149.725 Y80.923 E12.76734
G1 X149.747 Y81.499 E12.78651
G1 X149.748 Y138.499 E14.68234
G1 X149.725 Y139.085 E14.70184
G1 X149.677 Y139.689 E14.722
G1 X149.576 Y140.452 E14.74759
G1 X149.496 Y140.828 E14.76038
G1 X149.356 Y141.412 E14.78035
G1 X149.138 Y142.15 E14.80595
G1 X148.997 Y142.517 E14.81903
G1 X148.766 Y143.075 E14.83911
G1 X148.436 Y143.77 E14.8647
G1 X148.236 Y144.115 E14.87796
G1 X147.92 Y144.63 E14.89806
G1 X147.485 Y145.264 E14.92363
G1 X147.24 Y145.566 E14.93657
G1 X146.848 Y146.025 E14.95664
G1 X146.319 Y146.583 E14.98222
G1 X146.028 Y146.845 E14.99524
G1 X145.568 Y147.238 E15.01536
G1 X144.637 Y147.916 E15.05367
G1 X144.123 Y148.232 E15.07374
G1 X143.447 Y148.6 E15.09934
G1 X143.077 Y148.765 E15.11281
G1 X142.519 Y148.996 E15.1329
G1 X141.794 Y149.253 E15.15848
G1 X141.42 Y149.354 E15.17137
G1 X140.834 Y149.495 E15.19142
G1 X140.078 Y149.635 E15.21699
G1 X139.677 Y149.678 E15.2304
G1 X139.073 Y149.725 E15.25055
G1 X138.499 Y149.747 E15.26966
G1 X81.501 Y149.748 E17.16542
G1 X80.915 Y149.725 E17.18492
G1 X80.311 Y149.677 E17.20508
G1 X79.548 Y149.576 E17.23067
G1 X79.166 Y149.495 E17.24366
G1 X78.58 Y149.354 E17.26371
G1 X77.842 Y149.135 E17.28931
G1 X77.481 Y148.996 E17.30218
G1 X76.923 Y148.765 E17.32227
G1 X76.228 Y148.435 E17.34785
G1 X75.877 Y148.232 E17.36134
G1 X75.363 Y147.916 E17.38141
G1 X74.432 Y147.238 E17.41972
G1 X73.972 Y146.845 E17.43984
G1 X73.414 Y146.316 E17.46541
G1 X73.152 Y146.025 E17.47844
G1 X72.76 Y145.566 E17.49851
G1 X72.291 Y144.956 E17.5241
G1 X72.08 Y144.63 E17.53702
G1 X71.764 Y144.115 E17.55712
G1 X71.396 Y143.44 E17.58269
G1 X71.234 Y143.075 E17.59597
G1 X71.003 Y142.517 E17.61605
G1 X70.746 Y141.792 E17.64164
G1 X70.644 Y141.412 E17.65472
G1 X70.504 Y140.828 E17.6747
G1 X70.364 Y140.072 E17.70027
G1 X70.322 Y139.679 E17.71342
G1 X70.275 Y139.077 E17.7335
G1 X70.253 Y138.501 E17.75267
G1 X70.252 Y81.501 E19.6485
G1 X70.275 Y80.915 E19.66801
G1 X70.323 Y80.311 E19.68816
G1 X70.424 Y79.548 E19.71376
G1 X70.504 Y79.172 E19.72654
G1 X70.644 Y78.588 E19.74652
G1 X70.862 Y77.85 E19.77211
G1 X71.003 Y77.483 E19.78519
G1 X71.234 Y76.925 E19.80527
G1 X71.564 Y76.23 E19.83086
G1 X71.764 Y75.885 E19.84413
G1 X72.08 Y75.37 E19.86422
G1 X72.515 Y74.736 E19.8898
G1 X72.76 Y74.434 E19.90273
G1 X73.152 Y73.975 E19.92281
G1 X73.681 Y73.417 E19.94838
G0 F6000 X74.231 Y73.46
G1 F1200 X74.692 Y73.066 E19.96855
G1 X75.577 Y72.422 E20.00495
G1 X76.09 Y72.107 E20.02498
G1 X77.076 Y71.604 E20.06179
G1 X77.634 Y71.373 E20.08188
G1 X78.673 Y71.035 E20.11822
G1 X79.259 Y70.894 E20.13826
G1 X80.354 Y70.721 E20.17514
G1 X80.958 Y70.674 E20.19529
G1 X81.501 Y70.653 E20.21336
G1 X138.499 Y70.652 E22.10912
G1 X139.054 Y70.674 E22.1276
G1 X139.658 Y70.722 E22.14775
G1 X140.741 Y70.894 E22.18422
G1 X141.327 Y71.035 E22.20427
G1 X142.365 Y71.373 E22.24057
G1 X142.921 Y71.603 E22.26059
G1 X143.906 Y72.105 E22.29736
G1 X144.421 Y72.421 E22.31745
G1 X145.306 Y73.064 E22.35384
G1 X145.765 Y73.456 E22.37391
G1 X146.54 Y74.231 E22.41037
G1 X146.934 Y74.692 E22.43054
G1 X147.578 Y75.577 E22.46694
G1 X147.893 Y76.09 E22.48696
G1 X148.394 Y77.071 E22.5236
G1 X148.625 Y77.628 E22.54366
G1 X148.965 Y78.675 E22.58027
G1 X149.106 Y79.262 E22.60035
G1 X149.279 Y80.352 E22.63706
G1 X149.326 Y80.954 E22.65714
G1 X149.347 Y81.499 E22.67528
G1 X149.348 Y138.499 E24.57111
G1 X149.326 Y139.054 E24.58958
G1 X149.278 Y139.658 E24.60973
G1 X149.107 Y140.735 E24.646
G1 X148.967 Y141.319 E24.66598
G1 X148.628 Y142.364 E24.70252
G1 X148.397 Y142.922 E24.72261
G1 X147.895 Y143.906 E24.75935
G1 X147.579 Y144.421 E24.77944
G1 X146.936 Y145.306 E24.81583
G1 X146.544 Y145.765 E24.8359
G1 X145.768 Y146.541 E24.8724
G1 X145.308 Y146.934 E24.89253
G1 X144.427 Y147.575 E24.92876
G1 X143.913 Y147.891 E24.94883
G1 X142.924 Y148.396 E24.98577
G1 X142.366 Y148.627 E25.00585
G1 X141.327 Y148.965 E25.04219
G1 X140.741 Y149.106 E25.06224
G1 X139.646 Y149.279 E25.09911
G1 X139.042 Y149.326 E25.11926
G1 X138.499 Y149.347 E25.13733
G1 X81.501 Y149.348 E27.0331
G1 X80.946 Y149.326 E27.05157
G1 X80.342 Y149.278 E27.07172
G1 X79.259 Y149.106 E27.10819
G1 X78.673 Y148.965 E27.12824
G1 X77.634 Y148.627 E27.16458
G1 X77.076 Y148.396 E27.18467
G1 X76.087 Y147.891 E27.2216
G1 X75.573 Y147.575 E27.24167
G1 X74.692 Y146.934 E27.27791
G1 X74.232 Y146.541 E27.29803
G1 X73.456 Y145.765 E27.33453
G1 X73.064 Y145.306 E27.35461
G1 X72.421 Y144.421 E27.39099
G1 X72.105 Y143.906 E27.41109
G1 X71.603 Y142.922 E27.44783
G1 X71.372 Y142.364 E27.46792
G1 X71.033 Y141.319 E27.50446
G1 X70.893 Y140.735 E27.52443
G1 X70.721 Y139.648 E27.56103
G1 X70.674 Y139.046 E27.58112
G1 X70.653 Y138.501 E27.59926
G1 X70.652 Y81.501 E29.49508
G1 X70.674 Y80.946 E29.51356
G1 X70.722 Y80.342 E29.53371
G1 X70.893 Y79.265 E29.56998
G1 X71.033 Y78.681 E29.58996
G1 X71.372 Y77.636 E29.6265
G1 X71.603 Y77.078 E29.64658
G1 X72.105 Y76.094 E29.68332
G1 X72.421 Y75.579 E29.70342
G1 X73.064 Y74.694 E29.7398
G1 X73.456 Y74.235 E29.75988
G1 X74.231 Y73.46 E29.79633
G0 F6000 X74.491 Y73.764
G1 F1200 X74.952 Y73.37 E29.8165
G1 X75.786 Y72.763 E29.85081
G1 X76.299 Y72.448 E29.87083
G1 X77.229 Y71.974 E29.90555
G1 X77.787 Y71.743 E29.92564
G1 X78.767 Y71.424 E29.95992
G1 X79.353 Y71.283 E29.97996
G1 X80.385 Y71.12 E30.01471
G1 X80.989 Y71.073 E30.03486
G1 X81.501 Y71.053 E30.0519
G1 X138.499 Y71.052 E31.94767
G1 X139.022 Y71.073 E31.96508
G1 X139.626 Y71.121 E31.98523
G1 X140.647 Y71.283 E32.01961
G1 X141.233 Y71.424 E32.03966
G1 X142.212 Y71.742 E32.07389
G1 X142.768 Y71.972 E32.09391
G1 X143.697 Y72.446 E32.12859
G1 X144.212 Y72.762 E32.14869
G1 X145.046 Y73.368 E32.18298
G1 X145.505 Y73.76 E32.20306
G1 X146.236 Y74.491 E32.23744
G1 X146.63 Y74.952 E32.25761
G1 X147.237 Y75.786 E32.29192
G1 X147.552 Y76.299 E32.31194
G1 X148.025 Y77.225 E32.34652
G1 X148.256 Y77.782 E32.36658
G1 X148.576 Y78.768 E32.40106
G1 X148.717 Y79.355 E32.42114
G1 X148.88 Y80.383 E32.45576
G1 X148.927 Y80.985 E32.47584
G1 X148.947 Y81.499 E32.49295
G1 X148.948 Y138.499 E34.38878
G1 X148.927 Y139.022 E34.40618
G1 X148.879 Y139.626 E34.42634
G1 X148.718 Y140.642 E34.46055
G1 X148.578 Y141.226 E34.48053
G1 X148.258 Y142.211 E34.51497
G1 X148.027 Y142.769 E34.53506
G1 X147.554 Y143.697 E34.5697
G1 X147.238 Y144.212 E34.5898
G1 X146.632 Y145.046 E34.62409
G1 X146.24 Y145.505 E34.64416
G1 X145.508 Y146.237 E34.67859
G1 X145.048 Y146.63 E34.69872
G1 X144.218 Y147.234 E34.73286
G1 X143.704 Y147.55 E34.75293
G1 X142.771 Y148.026 E34.78776
G1 X142.213 Y148.257 E34.80785
G1 X141.233 Y148.576 E34.84213
G1 X140.647 Y148.717 E34.86218
G1 X139.615 Y148.88 E34.89693
G1 X139.011 Y148.927 E34.91708
G1 X138.499 Y148.947 E34.93412
G1 X81.501 Y148.948 E36.82988
G1 X80.978 Y148.927 E36.84729
G1 X80.374 Y148.879 E36.86744
G1 X79.353 Y148.717 E36.90182
G1 X78.767 Y148.576 E36.92187
G1 X77.787 Y148.257 E36.95615
G1 X77.229 Y148.026 E36.97624
G1 X76.296 Y147.55 E37.01107
G1 X75.782 Y147.234 E37.03114
G1 X74.952 Y146.63 E37.06528
G1 X74.492 Y146.237 E37.08541
G1 X73.76 Y145.505 E37.11984
G1 X73.368 Y145.046 E37.13991
G1 X72.762 Y144.212 E37.1742
G1 X72.446 Y143.697 E37.1943
G1 X71.973 Y142.769 E37.22894
G1 X71.742 Y142.211 E37.24903
G1 X71.422 Y141.226 E37.28347
G1 X71.282 Y140.642 E37.30345
G1 X71.12 Y139.617 E37.33796
G1 X71.073 Y139.015 E37.35805
G1 X71.053 Y138.501 E37.37516
G1 X71.052 Y81.501 E39.27098
G1 X71.073 Y80.978 E39.28839
G1 X71.121 Y80.374 E39.30854
G1 X71.282 Y79.358 E39.34276
G1 X71.422 Y78.774 E39.36273
G1 X71.742 Y77.789 E39.39718
G1 X71.973 Y77.231 E39.41727
G1 X72.446 Y76.303 E39.45191
G1 X72.762 Y75.788 E39.47201
G1 X73.368 Y74.954 E39.50629
G1 X73.76 Y74.495 E39.52637
G1 X74.491 Y73.764 E39.56075
G0 F6000 X74.751 Y74.068
G1 F1200 X75.212 Y73.674 E39.58092
G1 X75.996 Y73.104 E39.61316
G1 X76.509 Y72.789 E39.63319
G1 X77.382 Y72.343 E39.66579
G1 X77.94 Y72.112 E39.68588
G1 X78.861 Y71.813 E39.71809
G1 X79.447 Y71.672 E39.73813
G1 X80.416 Y71.519 E39.77076
G1 X81.02 Y71.472 E39.79091
G1 X81.501 Y71.453 E39.80692
G1 X138.499 Y71.452 E41.70268
G1 X138.99 Y71.471 E41.71902
G1 X139.594 Y71.519 E41.73918
G1 X140.553 Y71.672 E41.77148
G1 X141.139 Y71.813 E41.79152
G1 X142.059 Y72.112 E41.8237
G1 X142.615 Y72.342 E41.84371
G1 X143.488 Y72.786 E41.87629
G1 X144.003 Y73.102 E41.89638
G1 X144.786 Y73.672 E41.9286
G1 X145.245 Y74.064 E41.94867
G1 X145.932 Y74.751 E41.98099
G1 X146.326 Y75.212 E42.00116
G1 X146.896 Y75.996 E42.0334
G1 X147.211 Y76.509 E42.05342
G1 X147.655 Y77.378 E42.08587
G1 X147.886 Y77.935 E42.10593
G1 X148.188 Y78.862 E42.13836
G1 X148.329 Y79.449 E42.15844
G1 X148.481 Y80.414 E42.19093
G1 X148.528 Y81.016 E42.21101
G1 X148.547 Y81.499 E42.22709
G1 X148.548 Y138.499 E44.12292
G1 X148.529 Y138.99 E44.13926
G1 X148.481 Y139.594 E44.15941
G1 X148.329 Y140.548 E44.19154
G1 X148.189 Y141.132 E44.21152
G1 X147.889 Y142.058 E44.24389
G1 X147.658 Y142.616 E44.26398
G1 X147.214 Y143.488 E44.29652
G1 X146.898 Y144.003 E44.31662
G1 X146.328 Y144.786 E44.34883
G1 X145.936 Y145.245 E44.36891
G1 X145.248 Y145.933 E44.40127
G1 X144.788 Y146.326 E44.42139
G1 X144.008 Y146.894 E44.45349
G1 X143.494 Y147.21 E44.47355
G1 X142.618 Y147.657 E44.50626
G1 X142.06 Y147.888 E44.52635
G1 X141.139 Y148.187 E44.55856
G1 X140.553 Y148.328 E44.5786
G1 X139.584 Y148.481 E44.61123
G1 X138.98 Y148.528 E44.63138
G1 X138.499 Y148.547 E44.64739
G1 X81.501 Y148.548 E46.54315
G1 X81.01 Y148.529 E46.5595
G1 X80.406 Y148.481 E46.57965
G1 X79.447 Y148.328 E46.61195
G1 X78.861 Y148.187 E46.632
G1 X77.94 Y147.888 E46.6642
G1 X77.382 Y147.657 E46.68429
G1 X76.506 Y147.21 E46.717
G1 X75.992 Y146.894 E46.73707
G1 X75.212 Y146.326 E46.76916
G1 X74.752 Y145.933 E46.78928
G1 X74.064 Y145.245 E46.82164
G1 X73.672 Y144.786 E46.84172
G1 X73.102 Y144.003 E46.87393
G1 X72.786 Y143.488 E46.89403
G1 X72.342 Y142.616 E46.92658
G1 X72.111 Y142.058 E46.94666
G1 X71.811 Y141.132 E46.97904
G1 X71.671 Y140.548 E46.99901
G1 X71.519 Y139.586 E47.0314
G1 X71.472 Y138.984 E47.05149
G1 X71.453 Y138.501 E47.06756
G1 X71.452 Y81.501 E48.96339
G1 X71.471 Y81.01 E48.97974
G1 X71.519 Y80.406 E48.99989
G1 X71.671 Y79.452 E49.03202
G1 X71.811 Y78.868 E49.05199
G1 X72.111 Y77.942 E49.08437
