;FLAVOR:Marlin
;TIME:4499
;Filament used: 4.14644m
;Layer height: 0.28
;MINX:77
;MINY:56
;MINZ:0.28
;MAXX:143
;MAXY:162
;MAXZ:12.88
;Generated with Cura_SteamEngine 5.2.2
M82 ;absolute extrusion mode
; Ender 3 Custom Start G-code
G92 E0 ; Reset Extruder
G28 ; Home all axes
M104 S175 ; Start heating up the nozzle most of the way
M190 S60 ; Start heating the bed, wait until target temperature reached
M109 S200 ; Finish heating the nozzle
G1 Z2.0 F3000 ; Move Z Axis up little to prevent scratching of Heat Bed
G1 X0.1 Y20 Z0.3 F5000.0 ; Move to start position
G1 X0.1 Y200.0 Z0.3 F1500.0 E15 ; Draw the first line
G1 X0.4 Y200.0 Z0.3 F5000.0 ; Move to side a little
G1 X0.4 Y20 Z0.3 F1500.0 E30 ; Draw the second line
G92 E0 ; Reset Extruder
G1 Z2.0 F3000 ; Move Z Axis up little to prevent scratching of Heat Bed
G1 X5 Y20 Z0.3 F5000.0 ; Move over to prevent blob squish
G92 E0
G92 E0
G1 F1500 E-6.5
;LAYER_COUNT:46
;LAYER:0
M107
G0 F6000 X78.996 Y60.703 Z0.28
;TYPE:SKIRT
G1 F1500 E0
G1 F1200 X79.566 Y59.958 E0.04368
G1 X80.198 Y59.264 E0.08739
G1 X80.886 Y58.627 E0.13105
G1 X81.626 Y58.051 E0.17471
G1 X82.412 Y57.539 E0.21839
G1 X83.239 Y57.097 E0.26205
G1 X84.101 Y56.727 E0.30573
G1 X84.991 Y56.431 E0.34941
G1 X85.903 Y56.213 E0.39307
G1 X86.83 Y56.072 E0.43673
G1 X87.701 Y56.013 E0.47738
G1 X88.33 Y56 E0.50668
G1 X131.451 Y56.001 E2.51457
G1 X132.149 Y56.011 E2.54708
G1 X133.085 Y56.065 E2.59073
G1 X134.013 Y56.197 E2.63438
G1 X134.927 Y56.409 E2.67807
G1 X135.819 Y56.698 E2.72173
G1 X136.684 Y57.061 E2.76541
G1 X137.514 Y57.497 E2.80907
G1 X138.305 Y58.002 E2.85277
G1 X139.049 Y58.573 E2.89644
G1 X139.742 Y59.205 E2.94011
G1 X140.379 Y59.893 E2.98377
G1 X140.954 Y60.634 E3.02744
G1 X141.465 Y61.42 E3.0711
G1 X141.907 Y62.248 E3.1148
G1 X142.276 Y63.11 E3.15846
G1 X142.571 Y64 E3.20212
G1 X142.789 Y64.912 E3.24579
G1 X142.929 Y65.84 E3.28949
G1 X142.987 Y66.701 E3.32967
G1 X143 Y67.33 E3.35896
G1 X142.999 Y150.4 E7.22705
G1 X142.99 Y151.127 E7.26091
G1 X142.939 Y152.064 E7.3046
G1 X142.807 Y152.992 E7.34825
G1 X142.598 Y153.906 E7.39191
G1 X142.311 Y154.799 E7.43558
G1 X141.949 Y155.665 E7.47929
G1 X141.515 Y156.496 E7.52294
G1 X141.011 Y157.287 E7.56662
G1 X140.442 Y158.032 E7.61027
G1 X139.811 Y158.727 E7.65398
G1 X139.124 Y159.365 E7.69763
G1 X138.385 Y159.942 E7.74129
G1 X137.599 Y160.454 E7.78497
G1 X136.773 Y160.897 E7.82862
G1 X135.911 Y161.269 E7.87233
G1 X135.022 Y161.565 E7.91596
G1 X134.11 Y161.785 E7.95965
G1 X133.183 Y161.926 E8.00331
G1 X132.299 Y161.987 E8.04457
G1 X131.67 Y162 E8.07386
G1 X88.565 Y161.999 E10.08101
G1 X87.867 Y161.99 E10.11352
G1 X86.931 Y161.938 E10.15717
G1 X86.002 Y161.806 E10.20086
G1 X85.088 Y161.596 E10.24453
G1 X84.195 Y161.309 E10.28821
G1 X83.33 Y160.946 E10.33189
G1 X82.499 Y160.512 E10.37554
G1 X81.708 Y160.008 E10.41922
G1 X80.963 Y159.438 E10.46289
G1 X80.269 Y158.807 E10.50657
G1 X79.632 Y158.12 E10.5502
G1 X79.055 Y157.38 E10.59389
G1 X78.543 Y156.594 E10.63757
G1 X78.1 Y155.767 E10.68125
G1 X77.729 Y154.906 E10.72491
G1 X77.433 Y154.016 E10.76858
G1 X77.214 Y153.104 E10.81226
G1 X77.073 Y152.177 E10.85592
G1 X77.013 Y151.288 E10.89741
G1 X77 Y150.658 E10.92675
G1 X77.001 Y67.525 E14.79777
G1 X77.01 Y66.86 E14.82874
G1 X77.063 Y65.924 E14.87239
G1 X77.195 Y64.995 E14.91609
G1 X77.406 Y64.081 E14.95976
G1 X77.694 Y63.189 E15.00341
G1 X78.057 Y62.324 E15.04709
G1 X78.492 Y61.493 E15.09077
G1 X78.996 Y60.703 E15.1344
G0 F6000 X79.392 Y60.835
G1 F1200 X79.961 Y60.111 E15.17728
G1 X80.589 Y59.439 E15.22011
G1 X81.274 Y58.823 E15.26301
G1 X82.01 Y58.27 E15.30587
G1 X82.791 Y57.782 E15.34875
G1 X83.611 Y57.364 E15.39161
G1 X84.465 Y57.019 E15.4345
G1 X85.345 Y56.749 E15.47736
G1 X86.245 Y56.557 E15.52021
G1 X87.159 Y56.443 E15.5631
G1 X87.712 Y56.413 E15.58889
G1 X88.33 Y56.4 E15.61767
G1 X131.293 Y56.4 E17.61821
G1 X132.143 Y56.411 E17.65779
G1 X133.062 Y56.464 E17.70066
G1 X133.973 Y56.597 E17.74353
G1 X134.869 Y56.808 E17.78639
G1 X135.743 Y57.096 E17.82924
G1 X136.59 Y57.459 E17.87215
G1 X137.401 Y57.894 E17.915
G1 X138.171 Y58.398 E17.95785
G1 X138.895 Y58.967 E18.00073
G1 X139.567 Y59.597 E18.04362
G1 X140.182 Y60.282 E18.08649
G1 X140.735 Y61.018 E18.12936
G1 X141.222 Y61.799 E18.17221
G1 X141.639 Y62.62 E18.21509
G1 X141.984 Y63.474 E18.25798
G1 X142.253 Y64.354 E18.30083
G1 X142.445 Y65.255 E18.34372
G1 X142.558 Y66.168 E18.38656
G1 X142.587 Y66.712 E18.41193
G1 X142.6 Y67.33 E18.44071
G1 X142.599 Y150.395 E22.30857
G1 X142.59 Y151.122 E22.34242
G1 X142.539 Y152.041 E22.38528
G1 X142.408 Y152.953 E22.42818
G1 X142.198 Y153.849 E22.47103
G1 X141.912 Y154.724 E22.5139
G1 X141.551 Y155.571 E22.55677
G1 X141.117 Y156.383 E22.59964
G1 X140.615 Y157.155 E22.64252
G1 X140.047 Y157.88 E22.68541
G1 X139.419 Y158.553 E22.72827
G1 X138.735 Y159.169 E22.77113
G1 X138 Y159.723 E22.81399
G1 X137.22 Y160.212 E22.85686
G1 X136.4 Y160.631 E22.89974
G1 X135.547 Y160.977 E22.9426
G1 X134.667 Y161.248 E22.98547
G1 X133.767 Y161.441 E23.02833
G1 X132.853 Y161.556 E23.07123
G1 X132.288 Y161.587 E23.09758
G1 X131.67 Y161.6 E23.12636
G1 X88.57 Y161.599 E25.13328
G1 X87.872 Y161.59 E25.16578
G1 X86.953 Y161.538 E25.20864
G1 X86.042 Y161.407 E25.2515
G1 X85.146 Y161.197 E25.29435
G1 X84.271 Y160.91 E25.33723
G1 X83.424 Y160.548 E25.38012
G1 X82.612 Y160.114 E25.42299
G1 X81.841 Y159.612 E25.46583
G1 X81.116 Y159.044 E25.50872
G1 X80.443 Y158.415 E25.55161
G1 X79.828 Y157.731 E25.59444
G1 X79.274 Y156.996 E25.6373
G1 X78.786 Y156.215 E25.68018
G1 X78.367 Y155.395 E25.72306
G1 X78.021 Y154.542 E25.76592
G1 X77.751 Y153.662 E25.80879
G1 X77.558 Y152.761 E25.85169
G1 X77.444 Y151.848 E25.89454
G1 X77.413 Y151.277 E25.92116
G1 X77.4 Y150.658 E25.94999
G1 X77.401 Y67.531 E29.82073
G1 X77.41 Y66.866 E29.8517
G1 X77.462 Y65.946 E29.89461
G1 X77.594 Y65.035 E29.93747
G1 X77.805 Y64.139 E29.98034
G1 X78.092 Y63.264 E30.02321
G1 X78.455 Y62.418 E30.06608
G1 X78.889 Y61.606 E30.10895
G1 X79.392 Y60.835 E30.15182
G0 F6000 X79.788 Y60.971
G1 F1200 X80.355 Y60.267 E30.19391
G1 X80.981 Y59.617 E30.23593
G1 X81.662 Y59.024 E30.27798
G1 X82.394 Y58.494 E30.32006
G1 X83.169 Y58.031 E30.3621
G1 X83.982 Y57.638 E30.40414
G1 X84.827 Y57.318 E30.44622
G1 X85.696 Y57.075 E30.48823
G1 X86.584 Y56.909 E30.5303
G1 X87.723 Y56.813 E30.58352
G1 X88.33 Y56.8 E30.6118
G1 X131.293 Y56.8 E32.61233
G1 X132.137 Y56.811 E32.65164
G1 X133.039 Y56.864 E32.69371
G1 X133.932 Y56.996 E32.73574
G1 X134.81 Y57.207 E32.77779
G1 X135.666 Y57.495 E32.81984
G1 X136.493 Y57.857 E32.86188
G1 X137.285 Y58.292 E32.90396
G1 X138.036 Y58.794 E32.94602
G1 X138.739 Y59.361 E32.98807
G1 X139.389 Y59.988 E33.03013
G1 X139.981 Y60.67 E33.07218
G1 X140.511 Y61.401 E33.11422
G1 X140.973 Y62.177 E33.15628
G1 X141.366 Y62.99 E33.19832
G1 X141.684 Y63.835 E33.24036
G1 X141.927 Y64.705 E33.28243
G1 X142.092 Y65.593 E33.32448
G1 X142.187 Y66.723 E33.37729
G1 X142.2 Y67.33 E33.40556
G1 X142.199 Y150.39 E37.27318
G1 X142.19 Y151.117 E37.30703
G1 X142.139 Y152.019 E37.3491
G1 X142.008 Y152.913 E37.39117
G1 X141.799 Y153.791 E37.4332
G1 X141.513 Y154.648 E37.47527
G1 X141.152 Y155.476 E37.51733
G1 X140.72 Y156.268 E37.55934
G1 X140.219 Y157.02 E37.60141
G1 X139.653 Y157.724 E37.64347
G1 X139.028 Y158.375 E37.6855
G1 X138.347 Y158.969 E37.72757
G1 X137.616 Y159.5 E37.76965
G1 X136.842 Y159.964 E37.81167
G1 X136.029 Y160.358 E37.85373
G1 X135.185 Y160.678 E37.89576
G1 X134.315 Y160.923 E37.93785
G1 X133.428 Y161.089 E37.97987
G1 X132.277 Y161.187 E38.03366
G1 X131.67 Y161.2 E38.06193
G1 X88.575 Y161.199 E40.06861
G1 X87.877 Y161.19 E40.10112
G1 X86.976 Y161.139 E40.14314
G1 X86.082 Y161.007 E40.18522
G1 X85.204 Y160.798 E40.22725
G1 X84.347 Y160.511 E40.26933
G1 X83.52 Y160.15 E40.31135
G1 X82.727 Y159.717 E40.35342
G1 X81.976 Y159.216 E40.39546
G1 X81.272 Y158.65 E40.43752
G1 X80.621 Y158.024 E40.47957
G1 X80.028 Y157.343 E40.52162
G1 X79.498 Y156.612 E40.56366
G1 X79.034 Y155.837 E40.60572
G1 X78.64 Y155.024 E40.64779
G1 X78.32 Y154.18 E40.68982
G1 X78.076 Y153.31 E40.7319
G1 X77.91 Y152.422 E40.77396
G1 X77.813 Y151.267 E40.82793
G1 X77.8 Y150.658 E40.8563
G1 X77.801 Y67.536 E44.7268
G1 X77.81 Y66.871 E44.75777
G1 X77.862 Y65.969 E44.79984
G1 X77.994 Y65.076 E44.84188
G1 X78.204 Y64.198 E44.88391
G1 X78.491 Y63.341 E44.926
G1 X78.853 Y62.514 E44.96803
G1 X79.286 Y61.722 E45.01006
G1 X79.788 Y60.971 E45.05213
G1 F1500 E38.55213
;MESH:Box-84-short.stl
G0 F6000 X87.335 Y67.42
G0 X88.6 Y150.4
;TYPE:WALL-INNER
G1 F1500 E45.05213
G1 F1200 X131.4 Y150.4 E47.04507
G1 X131.4 Y67.6 E50.90059
G1 X88.6 Y67.6 E52.89354
G1 X88.6 Y150.4 E56.74905
G0 F6000 X88.2 Y150.8
;TYPE:WALL-OUTER
G1 F1200 X131.8 Y150.8 E58.77925
G1 X131.8 Y67.2 E62.67202
G1 X88.2 Y67.2 E64.70221
G1 X88.2 Y150.8 E68.59498
G0 F6000 X88.47 Y150.53
G0 X88.7 Y150.04
G0 X88.96 Y150.04
;TYPE:SKIN
G1 F1200 X131.04 Y150.04 E70.5544
G1 X131.04 Y67.96 E74.37639
G1 X88.96 Y67.96 E76.33581
G1 X88.96 Y150.04 E80.1578
G0 F6000 X89.159 Y149.688
G1 F1200 X89.311 Y149.839 E80.16778
G0 F6000 X89.876 Y149.839
G1 F1200 X89.159 Y149.122 E80.21499
G0 F6000 X89.159 Y148.556
G1 F1200 X90.442 Y149.839 E80.29948
G0 F6000 X91.008 Y149.839
G1 F1200 X89.159 Y147.991 E80.42121
G0 F6000 X89.159 Y147.425
G1 F1200 X91.573 Y149.839 E80.58017
G0 F6000 X92.139 Y149.839
G1 F1200 X89.159 Y146.859 E80.77641
G0 F6000 X89.159 Y146.294
G1 F1200 X92.705 Y149.839 E81.00989
G0 F6000 X93.27 Y149.839
G1 F1200 X89.159 Y145.728 E81.2806
G0 F6000 X89.159 Y145.162
G1 F1200 X93.836 Y149.839 E81.58859
G0 F6000 X94.402 Y149.839
G1 F1200 X89.159 Y144.596 E81.93385
G0 F6000 X89.159 Y144.031
G1 F1200 X94.967 Y149.839 E82.31632
G0 F6000 X95.533 Y149.839
G1 F1200 X89.159 Y143.465 E82.73606
G0 F6000 X89.159 Y142.899
G1 F1200 X96.099 Y149.839 E83.19307
G0 F6000 X96.665 Y149.839
G1 F1200 X89.159 Y142.334 E83.68732
G0 F6000 X89.159 Y141.768
G1 F1200 X97.23 Y149.839 E84.21881
G0 F6000 X97.796 Y149.839
G1 F1200 X89.159 Y141.202 E84.78757
G0 F6000 X89.159 Y140.637
G1 F1200 X98.362 Y149.839 E85.39357
G0 F6000 X98.927 Y149.839
G1 F1200 X89.159 Y140.071 E86.03681
G0 F6000 X89.159 Y139.505
G1 F1200 X99.493 Y149.839 E86.71732
G0 F6000 X100.059 Y149.839
G1 F1200 X89.159 Y138.94 E87.43507
G0 F6000 X89.159 Y138.374
G1 F1200 X100.624 Y149.839 E88.19006
G0 F6000 X101.19 Y149.839
G1 F1200 X89.159 Y137.808 E88.98232
G0 F6000 X89.159 Y137.243
G1 F1200 X101.756 Y149.839 E89.81183
G0 F6000 X102.321 Y149.839
G1 F1200 X89.159 Y136.677 E90.67857
G0 F6000 X89.159 Y136.111
G1 F1200 X102.887 Y149.839 E91.58258
G0 F6000 X103.453 Y149.839
G1 F1200 X89.159 Y135.546 E92.52383
G0 F6000 X89.159 Y134.98
G1 F1200 X104.018 Y149.839 E93.50232
G0 F6000 X104.584 Y149.839
G1 F1200 X89.159 Y134.414 E94.51808
G0 F6000 X89.159 Y133.848
G1 F1200 X105.15 Y149.839 E95.57112
G0 F6000 X105.715 Y149.839
G1 F1200 X89.159 Y133.283 E96.66136
G0 F6000 X89.159 Y132.717
G1 F1200 X106.281 Y149.839 E97.78887
G0 F6000 X106.847 Y149.839
G1 F1200 X89.159 Y132.151 E98.95366
G0 F6000 X89.159 Y131.586
G1 F1200 X107.413 Y149.839 E100.15568
G0 F6000 X107.978 Y149.839
G1 F1200 X89.159 Y131.02 E101.39494
G0 F6000 X89.159 Y130.454
G1 F1200 X108.544 Y149.839 E102.67148
G0 F6000 X109.11 Y149.839
G1 F1200 X89.159 Y129.889 E103.98525
G0 F6000 X89.159 Y129.323
G1 F1200 X109.675 Y149.839 E105.33627
G0 F6000 X110.241 Y149.839
G1 F1200 X89.159 Y128.757 E106.72455
G0 F6000 X89.159 Y128.192
G1 F1200 X110.807 Y149.839 E108.15008
G0 F6000 X111.372 Y149.839
G1 F1200 X89.159 Y127.626 E109.61284
G0 F6000 X89.159 Y127.06
G1 F1200 X111.938 Y149.839 E111.11288
G0 F6000 X112.504 Y149.839
G1 F1200 X89.159 Y126.495 E112.65015
G0 F6000 X89.159 Y125.929
G1 F1200 X113.069 Y149.839 E114.22467
G0 F6000 X113.635 Y149.839
G1 F1200 X89.159 Y125.363 E115.83645
G0 F6000 X89.159 Y124.797
G1 F1200 X114.201 Y149.839 E117.48551
G0 F6000 X114.766 Y149.839
G1 F1200 X89.159 Y124.232 E119.17178
G0 F6000 X89.159 Y123.666
G1 F1200 X115.332 Y149.839 E120.89531
G0 F6000 X115.898 Y149.839
G1 F1200 X89.159 Y123.1 E122.65612
G0 F6000 X89.159 Y122.535
G1 F1200 X116.464 Y149.839 E124.45417
G0 F6000 X117.029 Y149.839
G1 F1200 X89.159 Y121.969 E126.28946
G0 F6000 X89.159 Y121.403
G1 F1200 X117.595 Y149.839 E128.16202
G0 F6000 X118.161 Y149.839
G1 F1200 X89.159 Y120.838 E130.07181
G0 F6000 X89.159 Y120.272
G1 F1200 X118.726 Y149.839 E132.01885
G0 F6000 X119.292 Y149.839
G1 F1200 X89.159 Y119.706 E134.00316
G0 F6000 X89.159 Y119.141
G1 F1200 X119.858 Y149.839 E136.02471
G0 F6000 X120.423 Y149.839
G1 F1200 X89.159 Y118.575 E138.0835
G0 F6000 X89.159 Y118.009
G1 F1200 X120.989 Y149.839 E140.17956
G0 F6000 X121.555 Y149.839
G1 F1200 X89.159 Y117.444 E142.31286
G0 F6000 X89.159 Y116.878
G1 F1200 X122.12 Y149.839 E144.48339
G0 F6000 X122.686 Y149.839
G1 F1200 X89.159 Y116.312 E146.6912
G0 F6000 X89.159 Y115.747
G1 F1200 X123.252 Y149.839 E148.93625
G0 F6000 X123.817 Y149.839
G1 F1200 X89.159 Y115.181 E151.21854
G0 F6000 X89.159 Y114.615
G1 F1200 X124.383 Y149.839 E153.5381
G0 F6000 X124.949 Y149.839
G1 F1200 X89.159 Y114.049 E155.89494
G0 F6000 X89.159 Y113.484
G1 F1200 X125.514 Y149.839 E158.28897
G0 F6000 X126.08 Y149.839
G1 F1200 X89.159 Y112.918 E160.72029
G0 F6000 X89.159 Y112.352
G1 F1200 X126.646 Y149.839 E163.18887
G0 F6000 X127.212 Y149.839
G1 F1200 X89.159 Y111.787 E165.69469
G0 F6000 X89.159 Y111.221
G1 F1200 X127.777 Y149.839 E168.23775
G0 F6000 X128.343 Y149.839
G1 F1200 X89.159 Y110.655 E170.81809
G0 F6000 X89.159 Y110.09
G1 F1200 X128.909 Y149.839 E173.43566
G0 F6000 X129.474 Y149.839
G1 F1200 X89.159 Y109.524 E176.09047
G0 F6000 X89.159 Y108.958
G1 F1200 X130.04 Y149.839 E178.78255
G0 F6000 X130.606 Y149.839
G1 F1200 X89.159 Y108.393 E181.51188
G0 F6000 X89.159 Y107.827
G1 F1200 X130.839 Y149.507 E184.25658
G0 F6000 X130.839 Y148.941
G1 F1200 X89.159 Y107.261 E187.00127
G0 F6000 X89.159 Y106.696
G1 F1200 X130.839 Y148.375 E189.74594
G0 F6000 X130.839 Y147.81
G1 F1200 X89.159 Y106.13 E192.49064
G0 F6000 X89.159 Y105.564
G1 F1200 X130.839 Y147.244 E195.23534
G0 F6000 X130.839 Y146.678
G1 F1200 X89.159 Y104.998 E197.98004
G0 F6000 X89.159 Y104.433
G1 F1200 X130.839 Y146.113 E200.72474
G0 F6000 X130.839 Y145.547
G1 F1200 X89.159 Y103.867 E203.46944
G0 F6000 X89.159 Y103.301
G1 F1200 X130.839 Y144.981 E206.21414
G0 F6000 X130.839 Y144.415
G1 F1200 X89.159 Y102.736 E208.9588
G0 F6000 X89.159 Y102.17
G1 F1200 X130.839 Y143.85 E211.7035
G0 F6000 X130.839 Y143.284
G1 F1200 X89.159 Y101.604 E214.4482
G0 F6000 X89.159 Y101.039
G1 F1200 X130.839 Y142.718 E217.19287
G0 F6000 X130.839 Y142.153
G1 F1200 X89.159 Y100.473 E219.93757
G0 F6000 X89.159 Y99.907
G1 F1200 X130.839 Y141.587 E222.68226
G0 F6000 X130.839 Y141.021
G1 F1200 X89.159 Y99.342 E225.42693
G0 F6000 X89.159 Y98.776
G1 F1200 X130.839 Y140.456 E228.17163
G0 F6000 X130.839 Y139.89
G1 F1200 X89.159 Y98.21 E230.91633
G0 F6000 X89.159 Y97.645
G1 F1200 X130.839 Y139.324 E233.661
G0 F6000 X130.839 Y138.759
G1 F1200 X89.159 Y97.079 E236.40569
G0 F6000 X89.159 Y96.513
G1 F1200 X130.839 Y138.193 E239.15039
G0 F6000 X130.839 Y137.627
G1 F1200 X89.159 Y95.948 E241.89506
G0 F6000 X89.159 Y95.382
G1 F1200 X130.839 Y137.062 E244.63976
G0 F6000 X130.839 Y136.496
G1 F1200 X89.159 Y94.816 E247.38446
G0 F6000 X89.159 Y94.25
G1 F1200 X130.839 Y135.93 E250.12916
G0 F6000 X130.839 Y135.364
G1 F1200 X89.159 Y93.685 E252.87382
G0 F6000 X89.159 Y93.119
G1 F1200 X130.839 Y134.799 E255.61852
G0 F6000 X130.839 Y134.233
G1 F1200 X89.159 Y92.553 E258.36322
G0 F6000 X89.159 Y91.988
G1 F1200 X130.839 Y133.667 E261.10789
G0 F6000 X130.839 Y133.102
G1 F1200 X89.159 Y91.422 E263.85259
G0 F6000 X89.159 Y90.856
G1 F1200 X130.839 Y132.536 E266.59729
G0 F6000 X130.839 Y131.97
G1 F1200 X89.159 Y90.291 E269.34195
G0 F6000 X89.159 Y89.725
G1 F1200 X130.839 Y131.405 E272.08665
G0 F6000 X130.839 Y130.839
G1 F1200 X89.159 Y89.159 E274.83135
G0 F6000 X89.159 Y88.594
G1 F1200 X130.839 Y130.273 E277.57602
G0 F6000 X130.839 Y129.708
G1 F1200 X89.159 Y88.028 E280.32072
G0 F6000 X89.159 Y87.462
G1 F1200 X130.839 Y129.142 E283.06542
G0 F6000 X130.839 Y128.576
G1 F1200 X89.159 Y86.897 E285.81008
G0 F6000 X89.159 Y86.331
