;FLAVOR:Marlin
;TIME:1719
;Filament used: 1.50466m
;Layer height: 0.3
;MINX:89
;MINY:89
;MINZ:0.2
;MAXX:131
;MAXY:131
;MAXZ:21
;Generated with Cura_SteamEngine 5.2.2
M82 ;absolute extrusion mode
; Ender 3 Custom Start G-code
G92 E0 ; Reset Extruder
G28 ; Home all axes
M104 S175 ; Start heating up the nozzle most of the way
M190 S40 ; Start heating the bed, wait until target temperature reached
M109 S210 ; Finish heating the nozzle
G1 Z2.0 F3000 ; Move Z Axis up little to prevent scratching of Heat Bed
G1 X0.1 Y20 Z0.3 F5000.0 ; Move to start position
G1 X0.1 Y200.0 Z0.3 F1500.0 E15 ; Draw the first line
G1 X0.4 Y200.0 Z0.3 F5000.0 ; Move to side a little
G1 X0.4 Y20 Z0.3 F1500.0 E30 ; Draw the second line
G92 E0 ; Reset Extruder
G1 Z2.0 F3000 ; Move Z Axis up little to prevent scratching of Heat Bed
G1 X5 Y20 Z0.3 F5000.0 ; Move over to prevent blob squish
G92 E0
G92 E0
G1 F3600 E-10
;LAYER_COUNT:67
;LAYER:0
M106 S25.5
G1 F300 Z1.2
G0 F9000 X92.198 Y92.264 Z1.2
;TYPE:SKIRT
G1 F300 Z0.2
G1 F3600 E0
G1 F2100 X92.886 Y91.627 E0.03119
G1 X93.626 Y91.051 E0.06237
G1 X94.412 Y90.539 E0.09357
G1 X95.239 Y90.097 E0.12476
G1 X96.101 Y89.727 E0.15596
G1 X96.991 Y89.431 E0.18716
G1 X97.903 Y89.213 E0.21835
G1 X98.83 Y89.072 E0.24953
G1 X99.701 Y89.013 E0.27857
G1 X100.33 Y89 E0.29949
G1 X119.451 Y89.001 E0.93546
G1 X120.149 Y89.011 E0.95868
G1 X121.085 Y89.065 E0.98986
G1 X122.013 Y89.197 E1.02104
G1 X122.927 Y89.409 E1.05224
G1 X123.819 Y89.698 E1.08343
G1 X124.684 Y90.061 E1.11463
G1 X125.514 Y90.497 E1.14581
G1 X126.305 Y91.002 E1.17703
G1 X127.049 Y91.573 E1.20822
G1 X127.742 Y92.205 E1.23942
G1 X128.379 Y92.893 E1.2706
G1 X128.954 Y93.634 E1.3018
G1 X129.465 Y94.42 E1.33298
G1 X129.907 Y95.248 E1.3642
G1 X130.276 Y96.11 E1.39538
G1 X130.571 Y97 E1.42657
G1 X130.789 Y97.912 E1.45776
G1 X130.929 Y98.84 E1.48897
G1 X130.987 Y99.701 E1.51767
G1 X131 Y100.33 E1.5386
G1 X130.999 Y119.4 E2.17287
G1 X130.99 Y120.127 E2.19705
G1 X130.939 Y121.064 E2.22826
G1 X130.807 Y121.992 E2.25944
G1 X130.598 Y122.906 E2.29062
G1 X130.311 Y123.799 E2.32182
G1 X129.949 Y124.665 E2.35304
G1 X129.515 Y125.496 E2.38422
G1 X129.011 Y126.287 E2.41541
G1 X128.442 Y127.032 E2.44659
G1 X127.811 Y127.727 E2.47782
G1 X127.124 Y128.365 E2.509
G1 X126.385 Y128.942 E2.54018
G1 X125.599 Y129.454 E2.57138
G1 X124.773 Y129.897 E2.60256
G1 X123.911 Y130.269 E2.63378
G1 X123.022 Y130.565 E2.66495
G1 X122.11 Y130.785 E2.69615
G1 X121.183 Y130.926 E2.72734
G1 X120.299 Y130.987 E2.75681
G1 X119.67 Y131 E2.77773
G1 X100.565 Y130.999 E3.41317
G1 X99.867 Y130.99 E3.43639
G1 X98.931 Y130.938 E3.46757
G1 X98.002 Y130.806 E3.49878
G1 X97.088 Y130.596 E3.52997
G1 X96.195 Y130.309 E3.56116
G1 X95.33 Y129.946 E3.59237
G1 X94.499 Y129.512 E3.62355
G1 X93.708 Y129.008 E3.65474
G1 X92.963 Y128.438 E3.68594
G1 X92.269 Y127.807 E3.71714
G1 X91.632 Y127.12 E3.7483
G1 X91.055 Y126.38 E3.77951
G1 X90.543 Y125.594 E3.81071
G1 X90.1 Y124.767 E3.84191
G1 X89.729 Y123.906 E3.8731
G1 X89.433 Y123.016 E3.90429
G1 X89.214 Y122.104 E3.93549
G1 X89.073 Y121.177 E3.96667
G1 X89.013 Y120.288 E3.99631
G1 X89 Y119.658 E4.01727
G1 X89.001 Y100.525 E4.65363
G1 X89.01 Y99.86 E4.67575
G1 X89.063 Y98.924 E4.70694
G1 X89.195 Y97.995 E4.73814
G1 X89.406 Y97.081 E4.76934
G1 X89.694 Y96.189 E4.80052
G1 X90.057 Y95.324 E4.83172
G1 X90.492 Y94.493 E4.86292
G1 X90.996 Y93.703 E4.89408
G1 X91.566 Y92.958 E4.92528
G1 X91.659 Y92.855 E4.9299
G0 F1890 X92.198 Y92.264
G0 F9000 X92.589 Y92.439
G1 F2100 X93.274 Y91.823 E4.96054
G1 X94.01 Y91.27 E4.99116
G1 X94.791 Y90.782 E5.02179
G1 X95.611 Y90.364 E5.0524
G1 X96.465 Y90.019 E5.08304
G1 X97.345 Y89.749 E5.11365
G1 X98.245 Y89.557 E5.14426
G1 X99.159 Y89.443 E5.1749
G1 X99.712 Y89.413 E5.19332
G1 X100.33 Y89.4 E5.21387
G1 X119.293 Y89.4 E5.84459
G1 X120.143 Y89.411 E5.87286
G1 X121.062 Y89.464 E5.90348
G1 X121.973 Y89.597 E5.9341
G1 X122.869 Y89.808 E5.96471
G1 X123.743 Y90.096 E5.99532
G1 X124.59 Y90.459 E6.02597
G1 X125.401 Y90.894 E6.05658
G1 X126.171 Y91.398 E6.08719
G1 X126.895 Y91.967 E6.11782
G1 X127.567 Y92.597 E6.14845
G1 X128.182 Y93.282 E6.17907
G1 X128.735 Y94.018 E6.20969
G1 X129.222 Y94.799 E6.2403
G1 X129.639 Y95.62 E6.27093
G1 X129.984 Y96.474 E6.30156
G1 X130.253 Y97.354 E6.33217
G1 X130.445 Y98.255 E6.36281
G1 X130.558 Y99.168 E6.39341
G1 X130.587 Y99.712 E6.41153
G1 X130.6 Y100.33 E6.43209
G1 X130.599 Y119.395 E7.06619
G1 X130.59 Y120.122 E7.09037
G1 X130.539 Y121.041 E7.12099
G1 X130.408 Y121.953 E7.15163
G1 X130.198 Y122.849 E7.18224
G1 X129.912 Y123.724 E7.21286
G1 X129.551 Y124.571 E7.24348
G1 X129.117 Y125.383 E7.2741
G1 X128.615 Y126.155 E7.30473
G1 X128.047 Y126.88 E7.33536
G1 X127.419 Y127.553 E7.36598
G1 X126.735 Y128.169 E7.3966
G1 X126 Y128.723 E7.42721
G1 X125.22 Y129.212 E7.45783
G1 X124.4 Y129.631 E7.48846
G1 X123.547 Y129.977 E7.51907
G1 X122.667 Y130.248 E7.5497
G1 X121.767 Y130.441 E7.58031
G1 X120.853 Y130.556 E7.61095
G1 X120.288 Y130.587 E7.62977
G1 X119.67 Y130.6 E7.65033
G1 X100.57 Y130.599 E8.2856
G1 X99.872 Y130.59 E8.30882
G1 X98.953 Y130.538 E8.33943
G1 X98.042 Y130.407 E8.37004
G1 X97.146 Y130.197 E8.40065
G1 X96.271 Y129.91 E8.43128
G1 X95.424 Y129.548 E8.46192
G1 X94.612 Y129.114 E8.49254
G1 X93.841 Y128.612 E8.52314
G1 X93.116 Y128.044 E8.55377
G1 X92.443 Y127.415 E8.58441
G1 X91.828 Y126.731 E8.615
G1 X91.274 Y125.996 E8.64562
G1 X90.786 Y125.215 E8.67625
G1 X90.367 Y124.395 E8.70687
G1 X90.021 Y123.542 E8.73749
G1 X89.751 Y122.662 E8.76811
G1 X89.558 Y121.761 E8.79875
G1 X89.444 Y120.848 E8.82936
G1 X89.413 Y120.277 E8.84838
G1 X89.4 Y119.658 E8.86897
G1 X89.401 Y100.531 E9.50513
G1 X89.41 Y99.866 E9.52725
G1 X89.462 Y98.946 E9.5579
G1 X89.594 Y98.035 E9.58852
G1 X89.805 Y97.139 E9.61914
G1 X90.092 Y96.264 E9.64976
G1 X90.455 Y95.418 E9.68038
G1 X90.889 Y94.606 E9.71101
G1 X91.392 Y93.835 E9.74162
G1 X91.961 Y93.111 E9.77225
G1 X92.043 Y93.023 E9.77625
G0 F1890 X92.589 Y92.439
G0 F9000 X92.981 Y92.617
G1 F2100 X93.662 Y92.024 E9.80629
G1 X94.394 Y91.494 E9.83634
G1 X95.169 Y91.031 E9.86637
G1 X95.982 Y90.638 E9.8964
G1 X96.827 Y90.318 E9.92646
G1 X97.696 Y90.075 E9.95647
G1 X98.584 Y89.909 E9.98651
G1 X99.723 Y89.813 E10.02453
G1 X100.33 Y89.8 E10.04473
G1 X119.293 Y89.8 E10.67544
G1 X120.137 Y89.811 E10.70351
G1 X121.039 Y89.864 E10.73356
G1 X121.932 Y89.996 E10.76359
G1 X122.81 Y90.207 E10.79362
G1 X123.666 Y90.495 E10.82366
G1 X124.493 Y90.857 E10.85369
G1 X125.285 Y91.292 E10.88374
G1 X126.036 Y91.794 E10.91379
G1 X126.739 Y92.361 E10.94382
G1 X127.389 Y92.988 E10.97386
G1 X127.981 Y93.67 E11.0039
G1 X128.511 Y94.401 E11.03393
G1 X128.973 Y95.177 E11.06397
G1 X129.366 Y95.99 E11.094
G1 X129.684 Y96.835 E11.12403
G1 X129.927 Y97.705 E11.15408
G1 X130.092 Y98.593 E11.18412
G1 X130.187 Y99.723 E11.22183
G1 X130.2 Y100.33 E11.24203
G1 X130.199 Y119.39 E11.87596
G1 X130.19 Y120.117 E11.90015
G1 X130.139 Y121.019 E11.93019
G1 X130.008 Y121.913 E11.96025
G1 X129.799 Y122.791 E11.99027
G1 X129.513 Y123.648 E12.02031
G1 X129.152 Y124.476 E12.05036
G1 X128.72 Y125.268 E12.08036
G1 X128.219 Y126.02 E12.11042
G1 X127.653 Y126.724 E12.14046
G1 X127.028 Y127.375 E12.17048
G1 X126.347 Y127.969 E12.20053
G1 X125.616 Y128.5 E12.23058
G1 X124.842 Y128.964 E12.2606
G1 X124.029 Y129.358 E12.29065
G1 X123.185 Y129.678 E12.32067
G1 X122.315 Y129.923 E12.35073
G1 X121.428 Y130.089 E12.38074
G1 X120.277 Y130.187 E12.41917
G1 X119.67 Y130.2 E12.43936
G1 X100.575 Y130.199 E13.07446
G1 X99.877 Y130.19 E13.09768
G1 X98.976 Y130.139 E13.12769
G1 X98.082 Y130.007 E13.15775
G1 X97.204 Y129.798 E13.18777
G1 X96.347 Y129.511 E13.21783
G1 X95.52 Y129.15 E13.24784
G1 X94.727 Y128.717 E13.27789
G1 X93.976 Y128.216 E13.30792
G1 X93.272 Y127.65 E13.33796
G1 X92.621 Y127.024 E13.368
G1 X92.028 Y126.343 E13.39804
G1 X91.498 Y125.612 E13.42807
G1 X91.034 Y124.837 E13.45811
G1 X90.64 Y124.024 E13.48816
G1 X90.32 Y123.18 E13.51818
G1 X90.076 Y122.31 E13.54823
G1 X89.91 Y121.422 E13.57828
G1 X89.813 Y120.267 E13.61683
G1 X89.8 Y119.658 E13.63709
G1 X89.801 Y100.536 E14.27309
G1 X89.81 Y99.871 E14.29521
G1 X89.862 Y98.969 E14.32526
G1 X89.994 Y98.076 E14.35529
G1 X90.204 Y97.198 E14.38531
G1 X90.491 Y96.341 E14.41537
G1 X90.853 Y95.514 E14.4454
G1 X91.286 Y94.722 E14.47542
G1 X91.788 Y93.971 E14.50546
G1 X92.355 Y93.267 E14.53553
G1 X92.426 Y93.193 E14.53894
G0 F1890 X92.981 Y92.617
G1 F3600 E4.53894
G1 F300 Z1.2
;MESH:CalibrationCube
G0 F9000 X100.6 Y119.4 Z1.2
;TYPE:WALL-INNER
G1 F300 Z0.2
G1 F3600 E14.53894
G1 F2100 X119.4 Y119.4 E15.16423
G1 X119.4 Y100.6 E15.78952
G1 X100.6 Y100.6 E16.41481
G1 X100.6 Y118.6 E17.01349
G0 F1890 X100.6 Y119.4
G0 F9000 X100.2 Y119.8
;TYPE:WALL-OUTER
G1 F2100 X119.8 Y119.8 E17.66539
G1 X119.8 Y100.2 E18.31729
G1 X100.2 Y100.2 E18.96919
G1 X100.2 Y119 E19.59448
G0 F1890 X100.2 Y119.8
G0 F9000 X100.96 Y119.04
;TYPE:SKIN
G1 F2100 X119.04 Y119.04 E20.19582
G1 X119.04 Y100.96 E20.79717
G1 X100.96 Y100.96 E21.39851
G1 X100.96 Y118.24 E21.97325
G0 F1890 X100.96 Y119.04
G0 F9000 X101.302 Y118.839
G1 F2100 X101.159 Y118.695 E21.98
G0 F9000 X101.159 Y118.129
G1 F2100 X101.868 Y118.839 E22.01337
G0 F9000 X102.434 Y118.839
G1 F2100 X101.159 Y117.564 E22.07334
G0 F9000 X101.159 Y116.998
G1 F2100 X103 Y118.839 E22.15994
G0 F9000 X103.565 Y118.839
G1 F2100 X101.159 Y116.432 E22.27313
G0 F9000 X101.159 Y115.867
G1 F2100 X104.131 Y118.839 E22.41292
G0 F9000 X104.697 Y118.839
G1 F2100 X101.159 Y115.301 E22.57934
G0 F9000 X101.159 Y114.735
G1 F2100 X105.262 Y118.839 E22.77236
G0 F9000 X105.828 Y118.839
G1 F2100 X101.159 Y114.17 E22.99197
G0 F9000 X101.159 Y113.604
G1 F2100 X106.394 Y118.839 E23.23821
G0 F9000 X106.959 Y118.839
G1 F2100 X101.159 Y113.038 E23.51105
G0 F9000 X101.159 Y112.473
G1 F2100 X107.525 Y118.839 E23.81049
G0 F9000 X108.091 Y118.839
G1 F2100 X101.159 Y111.907 E24.13655
G0 F9000 X101.159 Y111.341
G1 F2100 X108.656 Y118.839 E24.4892
G0 F9000 X109.222 Y118.839
G1 F2100 X101.159 Y110.776 E24.86846
G0 F9000 X101.159 Y110.21
G1 F2100 X109.788 Y118.839 E25.27435
G0 F9000 X110.353 Y118.839
G1 F2100 X101.159 Y109.644 E25.70683
G0 F9000 X101.159 Y109.078
G1 F2100 X110.919 Y118.839 E26.16593
G0 F9000 X111.485 Y118.839
G1 F2100 X101.159 Y108.513 E26.65163
G0 F9000 X101.159 Y107.947
G1 F2100 X112.05 Y118.839 E27.16394
G0 F9000 X112.616 Y118.839
G1 F2100 X101.159 Y107.381 E27.70286
G0 F9000 X101.159 Y106.816
G1 F2100 X113.182 Y118.839 E28.26839
G0 F9000 X113.748 Y118.839
G1 F2100 X101.159 Y106.25 E28.86054
G0 F9000 X101.159 Y105.684
G1 F2100 X114.313 Y118.839 E29.47928
G0 F9000 X114.879 Y118.839
G1 F2100 X101.159 Y105.119 E30.12463
G0 F9000 X101.159 Y104.553
G1 F2100 X115.445 Y118.839 E30.7966
G0 F9000 X116.01 Y118.839
G1 F2100 X101.159 Y103.987 E31.49517
G0 F9000 X101.159 Y103.422
G1 F2100 X116.576 Y118.839 E32.22034
G0 F9000 X117.142 Y118.839
G1 F2100 X101.159 Y102.856 E32.97213
G0 F9000 X101.159 Y102.29
G1 F2100 X117.707 Y118.839 E33.75052
G0 F9000 X118.273 Y118.839
G1 F2100 X101.159 Y101.725 E34.55551
G0 F9000 X101.159 Y101.159
G1 F2100 X118.839 Y118.839 E35.38712
G0 F9000 X118.839 Y118.274
G1 F2100 X101.725 Y101.16 E36.19211
G0 F9000 X102.291 Y101.16
G1 F2100 X118.839 Y117.708 E36.97048
G0 F9000 X118.839 Y117.142
G1 F2100 X102.857 Y101.16 E37.72222
G0 F9000 X103.422 Y101.16
G1 F2100 X118.839 Y116.577 E38.44739
G0 F9000 X118.839 Y116.011
G1 F2100 X103.988 Y101.16 E39.14594
G0 F9000 X104.554 Y101.16
G1 F2100 X118.839 Y115.445 E39.81786
G0 F9000 X118.839 Y114.88
G1 F2100 X105.119 Y101.16 E40.46321
G0 F9000 X105.685 Y101.16
G1 F2100 X118.839 Y114.314 E41.08193
G0 F9000 X118.839 Y113.748
G1 F2100 X106.251 Y101.16 E41.67403
G0 F9000 X106.816 Y101.16
G1 F2100 X118.839 Y113.183 E42.23956
G0 F9000 X118.839 Y112.617
G1 F2100 X107.382 Y101.16 E42.77846
G0 F9000 X107.948 Y101.16
G1 F2100 X118.839 Y112.051 E43.29074
G0 F9000 X118.839 Y111.485
G1 F2100 X108.514 Y101.16 E43.77639
G0 F9000 X109.079 Y101.16
G1 F2100 X118.839 Y110.92 E44.23547
G0 F9000 X118.839 Y110.354
G1 F2100 X109.645 Y101.16 E44.66793
G0 F9000 X110.211 Y101.16
G1 F2100 X118.839 Y109.788 E45.07377
G0 F9000 X118.839 Y109.223
G1 F2100 X110.776 Y101.16 E45.45303
G0 F9000 X111.342 Y101.16
G1 F2100 X118.839 Y108.657 E45.80566
G0 F9000 X118.839 Y108.091
G1 F2100 X111.908 Y101.16 E46.13167
G0 F9000 X112.473 Y101.16
G1 F2100 X118.839 Y107.526 E46.43111
G0 F9000 X118.839 Y106.96
G1 F2100 X113.039 Y101.16 E46.70393
G0 F9000 X113.605 Y101.16
G1 F2100 X118.839 Y106.394 E46.95012
G0 F9000 X118.839 Y105.829
G1 F2100 X114.17 Y101.16 E47.16973
G0 F9000 X114.736 Y101.16
G1 F2100 X118.839 Y105.263 E47.36272
G0 F9000 X118.839 Y104.697
G1 F2100 X115.302 Y101.16 E47.52909
G0 F9000 X115.867 Y101.16
G1 F2100 X118.839 Y104.132 E47.66889
G0 F9000 X118.839 Y103.566
G1 F2100 X116.433 Y101.16 E47.78206
G0 F9000 X116.999 Y101.16
G1 F2100 X118.839 Y103 E47.86861
G0 F9000 X118.839 Y102.435
G1 F2100 X117.564 Y101.16 E47.92858
G0 F9000 X118.13 Y101.16
G1 F2100 X118.839 Y101.869 E47.96193
G0 F9000 X118.839 Y101.303
M104 S210
G1 F2100 X118.696 Y101.16 E47.96865
G1 F3600 E37.96865
G1 F300 Z1.2
;MESH:NONMESH
G0 F9000 X100.6 Y119.4 Z1.2
;TIME_ELAPSED:54.248656
;LAYER:1
M106 S102
;MESH:CalibrationCube
G0 X100.6 Y119.4 Z1.5
;TYPE:WALL-INNER
G1 F300 Z0.5
G1 F3600 E47.96865
G1 F2100 X119.4 Y119.4 E48.90659
G1 X119.4 Y100.6 E49.84453
G1 X100.6 Y100.6 E50.78246
G1 X100.6 Y118.868 E51.69386
G0 F1890 X100.6 Y119.4
G0 F9000 X100.2 Y119.8
;TYPE:WALL-OUTER
G1 F2100 X119.8 Y119.8 E52.6717
G1 X119.8 Y100.2 E53.64955
G1 X100.2 Y100.2 E54.6274
G1 X100.2 Y119.268 E55.57871
G0 F1890 X100.2 Y119.8
G0 F9000 X100.96 Y119.04
;TYPE:SKIN
G1 F1725 X119.04 Y119.04 E56.48072
G1 X119.04 Y100.96 E57.38274
G1 X100.96 Y100.96 E58.28475
G1 X100.96 Y118.508 E59.16022
G0 F1552.5 X100.96 Y119.04
G1 F3600 E49.16022
G1 F300 Z1.5
G0 F9000 X101.355 Y101.159 Z1.5
G1 F300 Z0.5
G1 F3600 E59.16022
G1 F1725 X101.16 Y101.355 E59.17402
G0 F9000 X101.16 Y101.92
G1 F1725 X101.921 Y101.159 E59.22771
G0 F9000 X102.487 Y101.159
G1 F1725 X101.16 Y102.486 E59.32134
G0 F9000 X101.16 Y103.052
G1 F1725 X103.053 Y101.159 E59.4549
G0 F9000 X103.618 Y101.159
G1 F1725 X101.16 Y103.618 E59.62836
G0 F9000 X101.16 Y104.183
G1 F1725 X104.184 Y101.159 E59.84172
G0 F9000 X104.75 Y101.159
G1 F1725 X101.16 Y104.749 E60.09501
G0 F9000 X101.16 Y105.315
G1 F1725 X105.315 Y101.159 E60.38821
G0 F9000 X105.881 Y101.159
G1 F1725 X101.16 Y105.88 E60.7213
G0 F9000 X101.16 Y106.446
G1 F1725 X106.447 Y101.159 E61.09432
G0 F9000 X107.012 Y101.159
G1 F1725 X101.16 Y107.012 E61.50725
G0 F9000 X101.16 Y107.577
G1 F1725 X107.578 Y101.159 E61.96007
G0 F9000 X108.144 Y101.159
G1 F1725 X101.16 Y108.143 E62.45283
G0 F9000 X101.16 Y108.709
G1 F1725 X108.709 Y101.159 E62.98549
G0 F9000 X109.275 Y101.159
G1 F1725 X101.16 Y109.274 E63.55805
G0 F9000 X101.16 Y109.84
G1 F1725 X109.841 Y101.159 E64.17054
G0 F9000 X110.406 Y101.159
G1 F1725 X101.16 Y110.406 E64.82293
G0 F9000 X101.16 Y110.971
G1 F1725 X110.972 Y101.159 E65.51522
G0 F9000 X111.538 Y101.159
G1 F1725 X101.16 Y111.537 E66.24744
G0 F9000 X101.16 Y112.103
G1 F1725 X112.104 Y101.159 E67.0196
G0 F9000 X112.669 Y101.159
G1 F1725 X101.16 Y112.668 E67.83162
G0 F9000 X101.16 Y113.234
G1 F1725 X113.235 Y101.159 E68.68358
G0 F9000 X113.801 Y101.159
G1 F1725 X101.16 Y113.8 E69.57547
G0 F9000 X101.16 Y114.366
G1 F1725 X114.366 Y101.159 E70.50726
G0 F9000 X114.932 Y101.159
G1 F1725 X101.16 Y114.931 E71.47895
G0 F9000 X101.16 Y115.497
G1 F1725 X115.498 Y101.159 E72.49057
G0 F9000 X116.063 Y101.159
G1 F1725 X101.16 Y116.063 E73.5421
G0 F9000 X101.16 Y116.628
G1 F1725 X116.629 Y101.159 E74.63352
G0 F9000 X117.195 Y101.159
G1 F1725 X101.16 Y117.194 E75.76487
G0 F9000 X101.16 Y117.76
G1 F1725 X117.76 Y101.159 E76.93613
G0 F9000 X118.326 Y101.159
G1 F1725 X101.16 Y118.325 E78.14728
G0 F9000 X101.211 Y118.839
G1 F1725 X118.839 Y101.212 E79.391
G0 F9000 X118.839 Y101.778
G1 F1725 X101.777 Y118.839 E80.59478
G0 F9000 X102.343 Y118.839
G1 F1725 X118.839 Y102.343 E81.75866
G0 F9000 X118.839 Y102.909
G1 F1725 X102.908 Y118.839 E82.88264
G0 F9000 X103.474 Y118.839
G1 F1725 X118.839 Y103.475 E83.96669
G0 F9000 X118.839 Y104.04
